assets/luts/blackwhite/The New black .cube
#Generated by Picture Instruments - Unlimited Filters
TITLE "filter mobile test 6"
LUT_3D_SIZE 17
0 0 0
0 0 0
0 0 0
0.0666667 0.0705882 0.0784314
0.109804 0.12549 0.137255
0.141176 0.156863 0.168627
0.172549 0.192157 0.203922
0.211765 0.231373 0.247059
0.239216 0.258824 0.27451
0.27451 0.294118 0.309804
0.305882 0.32549 0.341176
0.341176 0.360784 0.376471
0.376471 0.396078 0.411765
0.407843 0.427451 0.443137
0.443137 0.462745 0.478431
0.482353 0.501961 0.517647
0.509804 0.529412 0.545098
0 0 0
0 0 0
0.054902 0.0588235 0.0666667
0.0941176 0.109804 0.113725
0.141176 0.156863 0.168627
0.168627 0.188235 0.2
0.2 0.219608 0.235294
0.235294 0.254902 0.270588
0.270588 0.290196 0.305882
0.301961 0.321569 0.337255
0.329412 0.34902 0.364706
0.364706 0.384314 0.4
0.403922 0.423529 0.439216
0.435294 0.454902 0.470588
0.47451 0.494118 0.509804
0.513725 0.533333 0.54902
0.541176 0.560784 0.576471
0 0 0
0.0313725 0.0352941 0.0431373
0.0862745 0.101961 0.105882
0.129412 0.145098 0.156863
0.164706 0.180392 0.192157
0.2 0.219608 0.235294
0.231373 0.25098 0.266667
0.258824 0.278431 0.294118
0.298039 0.317647 0.333333
0.32549 0.345098 0.360784
0.364706 0.384314 0.4
0.392157 0.411765 0.427451
0.431373 0.45098 0.466667
0.47451 0.494118 0.509804
0.505882 0.52549 0.541176
0.541176 0.560784 0.576471
0.568627 0.588235 0.603922
0 0 0
0.0784314 0.0941176 0.0980392
0.121569 0.137255 0.14902
0.160784 0.176471 0.188235
0.188235 0.207843 0.223529
0.219608 0.239216 0.254902
0.254902 0.27451 0.290196
0.282353 0.301961 0.317647
0.321569 0.341176 0.356863
0.352941 0.372549 0.388235
0.388235 0.407843 0.423529
0.427451 0.447059 0.462745
0.458824 0.478431 0.494118
0.494118 0.513725 0.529412
0.537255 0.556863 0.572549
0.568627 0.588235 0.603922
0.596078 0.615686 0.631373
0.0784314 0.0941176 0.0980392
0.109804 0.12549 0.137255
0.14902 0.164706 0.176471
0.184314 0.203922 0.219608
0.215686 0.235294 0.25098
0.25098 0.270588 0.286275
0.27451 0.294118 0.309804
0.313725 0.333333 0.34902
0.34902 0.368627 0.384314
0.380392 0.4 0.415686
0.415686 0.435294 0.45098
0.454902 0.47451 0.490196
0.490196 0.509804 0.52549
0.521569 0.541176 0.556863
0.564706 0.584314 0.6
0.596078 0.615686 0.631373
0.623529 0.643137 0.658824
0.109804 0.12549 0.137255
0.141176 0.156863 0.168627
0.176471 0.196078 0.207843
0.203922 0.223529 0.239216
0.239216 0.258824 0.27451
0.27451 0.294118 0.309804
0.305882 0.32549 0.341176
0.345098 0.364706 0.380392
0.368627 0.388235 0.403922
0.407843 0.427451 0.443137
0.45098 0.470588 0.486275
0.482353 0.501961 0.517647
0.517647 0.537255 0.552941
0.560784 0.580392 0.596078
0.592157 0.611765 0.627451
0.627451 0.647059 0.662745
0.65098 0.670588 0.686275
0.141176 0.156863 0.168627
0.168627 0.188235 0.2
0.2 0.219608 0.235294
0.235294 0.254902 0.270588
0.270588 0.290196 0.305882
0.298039 0.317647 0.333333
0.329412 0.34902 0.364706
0.364706 0.384314 0.4
0.403922 0.423529 0.439216
0.435294 0.454902 0.470588
0.478431 0.498039 0.513725
0.513725 0.533333 0.54902
0.54902 0.568627 0.584314
0.584314 0.603922 0.619608
0.615686 0.635294 0.65098
0.654902 0.67451 0.690196
0.686275 0.705882 0.721569
0.164706 0.180392 0.192157
0.196078 0.215686 0.231373
0.223529 0.243137 0.258824
0.258824 0.278431 0.294118
0.294118 0.313725 0.329412
0.32549 0.345098 0.360784
0.360784 0.380392 0.396078
0.396078 0.415686 0.431373
0.431373 0.45098 0.466667
0.462745 0.482353 0.498039
0.505882 0.52549 0.541176
0.541176 0.560784 0.576471
0.572549 0.592157 0.607843
0.611765 0.631373 0.647059
0.643137 0.662745 0.678431
0.682353 0.701961 0.717647
0.709804 0.729412 0.745098
0.188235 0.207843 0.223529
0.219608 0.239216 0.254902
0.254902 0.27451 0.290196
0.282353 0.301961 0.317647
0.317647 0.337255 0.352941
0.34902 0.368627 0.384314
0.392157 0.411765 0.427451
0.427451 0.447059 0.462745
0.458824 0.478431 0.494118
0.494118 0.513725 0.529412
0.52549 0.545098 0.560784
0.568627 0.588235 0.603922
0.607843 0.627451 0.643137
0.635294 0.654902 0.670588
0.670588 0.690196 0.705882
0.705882 0.72549 0.741176
0.729412 0.74902 0.764706
0.215686 0.235294 0.25098
0.247059 0.266667 0.282353
0.278431 0.298039 0.313725
0.317647 0.337255 0.352941
0.34902 0.368627 0.384314
0.380392 0.4 0.415686
0.415686 0.435294 0.45098
0.454902 0.47451 0.490196
0.490196 0.509804 0.52549
0.52549 0.545098 0.560784
0.564706 0.584314 0.6
0.596078 0.615686 0.631373
0.635294 0.654902 0.670588
0.666667 0.686275 0.701961
0.701961 0.721569 0.737255
0.733333 0.752941 0.768627
0.760784 0.780392 0.792157
0.239216 0.258824 0.27451
0.270588 0.290196 0.305882
0.305882 0.32549 0.341176
0.341176 0.360784 0.376471
0.376471 0.396078 0.411765
0.407843 0.427451 0.443137
0.443137 0.462745 0.478431
0.482353 0.501961 0.517647
0.517647 0.537255 0.552941
0.560784 0.580392 0.596078
0.592157 0.611765 0.627451
0.627451 0.647059 0.662745
0.662745 0.682353 0.698039
0.694118 0.713725 0.729412
0.729412 0.74902 0.764706
0.760784 0.780392 0.792157
0.792157 0.807843 0.819608
0.262745 0.282353 0.298039
0.298039 0.317647 0.333333
0.329412 0.34902 0.364706
0.364706 0.384314 0.4
0.403922 0.423529 0.439216
0.435294 0.454902 0.470588
0.47451 0.494118 0.509804
0.513725 0.533333 0.54902
0.54902 0.568627 0.584314
0.576471 0.596078 0.611765
0.615686 0.635294 0.65098
0.654902 0.67451 0.690196
0.690196 0.709804 0.72549
0.72549 0.745098 0.760784
0.752941 0.772549 0.788235
0.792157 0.807843 0.819608
0.819608 0.835294 0.847059
0.298039 0.317647 0.333333
0.32549 0.345098 0.360784
0.360784 0.380392 0.396078
0.392157 0.411765 0.427451
0.431373 0.45098 0.466667
0.47451 0.494118 0.509804
0.501961 0.521569 0.537255
0.541176 0.560784 0.576471
0.576471 0.596078 0.611765
0.611765 0.631373 0.647059
0.65098 0.670588 0.686275
0.67451 0.694118 0.709804
0.713725 0.733333 0.74902
0.752941 0.772549 0.788235
0.788235 0.803922 0.815686
0.819608 0.835294 0.847059
0.847059 0.862745 0.87451
0.317647 0.337255 0.352941
0.352941 0.372549 0.388235
0.388235 0.407843 0.423529
0.427451 0.447059 0.462745
0.458824 0.478431 0.494118
0.494118 0.513725 0.529412
0.537255 0.556863 0.572549
0.572549 0.592157 0.607843
0.6 0.619608 0.635294
0.639216 0.658824 0.67451
0.670588 0.690196 0.705882
0.705882 0.72549 0.741176
0.741176 0.760784 0.776471
0.780392 0.8 0.811765
0.815686 0.831373 0.843137
0.847059 0.862745 0.87451
0.87451 0.890196 0.894118
0.34902 0.368627 0.384314
0.380392 0.4 0.415686
0.415686 0.435294 0.45098
0.454902 0.47451 0.490196
0.490196 0.509804 0.52549
0.521569 0.541176 0.556863
0.564706 0.584314 0.6
0.596078 0.615686 0.631373
0.635294 0.654902 0.670588
0.666667 0.686275 0.701961
0.698039 0.717647 0.733333
0.733333 0.752941 0.768627
0.764706 0.784314 0.796078
0.807843 0.823529 0.835294
0.843137 0.858824 0.870588
0.87451 0.890196 0.894118
0.909804 0.913725 0.921569
0.376471 0.396078 0.411765
0.407843 0.427451 0.443137
0.45098 0.470588 0.486275
0.482353 0.501961 0.517647
0.521569 0.541176 0.556863
0.560784 0.580392 0.596078
0.592157 0.611765 0.627451
0.623529 0.643137 0.658824
0.662745 0.682353 0.698039
0.698039 0.717647 0.733333
0.729412 0.74902 0.764706
0.760784 0.780392 0.792157
0.796078 0.811765 0.823529
0.835294 0.85098 0.862745
0.866667 0.882353 0.886275
0.913725 0.917647 0.92549
0.937255 0.941176 0.94902
0.392157 0.411765 0.427451
0.431373 0.45098 0.466667
0.470588 0.490196 0.505882
0.509804 0.529412 0.545098
0.541176 0.560784 0.576471
0.572549 0.592157 0.607843
0.607843 0.627451 0.643137
0.647059 0.666667 0.682353
0.686275 0.705882 0.721569
0.717647 0.737255 0.752941
0.74902 0.768627 0.784314
0.784314 0.8 0.811765
0.819608 0.835294 0.847059
0.858824 0.87451 0.886275
0.898039 0.901961 0.909804
0.933333 0.937255 0.945098
0.964706 0.964706 0.972549
0 0 0
0 0 0
0 0 0
0.054902 0.0588235 0.0666667
0.0941176 0.109804 0.113725
0.141176 0.156863 0.168627
0.168627 0.188235 0.2
0.2 0.219608 0.235294
0.235294 0.254902 0.270588
0.262745 0.282353 0.298039
0.301961 0.321569 0.337255
0.329412 0.34902 0.364706
0.364706 0.384314 0.4
0.396078 0.415686 0.431373
0.435294 0.454902 0.470588
0.478431 0.498039 0.513725
0.501961 0.521569 0.537255
0 0 0
0 0 0
0.00784314 0.00784314 0.00784314
0.0862745 0.101961 0.105882
0.129412 0.145098 0.156863
0.160784 0.176471 0.188235
0.196078 0.215686 0.231373
0.223529 0.243137 0.258824
0.258824 0.278431 0.294118
0.294118 0.313725 0.329412
0.321569 0.341176 0.356863
0.360784 0.380392 0.396078
0.392157 0.411765 0.427451
0.427451 0.447059 0.462745
0.462745 0.482353 0.498039
0.501961 0.521569 0.537255
0.533333 0.552941 0.568627
0 0 0
0 0 0
0.0784314 0.0941176 0.0980392
0.121569 0.137255 0.14902
0.152941 0.168627 0.180392
0.188235 0.207843 0.223529
0.219608 0.239216 0.254902
0.25098 0.270588 0.286275
0.282353 0.301961 0.317647
0.317647 0.337255 0.352941
0.352941 0.372549 0.388235
0.388235 0.407843 0.423529
0.419608 0.439216 0.454902
0.458824 0.478431 0.494118
0.494118 0.513725 0.529412
0.52549 0.545098 0.560784
0.564706 0.584314 0.6
0 0 0
0.0784314 0.0941176 0.0980392
0.117647 0.133333 0.145098
0.14902 0.164706 0.176471
0.176471 0.196078 0.207843
0.215686 0.235294 0.25098
0.247059 0.266667 0.282353
0.278431 0.298039 0.313725
0.305882 0.32549 0.341176
0.34902 0.368627 0.384314
0.380392 0.4 0.415686
0.415686 0.435294 0.45098
0.45098 0.470588 0.486275
0.490196 0.509804 0.52549
0.52549 0.545098 0.560784
0.564706 0.584314 0.6
0.592157 0.611765 0.627451
0.0666667 0.0705882 0.0784314
0.101961 0.117647 0.129412
0.141176 0.156863 0.168627
0.172549 0.192157 0.203922
0.211765 0.231373 0.247059
0.239216 0.258824 0.27451
0.270588 0.290196 0.305882
0.305882 0.32549 0.341176
0.341176 0.360784 0.376471
0.376471 0.396078 0.411765
0.407843 0.427451 0.443137
0.443137 0.462745 0.478431
0.482353 0.501961 0.517647
0.517647 0.537255 0.552941
0.54902 0.568627 0.584314
0.592157 0.611765 0.627451
0.619608 0.639216 0.654902
0.0941176 0.109804 0.113725
0.141176 0.156863 0.168627
0.164706 0.180392 0.192157
0.2 0.219608 0.235294
0.231373 0.25098 0.266667
0.262745 0.282353 0.298039
0.301961 0.321569 0.337255
0.32549 0.345098 0.360784
0.364706 0.384314 0.4
0.396078 0.415686 0.431373
0.435294 0.454902 0.470588
0.47451 0.494118 0.509804
0.513725 0.533333 0.54902
0.545098 0.564706 0.580392
0.576471 0.596078 0.611765
0.615686 0.635294 0.65098
0.647059 0.666667 0.682353
0.137255 0.152941 0.164706
0.164706 0.180392 0.192157
0.196078 0.215686 0.231373
0.231373 0.25098 0.266667
0.254902 0.27451 0.290196
0.294118 0.313725 0.329412
0.32549 0.345098 0.360784
0.360784 0.380392 0.396078
0.392157 0.411765 0.427451
0.427451 0.447059 0.462745
0.462745 0.482353 0.498039
0.505882 0.52549 0.541176
0.541176 0.560784 0.576471
0.572549 0.592157 0.607843
0.611765 0.631373 0.647059
0.643137 0.662745 0.678431
0.670588 0.690196 0.705882
0.152941 0.168627 0.180392
0.188235 0.207843 0.223529
0.219608 0.239216 0.254902
0.25098 0.270588 0.286275
0.282353 0.301961 0.317647
0.321569 0.341176 0.356863
0.34902 0.368627 0.384314
0.388235 0.407843 0.423529
0.419608 0.439216 0.454902
0.458824 0.478431 0.494118
0.494118 0.513725 0.529412
0.537255 0.556863 0.572549
0.568627 0.588235 0.603922
0.607843 0.627451 0.643137
0.639216 0.658824 0.67451
0.670588 0.690196 0.705882
0.698039 0.717647 0.733333
0.176471 0.196078 0.207843
0.215686 0.235294 0.25098
0.247059 0.266667 0.282353
0.27451 0.294118 0.309804
0.313725 0.333333 0.34902
0.345098 0.364706 0.380392
0.380392 0.4 0.415686
0.415686 0.435294 0.45098
0.45098 0.470588 0.486275
0.490196 0.509804 0.52549
0.521569 0.541176 0.556863
0.560784 0.580392 0.596078
0.596078 0.615686 0.631373
0.627451 0.647059 0.662745
0.666667 0.686275 0.701961
0.698039 0.717647 0.733333
0.72549 0.745098 0.760784
0.211765 0.231373 0.247059
0.235294 0.254902 0.270588
0.270588 0.290196 0.305882
0.305882 0.32549 0.341176
0.341176 0.360784 0.376471
0.368627 0.388235 0.403922
0.403922 0.423529 0.439216
0.45098 0.470588 0.486275
0.482353 0.501961 0.517647
0.517647 0.537255 0.552941
0.54902 0.568627 0.584314
0.584314 0.603922 0.619608
0.623529 0.643137 0.658824
0.662745 0.682353 0.698039
0.690196 0.709804 0.72549
0.72549 0.745098 0.760784
0.752941 0.772549 0.788235
0.235294 0.254902 0.270588
0.262745 0.282353 0.298039
0.298039 0.317647 0.333333
0.329412 0.34902 0.364706
0.364706 0.384314 0.4
0.403922 0.423529 0.439216
0.435294 0.454902 0.470588
0.47451 0.494118 0.509804
0.513725 0.533333 0.54902
0.545098 0.564706 0.580392
0.584314 0.603922 0.619608
0.615686 0.635294 0.65098
0.65098 0.670588 0.686275
0.690196 0.709804 0.72549
0.721569 0.741176 0.756863
0.756863 0.776471 0.792157
0.784314 0.8 0.811765
0.258824 0.278431 0.294118
0.294118 0.313725 0.329412
0.321569 0.341176 0.356863
0.360784 0.380392 0.396078
0.392157 0.411765 0.427451
0.431373 0.45098 0.466667
0.462745 0.482353 0.498039
0.501961 0.521569 0.537255
0.541176 0.560784 0.576471
0.572549 0.592157 0.607843
0.607843 0.627451 0.643137
0.643137 0.662745 0.678431
0.682353 0.701961 0.717647
0.713725 0.733333 0.74902
0.74902 0.768627 0.784314
0.780392 0.8 0.811765
0.811765 0.827451 0.839216
0.282353 0.301961 0.317647
0.317647 0.337255 0.352941
0.34902 0.368627 0.384314
0.388235 0.407843 0.423529
0.419608 0.439216 0.454902
0.458824 0.478431 0.494118
0.494118 0.513725 0.529412
0.52549 0.545098 0.560784
0.568627 0.588235 0.603922
0.607843 0.627451 0.643137
0.635294 0.654902 0.670588
0.670588 0.690196 0.705882
0.701961 0.721569 0.737255
0.741176 0.760784 0.776471
0.772549 0.792157 0.803922
0.807843 0.823529 0.835294
0.843137 0.858824 0.870588
0.313725 0.333333 0.34902
0.34902 0.368627 0.384314
0.380392 0.4 0.415686
0.415686 0.435294 0.45098
0.454902 0.47451 0.490196
0.490196 0.509804 0.52549
0.521569 0.541176 0.556863
0.560784 0.580392 0.596078
0.596078 0.615686 0.631373
0.635294 0.654902 0.670588
0.666667 0.686275 0.701961
0.701961 0.721569 0.737255
0.729412 0.74902 0.764706
0.764706 0.784314 0.796078
0.807843 0.823529 0.835294
0.843137 0.858824 0.870588
0.870588 0.886275 0.890196
0.341176 0.360784 0.376471
0.368627 0.388235 0.403922
0.407843 0.427451 0.443137
0.443137 0.462745 0.478431
0.482353 0.501961 0.517647
0.517647 0.537255 0.552941
0.54902 0.568627 0.584314
0.592157 0.611765 0.627451
0.623529 0.643137 0.658824
0.654902 0.67451 0.690196
0.694118 0.713725 0.729412
0.72549 0.745098 0.760784
0.760784 0.780392 0.792157
0.796078 0.811765 0.823529
0.827451 0.843137 0.854902
0.866667 0.882353 0.886275
0.905882 0.909804 0.917647
0.364706 0.384314 0.4
0.403922 0.423529 0.439216
0.431373 0.45098 0.466667
0.47451 0.494118 0.509804
0.513725 0.533333 0.54902
0.545098 0.564706 0.580392
0.576471 0.596078 0.611765
0.615686 0.635294 0.65098
0.65098 0.670588 0.686275
0.690196 0.709804 0.72549
0.721569 0.741176 0.756863
0.752941 0.772549 0.788235
0.792157 0.807843 0.819608
0.823529 0.839216 0.85098
0.854902 0.870588 0.882353
0.901961 0.905882 0.913725
0.933333 0.937255 0.945098
0.388235 0.407843 0.423529
0.423529 0.443137 0.458824
0.458824 0.478431 0.494118
0.498039 0.517647 0.533333
0.533333 0.552941 0.568627
0.568627 0.588235 0.603922
0.603922 0.623529 0.639216
0.635294 0.654902 0.670588
0.670588 0.690196 0.705882
0.709804 0.729412 0.745098
0.737255 0.756863 0.772549
0.776471 0.796078 0.807843
0.815686 0.831373 0.843137
0.847059 0.862745 0.87451
0.886275 0.901961 0.905882
0.92549 0.929412 0.937255
0.960784 0.960784 0.968627
0 0 0
0 0 0
0 0 0
0.00784314 0.00784314 0.00784314
0.0862745 0.101961 0.105882
0.129412 0.145098 0.156863
0.160784 0.176471 0.188235
0.188235 0.207843 0.223529
0.223529 0.243137 0.258824
0.254902 0.27451 0.290196
0.294118 0.313725 0.329412
0.321569 0.341176 0.356863
0.352941 0.372549 0.388235
0.392157 0.411765 0.427451
0.431373 0.45098 0.466667
0.458824 0.478431 0.494118
0.498039 0.517647 0.533333
0 0 0
0 0 0
0 0 0
0.0784314 0.0941176 0.0980392
0.117647 0.133333 0.145098
0.152941 0.168627 0.180392
0.188235 0.207843 0.223529
0.219608 0.239216 0.254902
0.25098 0.270588 0.286275
0.282353 0.301961 0.317647
0.317647 0.337255 0.352941
0.352941 0.372549 0.388235
0.388235 0.407843 0.423529
0.419608 0.439216 0.454902
0.454902 0.47451 0.490196
0.494118 0.513725 0.529412
0.517647 0.537255 0.552941
0 0 0
0 0 0
0.0784314 0.0823529 0.0901961
0.109804 0.12549 0.137255
0.14902 0.164706 0.176471
0.176471 0.196078 0.207843
0.211765 0.231373 0.247059
0.247059 0.266667 0.282353
0.27451 0.294118 0.309804
0.313725 0.333333 0.34902
0.345098 0.364706 0.380392
0.376471 0.396078 0.411765
0.415686 0.435294 0.45098
0.45098 0.470588 0.486275
0.482353 0.501961 0.517647
0.521569 0.541176 0.556863
0.556863 0.576471 0.592157
0 0 0
0.0666667 0.0705882 0.0784314
0.101961 0.117647 0.129412
0.141176 0.156863 0.168627
0.172549 0.192157 0.203922
0.203922 0.223529 0.239216
0.239216 0.258824 0.27451
0.270588 0.290196 0.305882
0.301961 0.321569 0.337255
0.341176 0.360784 0.376471
0.368627 0.388235 0.403922
0.407843 0.427451 0.443137
0.435294 0.454902 0.470588
0.478431 0.498039 0.513725
0.517647 0.537255 0.552941
0.54902 0.568627 0.584314
0.580392 0.6 0.615686
0.0313725 0.0352941 0.0431373
0.0941176 0.109804 0.113725
0.137255 0.152941 0.164706
0.168627 0.188235 0.2
0.2 0.219608 0.235294
0.231373 0.25098 0.266667
0.262745 0.282353 0.298039
0.298039 0.317647 0.333333
0.329412 0.34902 0.364706
0.360784 0.380392 0.396078
0.403922 0.423529 0.439216
0.435294 0.454902 0.470588
0.47451 0.494118 0.509804
0.505882 0.52549 0.541176
0.545098 0.564706 0.580392
0.584314 0.603922 0.619608
0.607843 0.627451 0.643137
0.0862745 0.101961 0.105882
0.121569 0.137255 0.14902
0.160784 0.176471 0.188235
0.196078 0.215686 0.231373
0.223529 0.243137 0.258824
0.258824 0.278431 0.294118
0.294118 0.313725 0.329412
0.321569 0.341176 0.356863
0.352941 0.372549 0.388235
0.392157 0.411765 0.427451
0.431373 0.45098 0.466667
0.462745 0.482353 0.498039
0.501961 0.521569 0.537255
0.541176 0.560784 0.576471
0.572549 0.592157 0.607843
0.607843 0.627451 0.643137
0.635294 0.654902 0.670588
0.117647 0.133333 0.145098
0.152941 0.168627 0.180392
0.184314 0.203922 0.219608
0.215686 0.235294 0.25098
0.25098 0.270588 0.286275
0.278431 0.298039 0.313725
0.317647 0.337255 0.352941
0.352941 0.372549 0.388235
0.380392 0.4 0.415686
0.419608 0.439216 0.454902
0.454902 0.47451 0.490196
0.494118 0.513725 0.529412
0.52549 0.545098 0.560784
0.568627 0.588235 0.603922
0.6 0.619608 0.635294
0.635294 0.654902 0.670588
0.662745 0.682353 0.698039
0.141176 0.156863 0.168627
0.176471 0.196078 0.207843
0.215686 0.235294 0.25098
0.247059 0.266667 0.282353
0.278431 0.298039 0.313725
0.305882 0.32549 0.341176
0.345098 0.364706 0.380392
0.380392 0.4 0.415686
0.415686 0.435294 0.45098
0.45098 0.470588 0.486275
0.482353 0.501961 0.517647
0.521569 0.541176 0.556863
0.564706 0.584314 0.6
0.596078 0.615686 0.631373
0.627451 0.647059 0.662745
0.666667 0.686275 0.701961
0.690196 0.709804 0.72549
0.172549 0.192157 0.203922
0.203922 0.223529 0.239216
0.239216 0.258824 0.27451
0.270588 0.290196 0.305882
0.301961 0.321569 0.337255
0.341176 0.360784 0.376471
0.376471 0.396078 0.411765
0.403922 0.423529 0.439216
0.443137 0.462745 0.478431
0.478431 0.498039 0.513725
0.517647 0.537255 0.552941
0.54902 0.568627 0.584314
0.584314 0.603922 0.619608
0.623529 0.643137 0.658824
0.654902 0.67451 0.690196
0.694118 0.713725 0.729412
0.717647 0.737255 0.752941
0.2 0.219608 0.235294
0.231373 0.25098 0.266667
0.262745 0.282353 0.298039
0.298039 0.317647 0.333333
0.32549 0.345098 0.360784
0.364706 0.384314 0.4
0.396078 0.415686 0.431373
0.435294 0.454902 0.470588
0.47451 0.494118 0.509804
0.505882 0.52549 0.541176
0.545098 0.564706 0.580392
0.576471 0.596078 0.611765
0.611765 0.631373 0.647059
0.65098 0.670588 0.686275
0.682353 0.701961 0.717647
0.721569 0.741176 0.756863
0.745098 0.764706 0.780392
0.223529 0.243137 0.258824
0.254902 0.27451 0.290196
0.282353 0.301961 0.317647
0.321569 0.341176 0.356863
0.360784 0.380392 0.396078
0.392157 0.411765 0.427451
0.427451 0.447059 0.462745
0.458824 0.478431 0.494118
0.501961 0.521569 0.537255
0.541176 0.560784 0.576471
0.568627 0.588235 0.603922
0.607843 0.627451 0.643137
0.639216 0.658824 0.67451
0.67451 0.694118 0.709804
0.713725 0.733333 0.74902
0.741176 0.760784 0.776471
0.776471 0.796078 0.807843
0.25098 0.270588 0.286275
0.282353 0.301961 0.317647
0.317647 0.337255 0.352941
0.34902 0.368627 0.384314
0.388235 0.407843 0.423529
0.419608 0.439216 0.454902
0.458824 0.478431 0.494118
0.494118 0.513725 0.529412
0.52549 0.545098 0.560784
0.568627 0.588235 0.603922
0.6 0.619608 0.635294
0.639216 0.658824 0.67451
0.670588 0.690196 0.705882
0.701961 0.721569 0.737255
0.733333 0.752941 0.768627
0.772549 0.792157 0.803922
0.803922 0.819608 0.831373
0.27451 0.294118 0.309804
0.313725 0.333333 0.34902
0.345098 0.364706 0.380392
0.376471 0.396078 0.411765
0.415686 0.435294 0.45098
0.45098 0.470588 0.486275
0.482353 0.501961 0.517647
0.521569 0.541176 0.556863
0.560784 0.580392 0.596078
0.596078 0.615686 0.631373
0.627451 0.647059 0.662745
0.662745 0.682353 0.698039
0.698039 0.717647 0.733333
0.733333 0.752941 0.768627
0.764706 0.784314 0.796078
0.803922 0.819608 0.831373
0.831373 0.847059 0.858824
0.305882 0.32549 0.341176
0.341176 0.360784 0.376471
0.368627 0.388235 0.403922
0.403922 0.423529 0.439216
0.443137 0.462745 0.478431
0.478431 0.498039 0.513725
0.517647 0.537255 0.552941
0.54902 0.568627 0.584314
0.584314 0.603922 0.619608
0.623529 0.643137 0.658824
0.654902 0.67451 0.690196
0.690196 0.709804 0.72549
0.72549 0.745098 0.760784
0.756863 0.776471 0.792157
0.796078 0.811765 0.823529
0.827451 0.843137 0.854902
0.858824 0.87451 0.886275
0.32549 0.345098 0.360784
0.364706 0.384314 0.4
0.403922 0.423529 0.439216
0.435294 0.454902 0.470588
0.47451 0.494118 0.509804
0.505882 0.52549 0.541176
0.545098 0.564706 0.580392
0.576471 0.596078 0.611765
0.611765 0.631373 0.647059
0.643137 0.662745 0.678431
0.690196 0.709804 0.72549
0.721569 0.741176 0.756863
0.752941 0.772549 0.788235
0.788235 0.803922 0.815686
0.823529 0.839216 0.85098
0.862745 0.878431 0.890196
0.886275 0.901961 0.905882
0.360784 0.380392 0.396078
0.392157 0.411765 0.427451
0.427451 0.447059 0.462745
0.462745 0.482353 0.498039
0.501961 0.521569 0.537255
0.541176 0.560784 0.576471
0.572549 0.592157 0.607843
0.607843 0.627451 0.643137
0.643137 0.662745 0.678431
0.67451 0.694118 0.709804
0.705882 0.72549 0.741176
0.74902 0.768627 0.784314
0.780392 0.8 0.811765
0.819608 0.835294 0.847059
0.85098 0.866667 0.878431
0.882353 0.898039 0.901961
0.921569 0.92549 0.933333
0.376471 0.396078 0.411765
0.415686 0.435294 0.45098
0.45098 0.470588 0.486275
0.490196 0.509804 0.52549
0.521569 0.541176 0.556863
0.560784 0.580392 0.596078
0.596078 0.615686 0.631373
0.631373 0.65098 0.666667
0.666667 0.686275 0.701961
0.698039 0.717647 0.733333
0.729412 0.74902 0.764706
0.768627 0.788235 0.8
0.803922 0.819608 0.831373
0.843137 0.858824 0.870588
0.870588 0.886275 0.890196
0.913725 0.917647 0.92549
0.941176 0.945098 0.952941
0 0 0
0 0 0
0 0 0
0 0 0
0.0784314 0.0941176 0.0980392
0.117647 0.133333 0.145098
0.152941 0.168627 0.180392
0.184314 0.203922 0.219608
0.215686 0.235294 0.25098
0.25098 0.270588 0.286275
0.278431 0.298039 0.313725
0.317647 0.337255 0.352941
0.34902 0.368627 0.384314
0.380392 0.4 0.415686
0.419608 0.439216 0.454902
0.454902 0.47451 0.490196
0.486275 0.505882 0.521569
0 0 0
0 0 0
0 0 0
0.0666667 0.0705882 0.0784314
0.109804 0.12549 0.137255
0.14902 0.164706 0.176471
0.176471 0.196078 0.207843
0.211765 0.231373 0.247059
0.239216 0.258824 0.27451
0.27451 0.294118 0.309804
0.305882 0.32549 0.341176
0.345098 0.364706 0.380392
0.376471 0.396078 0.411765
0.407843 0.427451 0.443137
0.45098 0.470588 0.486275
0.490196 0.509804 0.52549
