assets/luts/blackwhite/The New black .cube
#Generated by Picture Instruments - Unlimited Filters
TITLE "filter mobile test 6"
LUT_3D_SIZE 5
0 0 0
0.109804 0.12549 0.137255
0.239216 0.258824 0.27451
0.376471 0.396078 0.411765
0.509804 0.529412 0.545098
0.0784314 0.0941176 0.0980392
0.215686 0.235294 0.25098
0.34902 0.368627 0.384314
0.490196 0.509804 0.52549
0.623529 0.643137 0.658824
0.188235 0.207843 0.223529
0.317647 0.337255 0.352941
0.458824 0.478431 0.494118
0.607843 0.627451 0.643137
0.729412 0.74902 0.764706
0.298039 0.317647 0.333333
0.431373 0.45098 0.466667
0.576471 0.596078 0.611765
0.713725 0.733333 0.74902
0.847059 0.862745 0.87451
0.392157 0.411765 0.427451
0.541176 0.560784 0.576471
0.686275 0.705882 0.721569
0.819608 0.835294 0.847059
0.964706 0.964706 0.972549
0 0 0
0.0666667 0.0705882 0.0784314
0.211765 0.231373 0.247059
0.345098 0.364706 0.380392
0.478431 0.498039 0.513725
0 0 0
0.184314 0.203922 0.219608
0.313725 0.333333 0.34902
0.454902 0.47451 0.490196
0.592157 0.611765 0.627451
0.160784 0.176471 0.188235
0.282353 0.301961 0.317647
0.427451 0.447059 0.462745
0.568627 0.588235 0.603922
0.698039 0.717647 0.733333
0.258824 0.278431 0.294118
0.392157 0.411765 0.427451
0.541176 0.560784 0.576471
0.67451 0.694118 0.709804
0.815686 0.831373 0.843137
0.360784 0.380392 0.396078
0.509804 0.529412 0.545098
0.647059 0.666667 0.682353
0.788235 0.803922 0.815686
0.921569 0.92549 0.933333
0 0 0
0 0 0
0.176471 0.196078 0.207843
0.305882 0.32549 0.341176
0.439216 0.458824 0.47451
0 0 0
0.14902 0.164706 0.176471
0.278431 0.298039 0.313725
0.419608 0.439216 0.454902
0.556863 0.576471 0.592157
0.121569 0.137255 0.14902
0.254902 0.27451 0.290196
0.388235 0.407843 0.423529
0.537255 0.556863 0.572549
0.666667 0.686275 0.701961
0.231373 0.25098 0.266667
0.360784 0.380392 0.396078
0.505882 0.52549 0.541176
0.643137 0.662745 0.678431
0.776471 0.796078 0.807843
0.321569 0.341176 0.356863
0.470588 0.490196 0.505882
0.611765 0.631373 0.647059
0.752941 0.772549 0.788235
0.882353 0.898039 0.901961
0 0 0
0 0 0
0.141176 0.156863 0.168627
0.270588 0.290196 0.305882
0.403922 0.423529 0.439216
0 0 0
0.117647 0.133333 0.145098
0.25098 0.270588 0.286275
0.388235 0.407843 0.423529
0.517647 0.537255 0.552941
0.0784314 0.0941176 0.0980392
0.219608 0.239216 0.254902
0.352941 0.372549 0.388235
0.494118 0.513725 0.529412
0.631373 0.65098 0.666667
0.2 0.219608 0.235294
0.32549 0.345098 0.360784
0.462745 0.482353 0.498039
0.611765 0.631373 0.647059
0.745098 0.764706 0.780392
0.298039 0.317647 0.333333
0.431373 0.45098 0.466667
0.580392 0.6 0.615686
0.717647 0.737255 0.752941
0.847059 0.862745 0.87451
0 0 0
0 0 0
0.101961 0.117647 0.129412
0.247059 0.266667 0.282353
0.364706 0.384314 0.4
0 0 0
0.0784314 0.0941176 0.0980392
0.219608 0.239216 0.254902
0.34902 0.368627 0.384314
0.486275 0.505882 0.521569
0 0 0
0.188235 0.207843 0.223529
0.321569 0.341176 0.356863
0.462745 0.482353 0.498039
0.603922 0.623529 0.639216
0.164706 0.180392 0.192157
0.294118 0.313725 0.329412
0.431373 0.45098 0.466667
0.576471 0.596078 0.611765
0.701961 0.721569 0.737255
0.258824 0.278431 0.294118
0.4 0.419608 0.435294
0.545098 0.564706 0.580392
0.686275 0.705882 0.721569
0.815686 0.831373 0.843137
