assets/luts/blackwhite/The New black .cube
#Generated by Picture Instruments - Unlimited Filters
TITLE "filter mobile test 6"
LUT_3D_SIZE 9
0 0 0
0 0 0
0.109804 0.12549 0.137255
0.172549 0.192157 0.203922
0.239216 0.258824 0.27451
0.305882 0.32549 0.341176
0.376471 0.396078 0.411765
0.443137 0.462745 0.478431
0.509804 0.529412 0.545098
0 0 0
0.0862745 0.101961 0.105882
0.164706 0.180392 0.192157
0.231373 0.25098 0.266667
0.298039 0.317647 0.333333
0.364706 0.384314 0.4
0.431373 0.45098 0.466667
0.505882 0.52549 0.541176
0.568627 0.588235 0.603922
0.0784314 0.0941176 0.0980392
0.14902 0.164706 0.176471
0.215686 0.235294 0.25098
0.27451 0.294118 0.309804
0.34902 0.368627 0.384314
0.415686 0.435294 0.45098
0.490196 0.509804 0.52549
0.564706 0.584314 0.6
0.623529 0.643137 0.658824
0.141176 0.156863 0.168627
0.2 0.219608 0.235294
0.270588 0.290196 0.305882
0.329412 0.34902 0.364706
0.403922 0.423529 0.439216
0.478431 0.498039 0.513725
0.54902 0.568627 0.584314
0.615686 0.635294 0.65098
0.686275 0.705882 0.721569
0.188235 0.207843 0.223529
0.254902 0.27451 0.290196
0.317647 0.337255 0.352941
0.392157 0.411765 0.427451
0.458824 0.478431 0.494118
0.52549 0.545098 0.560784
0.607843 0.627451 0.643137
0.670588 0.690196 0.705882
0.729412 0.74902 0.764706
0.239216 0.258824 0.27451
0.305882 0.32549 0.341176
0.376471 0.396078 0.411765
0.443137 0.462745 0.478431
0.517647 0.537255 0.552941
0.592157 0.611765 0.627451
0.662745 0.682353 0.698039
0.729412 0.74902 0.764706
0.792157 0.807843 0.819608
0.298039 0.317647 0.333333
0.360784 0.380392 0.396078
0.431373 0.45098 0.466667
0.501961 0.521569 0.537255
0.576471 0.596078 0.611765
0.65098 0.670588 0.686275
0.713725 0.733333 0.74902
0.788235 0.803922 0.815686
0.847059 0.862745 0.87451
0.34902 0.368627 0.384314
0.415686 0.435294 0.45098
0.490196 0.509804 0.52549
0.564706 0.584314 0.6
0.635294 0.654902 0.670588
0.698039 0.717647 0.733333
0.764706 0.784314 0.796078
0.843137 0.858824 0.870588
0.909804 0.913725 0.921569
0.392157 0.411765 0.427451
0.470588 0.490196 0.505882
0.541176 0.560784 0.576471
0.607843 0.627451 0.643137
0.686275 0.705882 0.721569
0.74902 0.768627 0.784314
0.819608 0.835294 0.847059
0.898039 0.901961 0.909804
0.964706 0.964706 0.972549
0 0 0
0 0 0
0.0862745 0.101961 0.105882
0.160784 0.176471 0.188235
0.223529 0.243137 0.258824
0.294118 0.313725 0.329412
0.352941 0.372549 0.388235
0.431373 0.45098 0.466667
0.498039 0.517647 0.533333
0 0 0
0.0784314 0.0823529 0.0901961
0.14902 0.164706 0.176471
0.211765 0.231373 0.247059
0.27451 0.294118 0.309804
0.345098 0.364706 0.380392
0.415686 0.435294 0.45098
0.482353 0.501961 0.517647
0.556863 0.576471 0.592157
0.0313725 0.0352941 0.0431373
0.137255 0.152941 0.164706
0.2 0.219608 0.235294
0.262745 0.282353 0.298039
0.329412 0.34902 0.364706
0.403922 0.423529 0.439216
0.47451 0.494118 0.509804
0.545098 0.564706 0.580392
0.607843 0.627451 0.643137
0.117647 0.133333 0.145098
0.184314 0.203922 0.219608
0.25098 0.270588 0.286275
0.317647 0.337255 0.352941
0.380392 0.4 0.415686
0.454902 0.47451 0.490196
0.52549 0.545098 0.560784
0.6 0.619608 0.635294
0.662745 0.682353 0.698039
0.172549 0.192157 0.203922
0.239216 0.258824 0.27451
0.301961 0.321569 0.337255
0.376471 0.396078 0.411765
0.443137 0.462745 0.478431
0.517647 0.537255 0.552941
0.584314 0.603922 0.619608
0.654902 0.67451 0.690196
0.717647 0.737255 0.752941
0.223529 0.243137 0.258824
0.282353 0.301961 0.317647
0.360784 0.380392 0.396078
0.427451 0.447059 0.462745
0.501961 0.521569 0.537255
0.568627 0.588235 0.603922
0.639216 0.658824 0.67451
0.713725 0.733333 0.74902
0.776471 0.796078 0.807843
0.27451 0.294118 0.309804
0.345098 0.364706 0.380392
0.415686 0.435294 0.45098
0.482353 0.501961 0.517647
0.560784 0.580392 0.596078
0.627451 0.647059 0.662745
0.698039 0.717647 0.733333
0.764706 0.784314 0.796078
0.831373 0.847059 0.858824
0.32549 0.345098 0.360784
0.403922 0.423529 0.439216
0.47451 0.494118 0.509804
0.545098 0.564706 0.580392
0.611765 0.631373 0.647059
0.690196 0.709804 0.72549
0.752941 0.772549 0.788235
0.823529 0.839216 0.85098
0.886275 0.901961 0.905882
0.376471 0.396078 0.411765
0.45098 0.470588 0.486275
0.521569 0.541176 0.556863
0.596078 0.615686 0.631373
0.666667 0.686275 0.701961
0.729412 0.74902 0.764706
0.803922 0.819608 0.831373
0.870588 0.886275 0.890196
0.941176 0.945098 0.952941
0 0 0
0 0 0
0.0666667 0.0705882 0.0784314
0.141176 0.156863 0.168627
0.211765 0.231373 0.247059
0.27451 0.294118 0.309804
0.345098 0.364706 0.380392
0.407843 0.427451 0.443137
0.478431 0.498039 0.513725
0 0 0
0.0313725 0.0352941 0.0431373
0.129412 0.145098 0.156863
0.2 0.219608 0.235294
0.258824 0.278431 0.294118
0.32549 0.345098 0.360784
0.396078 0.415686 0.431373
0.462745 0.482353 0.498039
0.537255 0.556863 0.572549
0 0 0
0.117647 0.133333 0.145098
0.184314 0.203922 0.219608
0.247059 0.266667 0.282353
0.313725 0.333333 0.34902
0.380392 0.4 0.415686
0.454902 0.47451 0.490196
0.52549 0.545098 0.560784
0.592157 0.611765 0.627451
0.101961 0.117647 0.129412
0.168627 0.188235 0.2
0.235294 0.254902 0.270588
0.298039 0.317647 0.333333
0.368627 0.388235 0.403922
0.443137 0.462745 0.478431
0.513725 0.533333 0.54902
0.584314 0.603922 0.619608
0.647059 0.666667 0.682353
0.160784 0.176471 0.188235
0.219608 0.239216 0.254902
0.282353 0.301961 0.317647
0.352941 0.372549 0.388235
0.427451 0.447059 0.462745
0.494118 0.513725 0.529412
0.568627 0.588235 0.603922
0.639216 0.658824 0.67451
0.698039 0.717647 0.733333
0.211765 0.231373 0.247059
0.270588 0.290196 0.305882
0.341176 0.360784 0.376471
0.407843 0.427451 0.443137
0.490196 0.509804 0.52549
0.560784 0.580392 0.596078
0.627451 0.647059 0.662745
0.694118 0.713725 0.729412
0.756863 0.776471 0.788235
0.258824 0.278431 0.294118
0.32549 0.345098 0.360784
0.392157 0.411765 0.427451
0.47451 0.494118 0.509804
0.541176 0.560784 0.576471
0.611765 0.631373 0.647059
0.67451 0.694118 0.709804
0.74902 0.768627 0.784314
0.815686 0.831373 0.843137
0.313725 0.333333 0.34902
0.380392 0.4 0.415686
0.454902 0.47451 0.490196
0.521569 0.541176 0.556863
0.596078 0.615686 0.631373
0.666667 0.686275 0.701961
0.733333 0.752941 0.768627
0.807843 0.823529 0.835294
0.870588 0.886275 0.890196
0.360784 0.380392 0.396078
0.431373 0.45098 0.466667
0.509804 0.529412 0.545098
0.572549 0.592157 0.607843
0.647059 0.666667 0.682353
0.717647 0.737255 0.752941
0.788235 0.803922 0.815686
0.85098 0.866667 0.878431
0.921569 0.92549 0.933333
0 0 0
0 0 0
0.00784314 0.00784314 0.00784314
0.129412 0.145098 0.156863
0.196078 0.215686 0.231373
0.254902 0.27451 0.290196
0.321569 0.341176 0.356863
0.392157 0.411765 0.427451
0.454902 0.47451 0.490196
0 0 0
0 0 0
0.109804 0.12549 0.137255
0.176471 0.196078 0.207843
0.247059 0.266667 0.282353
0.313725 0.333333 0.34902
0.376471 0.396078 0.411765
0.45098 0.470588 0.486275
0.517647 0.537255 0.552941
0 0 0
0.0862745 0.101961 0.105882
0.168627 0.188235 0.2
0.231373 0.25098 0.266667
0.298039 0.317647 0.333333
0.360784 0.380392 0.396078
0.435294 0.454902 0.470588
0.513725 0.533333 0.54902
0.572549 0.592157 0.607843
0.0784314 0.0941176 0.0980392
0.152941 0.168627 0.180392
0.219608 0.239216 0.254902
0.278431 0.298039 0.313725
0.34902 0.368627 0.384314
0.419608 0.439216 0.454902
0.494118 0.513725 0.529412
0.568627 0.588235 0.603922
0.631373 0.65098 0.666667
0.141176 0.156863 0.168627
0.211765 0.231373 0.247059
0.270588 0.290196 0.305882
0.341176 0.360784 0.376471
0.403922 0.423529 0.439216
0.482353 0.501961 0.517647
0.54902 0.568627 0.584314
0.623529 0.643137 0.658824
0.686275 0.705882 0.721569
0.196078 0.215686 0.231373
0.254902 0.27451 0.290196
0.321569 0.341176 0.356863
0.392157 0.411765 0.427451
0.462745 0.482353 0.498039
0.537255 0.556863 0.572549
0.607843 0.627451 0.643137
0.67451 0.694118 0.709804
0.737255 0.756863 0.772549
0.247059 0.266667 0.282353
0.313725 0.333333 0.34902
0.376471 0.396078 0.411765
0.45098 0.470588 0.486275
0.521569 0.541176 0.556863
0.596078 0.615686 0.631373
0.662745 0.682353 0.698039
0.733333 0.752941 0.768627
0.8 0.815686 0.827451
0.298039 0.317647 0.333333
0.360784 0.380392 0.396078
0.435294 0.454902 0.470588
0.505882 0.52549 0.541176
0.576471 0.596078 0.611765
0.643137 0.662745 0.678431
0.721569 0.741176 0.756863
0.788235 0.803922 0.815686
0.85098 0.866667 0.878431
0.345098 0.364706 0.380392
0.411765 0.431373 0.447059
0.486275 0.505882 0.521569
0.560784 0.580392 0.596078
0.631373 0.65098 0.666667
0.698039 0.717647 0.733333
0.760784 0.780392 0.792157
0.839216 0.854902 0.866667
0.909804 0.913725 0.921569
0 0 0
0 0 0
0 0 0
0.109804 0.12549 0.137255
0.176471 0.196078 0.207843
0.239216 0.258824 0.27451
0.305882 0.32549 0.341176
0.376471 0.396078 0.411765
0.439216 0.458824 0.47451
0 0 0
0 0 0
0.0862745 0.101961 0.105882
0.164706 0.180392 0.192157
0.231373 0.25098 0.266667
0.294118 0.313725 0.329412
0.360784 0.380392 0.396078
0.431373 0.45098 0.466667
0.498039 0.517647 0.533333
0 0 0
0.0784314 0.0941176 0.0980392
0.14902 0.164706 0.176471
0.215686 0.235294 0.25098
0.278431 0.298039 0.313725
0.34902 0.368627 0.384314
0.419608 0.439216 0.454902
0.490196 0.509804 0.52549
0.556863 0.576471 0.592157
0.054902 0.0588235 0.0666667
0.141176 0.156863 0.168627
0.2 0.219608 0.235294
0.270588 0.290196 0.305882
0.329412 0.34902 0.364706
0.403922 0.423529 0.439216
0.47451 0.494118 0.509804
0.54902 0.568627 0.584314
0.611765 0.631373 0.647059
0.121569 0.137255 0.14902
0.188235 0.207843 0.223529
0.254902 0.27451 0.290196
0.321569 0.341176 0.356863
0.388235 0.407843 0.423529
0.458824 0.478431 0.494118
0.537255 0.556863 0.572549
0.607843 0.627451 0.643137
0.666667 0.686275 0.701961
0.176471 0.196078 0.207843
0.239216 0.258824 0.27451
0.305882 0.32549 0.341176
0.368627 0.388235 0.403922
0.45098 0.470588 0.486275
0.517647 0.537255 0.552941
0.592157 0.611765 0.627451
0.662745 0.682353 0.698039
0.721569 0.741176 0.756863
0.231373 0.25098 0.266667
0.294118 0.313725 0.329412
0.360784 0.380392 0.396078
0.431373 0.45098 0.466667
0.505882 0.52549 0.541176
0.576471 0.596078 0.611765
0.643137 0.662745 0.678431
0.713725 0.733333 0.74902
0.776471 0.796078 0.807843
0.278431 0.298039 0.313725
0.34902 0.368627 0.384314
0.415686 0.435294 0.45098
0.490196 0.509804 0.52549
0.564706 0.584314 0.6
0.635294 0.654902 0.670588
0.701961 0.721569 0.737255
0.764706 0.784314 0.796078
0.831373 0.847059 0.858824
0.321569 0.341176 0.356863
0.392157 0.411765 0.427451
0.470588 0.490196 0.505882
0.541176 0.560784 0.576471
0.611765 0.631373 0.647059
0.678431 0.698039 0.713725
0.752941 0.772549 0.788235
0.819608 0.835294 0.847059
0.882353 0.898039 0.901961
0 0 0
0 0 0
0 0 0
0.0784314 0.0941176 0.0980392
0.164706 0.180392 0.192157
0.223529 0.243137 0.258824
0.294118 0.313725 0.329412
0.360784 0.380392 0.396078
0.423529 0.443137 0.458824
0 0 0
0 0 0
0.0666667 0.0705882 0.0784314
0.14902 0.164706 0.176471
0.211765 0.231373 0.247059
0.278431 0.298039 0.313725
0.345098 0.364706 0.380392
0.415686 0.435294 0.45098
0.478431 0.498039 0.513725
0 0 0
0.0313725 0.0352941 0.0431373
0.137255 0.152941 0.164706
0.2 0.219608 0.235294
0.262745 0.282353 0.298039
0.32549 0.345098 0.360784
0.396078 0.415686 0.431373
0.47451 0.494118 0.509804
0.537255 0.556863 0.572549
0 0 0
0.121569 0.137255 0.14902
0.188235 0.207843 0.223529
0.25098 0.270588 0.286275
0.317647 0.337255 0.352941
0.380392 0.4 0.415686
0.454902 0.47451 0.490196
0.537255 0.556863 0.572549
0.596078 0.615686 0.631373
0.101961 0.117647 0.129412
0.168627 0.188235 0.2
0.239216 0.258824 0.27451
0.301961 0.321569 0.337255
0.368627 0.388235 0.403922
0.435294 0.454902 0.470588
0.517647 0.537255 0.552941
0.584314 0.603922 0.619608
0.65098 0.670588 0.686275
0.160784 0.176471 0.188235
0.223529 0.243137 0.258824
0.294118 0.313725 0.329412
0.360784 0.380392 0.396078
0.427451 0.447059 0.462745
0.501961 0.521569 0.537255
0.572549 0.592157 0.607843
0.643137 0.662745 0.678431
0.701961 0.721569 0.737255
0.215686 0.235294 0.25098
0.278431 0.298039 0.313725
0.345098 0.364706 0.380392
0.415686 0.435294 0.45098
0.482353 0.501961 0.517647
0.564706 0.584314 0.6
0.627451 0.647059 0.662745
0.698039 0.717647 0.733333
0.756863 0.776471 0.788235
0.262745 0.282353 0.298039
0.32549 0.345098 0.360784
0.396078 0.415686 0.431373
0.47451 0.494118 0.509804
0.545098 0.564706 0.580392
0.615686 0.635294 0.65098
0.682353 0.701961 0.717647
0.752941 0.772549 0.788235
0.815686 0.831373 0.843137
0.309804 0.329412 0.345098
0.376471 0.396078 0.411765
0.45098 0.470588 0.486275
0.521569 0.541176 0.556863
0.592157 0.611765 0.627451
0.662745 0.682353 0.698039
0.729412 0.74902 0.764706
0.803922 0.819608 0.831373
0.866667 0.882353 0.886275
0 0 0
0 0 0
0 0 0
0.0666667 0.0705882 0.0784314
0.141176 0.156863 0.168627
0.211765 0.231373 0.247059
0.270588 0.290196 0.305882
0.341176 0.360784 0.376471
0.403922 0.423529 0.439216
0 0 0
0 0 0
0.0313725 0.0352941 0.0431373
0.137255 0.152941 0.164706
0.196078 0.215686 0.231373
0.262745 0.282353 0.298039
0.32549 0.345098 0.360784
0.392157 0.411765 0.427451
0.458824 0.478431 0.494118
0 0 0
0 0 0
0.117647 0.133333 0.145098
0.176471 0.196078 0.207843
0.25098 0.270588 0.286275
0.313725 0.333333 0.34902
0.388235 0.407843 0.423529
0.45098 0.470588 0.486275
0.517647 0.537255 0.552941
0 0 0
0.0941176 0.109804 0.113725
0.168627 0.188235 0.2
0.235294 0.254902 0.270588
0.301961 0.321569 0.337255
0.364706 0.384314 0.4
0.435294 0.454902 0.470588
0.513725 0.533333 0.54902
0.572549 0.592157 0.607843
0.0784314 0.0941176 0.0980392
0.160784 0.176471 0.188235
0.219608 0.239216 0.254902
0.294118 0.313725 0.329412
0.352941 0.372549 0.388235
0.427451 0.447059 0.462745
0.494118 0.513725 0.529412
0.568627 0.588235 0.603922
0.631373 0.65098 0.666667
0.141176 0.156863 0.168627
0.203922 0.223529 0.239216
0.270588 0.290196 0.305882
0.345098 0.364706 0.380392
0.407843 0.427451 0.443137
0.482353 0.501961 0.517647
0.54902 0.568627 0.584314
0.627451 0.647059 0.662745
0.690196 0.709804 0.72549
0.2 0.219608 0.235294
0.258824 0.278431 0.294118
0.32549 0.345098 0.360784
0.396078 0.415686 0.431373
0.462745 0.482353 0.498039
0.541176 0.560784 0.576471
0.611765 0.631373 0.647059
0.682353 0.701961 0.717647
0.745098 0.764706 0.780392
0.247059 0.266667 0.282353
0.317647 0.337255 0.352941
0.380392 0.4 0.415686
0.45098 0.470588 0.486275
0.52549 0.545098 0.560784
0.596078 0.615686 0.631373
0.670588 0.690196 0.705882
0.733333 0.752941 0.768627
0.8 0.815686 0.827451
0.298039 0.317647 0.333333
0.360784 0.380392 0.396078
0.431373 0.45098 0.466667
0.509804 0.529412 0.545098
0.580392 0.6 0.615686
0.647059 0.666667 0.682353
0.717647 0.737255 0.752941
0.788235 0.803922 0.815686
0.847059 0.862745 0.87451
0 0 0
0 0 0
0 0 0
0.00784314 0.00784314 0.00784314
0.129412 0.145098 0.156863
0.196078 0.215686 0.231373
0.254902 0.27451 0.290196
0.32549 0.345098 0.360784
0.388235 0.407843 0.423529
0 0 0
0 0 0
0 0 0
0.109804 0.12549 0.137255
0.176471 0.196078 0.207843
0.247059 0.266667 0.282353
0.313725 0.333333 0.34902
0.376471 0.396078 0.411765
0.447059 0.466667 0.482353
0 0 0
0 0 0
0.0941176 0.109804 0.113725
0.164706 0.180392 0.192157
0.231373 0.25098 0.266667
0.298039 0.317647 0.333333
0.368627 0.388235 0.403922
0.435294 0.454902 0.470588
0.501961 0.521569 0.537255
0 0 0
0.0784314 0.0941176 0.0980392
0.152941 0.168627 0.180392
0.219608 0.239216 0.254902
0.278431 0.298039 0.313725
0.352941 0.372549 0.388235
0.419608 0.439216 0.454902
0.494118 0.513725 0.529412
0.560784 0.580392 0.596078
0.054902 0.0588235 0.0666667
0.141176 0.156863 0.168627
0.203922 0.223529 0.239216
0.270588 0.290196 0.305882
0.341176 0.360784 0.376471
0.403922 0.423529 0.439216
0.478431 0.498039 0.513725
0.54902 0.568627 0.584314
0.611765 0.631373 0.647059
0.129412 0.145098 0.156863
0.188235 0.207843 0.223529
0.258824 0.278431 0.294118
0.321569 0.341176 0.356863
0.392157 0.411765 0.427451
0.462745 0.482353 0.498039
0.537255 0.556863 0.572549
0.607843 0.627451 0.643137
0.670588 0.690196 0.705882
0.176471 0.196078 0.207843
0.247059 0.266667 0.282353
0.305882 0.32549 0.341176
0.376471 0.396078 0.411765
0.45098 0.470588 0.486275
0.521569 0.541176 0.556863
0.596078 0.615686 0.631373
0.662745 0.682353 0.698039
0.72549 0.745098 0.760784
0.231373 0.25098 0.266667
0.298039 0.317647 0.333333
0.364706 0.384314 0.4
0.431373 0.45098 0.466667
0.505882 0.52549 0.541176
0.576471 0.596078 0.611765
0.65098 0.670588 0.686275
0.721569 0.741176 0.756863
0.784314 0.8 0.811765
0.27451 0.294118 0.309804
0.345098 0.364706 0.380392
0.415686 0.435294 0.45098
0.490196 0.509804 0.52549
0.560784 0.580392 0.596078
0.631373 0.65098 0.666667
0.698039 0.717647 0.733333
0.768627 0.788235 0.8
0.835294 0.85098 0.862745
0 0 0
0 0 0
0 0 0
0 0 0
0.101961 0.117647 0.129412
0.176471 0.196078 0.207843
0.247059 0.266667 0.282353
0.305882 0.32549 0.341176
0.364706 0.384314 0.4
0 0 0
0 0 0
0 0 0
0.0941176 0.109804 0.113725
0.164706 0.180392 0.192157
0.231373 0.25098 0.266667
0.294118 0.313725 0.329412
0.360784 0.380392 0.396078
0.423529 0.443137 0.458824
0 0 0
0 0 0
0.0784314 0.0941176 0.0980392
0.14902 0.164706 0.176471
0.219608 0.239216 0.254902
0.278431 0.298039 0.313725
0.34902 0.368627 0.384314
0.419608 0.439216 0.454902
0.486275 0.505882 0.521569
0 0 0
0.054902 0.0588235 0.0666667
0.141176 0.156863 0.168627
0.203922 0.223529 0.239216
0.262745 0.282353 0.298039
0.329412 0.34902 0.364706
0.403922 0.423529 0.439216
0.478431 0.498039 0.513725
0.541176 0.560784 0.576471
0 0 0
0.129412 0.145098 0.156863
0.188235 0.207843 0.223529
0.254902 0.27451 0.290196
0.321569 0.341176 0.356863
0.388235 0.407843 0.423529
0.462745 0.482353 0.498039
0.537255 0.556863 0.572549
0.603922 0.623529 0.639216
0.109804 0.12549 0.137255
0.176471 0.196078 0.207843
0.239216 0.258824 0.27451
0.305882 0.32549 0.341176
0.368627 0.388235 0.403922
0.45098 0.470588 0.486275
0.517647 0.537255 0.552941
0.592157 0.611765 0.627451
0.65098 0.670588 0.686275
0.164706 0.180392 0.192157
0.223529 0.243137 0.258824
0.294118 0.313725 0.329412
0.364706 0.384314 0.4
0.431373 0.45098 0.466667
0.505882 0.52549 0.541176
0.576471 0.596078 0.611765
0.643137 0.662745 0.678431
0.701961 0.721569 0.737255
0.219608 0.239216 0.254902
0.278431 0.298039 0.313725
0.34902 0.368627 0.384314
0.415686 0.435294 0.45098
0.494118 0.513725 0.529412
0.564706 0.584314 0.6
0.635294 0.654902 0.670588
0.701961 0.721569 0.737255
0.760784 0.780392 0.792157
0.258824 0.278431 0.294118
0.32549 0.345098 0.360784
0.4 0.419608 0.435294
0.47451 0.494118 0.509804
0.545098 0.564706 0.580392
0.611765 0.631373 0.647059
0.686275 0.705882 0.721569
0.752941 0.772549 0.788235
0.815686 0.831373 0.843137
