assets/luts/blackwhite/Vintage BW.cube
#Generated by Picture Instruments - Unlimited Filters
TITLE "filter mobile test 7"
LUT_3D_SIZE 9
0 0 0
0 0 0
0.054902 0.0627451 0.0588235
0.176471 0.196078 0.180392
0.266667 0.286275 0.270588
0.376471 0.380392 0.388235
0.505882 0.486275 0.509804
0.631373 0.603922 0.631373
0.733333 0.705882 0.733333
0 0 0
0 0 0
0.109804 0.129412 0.113725
0.215686 0.235294 0.219608
0.317647 0.32549 0.321569
0.435294 0.427451 0.439216
0.54902 0.529412 0.552941
0.670588 0.643137 0.670588
0.768627 0.74902 0.772549
0 0 0
0 0 0
0.152941 0.172549 0.156863
0.243137 0.262745 0.247059
0.352941 0.360784 0.356863
0.470588 0.462745 0.47451
0.6 0.572549 0.6
0.717647 0.690196 0.717647
0.811765 0.792157 0.815686
0 0 0
0.0784314 0.0980392 0.0823529
0.192157 0.211765 0.196078
0.282353 0.298039 0.294118
0.396078 0.396078 0.403922
0.521569 0.501961 0.52549
0.647059 0.619608 0.647059
0.752941 0.733333 0.756863
0.85098 0.843137 0.854902
0 0 0
0.133333 0.152941 0.137255
0.223529 0.243137 0.227451
0.329412 0.337255 0.333333
0.439216 0.431373 0.443137
0.568627 0.54902 0.572549
0.690196 0.662745 0.690196
0.788235 0.768627 0.792157
0.886275 0.878431 0.890196
0.054902 0.0627451 0.0588235
0.164706 0.184314 0.168627
0.262745 0.282353 0.266667
0.376471 0.376471 0.384314
0.490196 0.482353 0.501961
0.615686 0.588235 0.615686
0.733333 0.705882 0.733333
0.839216 0.819608 0.843137
0.929412 0.921569 0.933333
0.109804 0.129412 0.113725
0.203922 0.223529 0.207843
0.309804 0.317647 0.313725
0.415686 0.415686 0.423529
0.54902 0.529412 0.552941
0.666667 0.639216 0.666667
0.772549 0.752941 0.776471
0.870588 0.862745 0.87451
0.968627 0.968627 0.968627
0.145098 0.164706 0.14902
0.243137 0.262745 0.247059
0.34902 0.356863 0.352941
0.466667 0.458824 0.470588
0.592157 0.564706 0.592157
0.701961 0.67451 0.701961
0.815686 0.796078 0.819608
0.913725 0.905882 0.917647
0.996078 0.996078 0.996078
0.176471 0.196078 0.180392
0.270588 0.290196 0.27451
0.376471 0.380392 0.388235
0.505882 0.486275 0.509804
0.631373 0.603922 0.631373
0.741176 0.721569 0.745098
0.847059 0.827451 0.843137
0.945098 0.937255 0.94902
0.996078 0.996078 0.996078
0 0 0
0 0 0
0.00784314 0.00784314 0.00784314
0.14902 0.168627 0.152941
0.25098 0.270588 0.254902
0.352941 0.360784 0.356863
0.466667 0.458824 0.470588
0.603922 0.576471 0.607843
0.705882 0.678431 0.705882
0 0 0
0 0 0
0.0784314 0.0980392 0.0823529
0.192157 0.211765 0.196078
0.282353 0.298039 0.294118
0.396078 0.396078 0.403922
0.521569 0.501961 0.52549
0.639216 0.611765 0.639216
0.745098 0.72549 0.74902
0 0 0
0 0 0
0.121569 0.141176 0.12549
0.227451 0.247059 0.231373
0.329412 0.337255 0.333333
0.45098 0.443137 0.454902
0.572549 0.552941 0.576471
0.686275 0.658824 0.686275
0.784314 0.764706 0.788235
0 0 0
0.054902 0.0627451 0.0588235
0.172549 0.192157 0.176471
0.262745 0.282353 0.266667
0.364706 0.368627 0.376471
0.490196 0.482353 0.501961
0.615686 0.588235 0.615686
0.737255 0.709804 0.737255
0.831373 0.811765 0.835294
0 0 0
0.101961 0.121569 0.105882
0.203922 0.223529 0.207843
0.309804 0.317647 0.313725
0.415686 0.415686 0.423529
0.54902 0.529412 0.552941
0.662745 0.635294 0.662745
0.772549 0.752941 0.776471
0.862745 0.854902 0.866667
0 0 0
0.145098 0.164706 0.14902
0.243137 0.262745 0.247059
0.341176 0.34902 0.345098
0.466667 0.458824 0.470588
0.592157 0.564706 0.592157
0.701961 0.67451 0.701961
0.815686 0.796078 0.819608
0.905882 0.898039 0.909804
0.0784314 0.0862745 0.0823529
0.180392 0.2 0.184314
0.27451 0.294118 0.278431
0.392157 0.392157 0.4
0.517647 0.498039 0.521569
0.635294 0.607843 0.635294
0.745098 0.72549 0.74902
0.858824 0.839216 0.854902
0.945098 0.937255 0.94902
0.117647 0.137255 0.121569
0.223529 0.243137 0.227451
0.317647 0.32549 0.321569
0.439216 0.431373 0.443137
0.564706 0.545098 0.568627
0.686275 0.658824 0.686275
0.788235 0.768627 0.792157
0.890196 0.882353 0.894118
0.988235 0.988235 0.988235
0.156863 0.176471 0.160784
0.254902 0.27451 0.258824
0.360784 0.364706 0.372549
0.478431 0.470588 0.490196
0.603922 0.576471 0.603922
0.717647 0.690196 0.717647
0.831373 0.811765 0.835294
0.921569 0.913725 0.92549
0.996078 0.996078 0.996078
0 0 0
0 0 0
0 0 0
0.121569 0.141176 0.12549
0.227451 0.247059 0.231373
0.329412 0.337255 0.333333
0.443137 0.435294 0.447059
0.568627 0.54902 0.572549
0.682353 0.654902 0.682353
0 0 0
0 0 0
0.054902 0.0627451 0.0588235
0.172549 0.192157 0.176471
0.258824 0.278431 0.262745
0.376471 0.376471 0.384314
0.490196 0.482353 0.501961
0.615686 0.588235 0.615686
0.729412 0.701961 0.729412
0 0 0
0 0 0
0.101961 0.121569 0.105882
0.203922 0.223529 0.207843
0.309804 0.317647 0.313725
0.415686 0.415686 0.423529
0.541176 0.521569 0.545098
0.662745 0.635294 0.662745
0.764706 0.745098 0.768627
0 0 0
0 0 0
0.14902 0.168627 0.152941
0.243137 0.262745 0.247059
0.34902 0.356863 0.352941
0.466667 0.458824 0.470588
0.6 0.572549 0.6
0.709804 0.682353 0.709804
0.803922 0.784314 0.807843
0 0 0
0.0784314 0.0862745 0.0823529
0.180392 0.2 0.184314
0.278431 0.298039 0.282353
0.392157 0.392157 0.4
0.509804 0.490196 0.513725
0.635294 0.607843 0.635294
0.745098 0.72549 0.74902
0.847059 0.827451 0.843137
0 0 0
0.117647 0.137255 0.121569
0.219608 0.239216 0.223529
0.32549 0.333333 0.329412
0.443137 0.435294 0.447059
0.564706 0.545098 0.568627
0.686275 0.658824 0.686275
0.788235 0.768627 0.792157
0.882353 0.87451 0.886275
0.0313725 0.0392157 0.027451
0.160784 0.180392 0.164706
0.254902 0.27451 0.258824
0.364706 0.368627 0.376471
0.478431 0.470588 0.490196
0.607843 0.580392 0.607843
0.721569 0.694118 0.721569
0.827451 0.807843 0.831373
0.921569 0.913725 0.92549
0.0941176 0.113725 0.0980392
0.2 0.219608 0.203922
0.301961 0.309804 0.305882
0.403922 0.403922 0.411765
0.537255 0.517647 0.541176
0.654902 0.627451 0.654902
0.760784 0.741176 0.764706
0.862745 0.854902 0.866667
0.960784 0.960784 0.960784
0.137255 0.156863 0.141176
0.231373 0.25098 0.235294
0.333333 0.341176 0.337255
0.447059 0.439216 0.45098
0.580392 0.552941 0.580392
0.694118 0.666667 0.694118
0.8 0.780392 0.803922
0.901961 0.894118 0.905882
0.992157 0.992157 0.992157
0 0 0
0 0 0
0 0 0
0.101961 0.121569 0.105882
0.207843 0.227451 0.211765
0.309804 0.317647 0.313725
0.411765 0.411765 0.419608
0.541176 0.521569 0.545098
0.658824 0.631373 0.658824
0 0 0
0 0 0
0 0 0
0.145098 0.164706 0.14902
0.243137 0.262745 0.247059
0.34902 0.356863 0.352941
0.466667 0.458824 0.470588
0.6 0.572549 0.6
0.698039 0.670588 0.698039
0 0 0
0 0 0
0.0784314 0.0862745 0.0823529
0.180392 0.2 0.184314
0.278431 0.298039 0.282353
0.380392 0.384314 0.392157
0.517647 0.498039 0.521569
0.635294 0.607843 0.635294
0.741176 0.721569 0.745098
0 0 0
0 0 0
0.117647 0.137255 0.121569
0.219608 0.239216 0.223529
0.317647 0.32549 0.321569
0.439216 0.431373 0.443137
0.564706 0.545098 0.568627
0.682353 0.654902 0.682353
0.780392 0.760784 0.784314
0 0 0
0.0313725 0.0392157 0.027451
0.160784 0.180392 0.164706
0.258824 0.278431 0.262745
0.356863 0.364706 0.360784
0.482353 0.47451 0.494118
0.615686 0.588235 0.615686
0.733333 0.705882 0.733333
0.823529 0.803922 0.827451
0 0 0
0.0862745 0.105882 0.0901961
0.2 0.219608 0.203922
0.301961 0.309804 0.305882
0.411765 0.411765 0.419608
0.537255 0.517647 0.541176
0.647059 0.619608 0.647059
0.760784 0.741176 0.764706
0.858824 0.85098 0.862745
0 0 0
0.141176 0.160784 0.145098
0.235294 0.254902 0.239216
0.341176 0.34902 0.345098
0.454902 0.447059 0.458824
0.592157 0.564706 0.592157
0.698039 0.670588 0.698039
0.807843 0.788235 0.811765
0.901961 0.894118 0.905882
0.0666667 0.0745098 0.0705882
0.176471 0.196078 0.180392
0.266667 0.286275 0.270588
0.376471 0.380392 0.388235
0.509804 0.490196 0.513725
0.623529 0.596078 0.623529
0.741176 0.713725 0.741176
0.843137 0.823529 0.847059
0.941176 0.933333 0.945098
0.105882 0.12549 0.109804
0.203922 0.223529 0.207843
0.309804 0.317647 0.313725
0.419608 0.411765 0.423529
0.545098 0.52549 0.54902
0.666667 0.639216 0.666667
0.768627 0.74902 0.772549
0.878431 0.870588 0.882353
0.972549 0.972549 0.972549
0 0 0
0 0 0
0 0 0
0.0784314 0.0862745 0.0823529
0.188235 0.207843 0.192157
0.27451 0.294118 0.278431
0.392157 0.392157 0.4
0.521569 0.501961 0.52549
0.631373 0.603922 0.631373
0 0 0
0 0 0
0 0 0
0.117647 0.137255 0.121569
0.219608 0.239216 0.223529
0.32549 0.333333 0.329412
0.439216 0.431373 0.443137
0.552941 0.533333 0.556863
0.678431 0.65098 0.678431
0 0 0
0 0 0
0.0313725 0.0392157 0.027451
0.160784 0.180392 0.164706
0.254902 0.27451 0.258824
0.364706 0.368627 0.376471
0.482353 0.47451 0.494118
0.607843 0.580392 0.607843
0.713725 0.686275 0.713725
0 0 0
0 0 0
0.0862745 0.105882 0.0901961
0.2 0.219608 0.203922
0.301961 0.309804 0.305882
0.411765 0.411765 0.419608
0.533333 0.513725 0.537255
0.654902 0.627451 0.654902
0.756863 0.737255 0.760784
0 0 0
0 0 0
0.141176 0.160784 0.145098
0.235294 0.254902 0.239216
0.337255 0.345098 0.341176
0.45098 0.443137 0.454902
0.584314 0.556863 0.584314
0.698039 0.670588 0.698039
0.8 0.780392 0.803922
0 0 0
0.054902 0.0627451 0.0588235
0.180392 0.2 0.184314
0.266667 0.286275 0.270588
0.380392 0.384314 0.392157
0.505882 0.486275 0.509804
0.631373 0.603922 0.631373
0.745098 0.72549 0.74902
0.839216 0.819608 0.843137
0 0 0
0.109804 0.129412 0.113725
0.207843 0.227451 0.211765
0.313725 0.321569 0.317647
0.435294 0.427451 0.439216
0.552941 0.533333 0.556863
0.670588 0.643137 0.670588
0.780392 0.760784 0.784314
0.878431 0.870588 0.882353
0.00784314 0.00784314 0.00784314
0.152941 0.172549 0.156863
0.25098 0.270588 0.254902
0.352941 0.360784 0.356863
0.478431 0.470588 0.490196
0.603922 0.576471 0.607843
0.721569 0.694118 0.721569
0.819608 0.8 0.823529
0.909804 0.901961 0.913725
0.0745098 0.0941176 0.0784314
0.188235 0.207843 0.192157
0.278431 0.294118 0.290196
0.392157 0.392157 0.4
0.529412 0.509804 0.533333
0.635294 0.607843 0.635294
0.74902 0.729412 0.752941
0.85098 0.843137 0.854902
0.945098 0.945098 0.945098
0 0 0
0 0 0
0 0 0
0.0313725 0.0392157 0.027451
0.164706 0.184314 0.168627
0.254902 0.27451 0.258824
0.356863 0.364706 0.360784
0.482353 0.47451 0.494118
0.6 0.572549 0.603922
0 0 0
0 0 0
0 0 0
0.101961 0.121569 0.105882
0.2 0.219608 0.203922
0.305882 0.313725 0.309804
0.403922 0.403922 0.411765
0.537255 0.517647 0.541176
0.65098 0.623529 0.65098
0 0 0
0 0 0
0 0 0
0.141176 0.160784 0.145098
0.235294 0.254902 0.239216
0.337255 0.345098 0.341176
0.454902 0.447059 0.458824
0.584314 0.556863 0.584314
0.686275 0.658824 0.686275
0 0 0
0 0 0
0.0666667 0.0745098 0.0705882
0.176471 0.196078 0.180392
0.266667 0.286275 0.270588
0.376471 0.380392 0.388235
0.509804 0.490196 0.513725
0.631373 0.603922 0.631373
0.737255 0.709804 0.737255
0 0 0
0 0 0
0.109804 0.129412 0.113725
0.215686 0.235294 0.219608
0.313725 0.321569 0.317647
0.423529 0.415686 0.427451
0.552941 0.533333 0.556863
0.666667 0.639216 0.666667
0.768627 0.74902 0.772549
0 0 0
0 0 0
0.152941 0.172549 0.156863
0.25098 0.270588 0.254902
0.352941 0.360784 0.356863
0.470588 0.462745 0.47451
0.603922 0.576471 0.607843
0.717647 0.690196 0.717647
0.811765 0.792157 0.815686
0 0 0
0.0862745 0.105882 0.0901961
0.192157 0.211765 0.196078
0.301961 0.309804 0.305882
0.396078 0.396078 0.403922
0.533333 0.513725 0.537255
0.647059 0.619608 0.647059
0.752941 0.733333 0.756863
0.85098 0.843137 0.854902
0 0 0
0.121569 0.141176 0.12549
0.227451 0.247059 0.231373
0.329412 0.337255 0.333333
0.443137 0.435294 0.447059
0.572549 0.552941 0.576471
0.690196 0.662745 0.690196
0.8 0.780392 0.803922
0.894118 0.886275 0.898039
0.0509804 0.0588235 0.054902
0.160784 0.180392 0.164706
0.258824 0.278431 0.262745
0.372549 0.372549 0.380392
0.486275 0.478431 0.498039
0.611765 0.584314 0.611765
0.729412 0.701961 0.729412
0.835294 0.815686 0.839216
0.92549 0.917647 0.929412
0 0 0
0 0 0
0 0 0
0 0 0
0.141176 0.160784 0.145098
0.235294 0.254902 0.239216
0.337255 0.345098 0.341176
0.454902 0.447059 0.458824
0.568627 0.54902 0.572549
0 0 0
0 0 0
0 0 0
0.0666667 0.0745098 0.0705882
0.176471 0.196078 0.180392
0.27451 0.294118 0.278431
0.376471 0.380392 0.388235
0.509804 0.490196 0.513725
0.619608 0.592157 0.619608
0 0 0
0 0 0
0 0 0
0.109804 0.129412 0.113725
0.219608 0.239216 0.223529
0.313725 0.321569 0.317647
0.435294 0.427451 0.439216
0.54902 0.529412 0.552941
0.662745 0.635294 0.662745
0 0 0
0 0 0
0 0 0
0.152941 0.172549 0.156863
0.25098 0.270588 0.254902
0.352941 0.360784 0.356863
0.470588 0.462745 0.47451
0.603922 0.576471 0.607843
0.705882 0.678431 0.705882
0 0 0
0 0 0
0.0862745 0.105882 0.0901961
0.192157 0.211765 0.196078
0.282353 0.298039 0.294118
0.396078 0.396078 0.403922
0.521569 0.501961 0.52549
0.647059 0.619608 0.647059
0.745098 0.72549 0.74902
0 0 0
0 0 0
0.121569 0.141176 0.12549
0.227451 0.247059 0.231373
0.329412 0.337255 0.333333
0.45098 0.443137 0.454902
0.568627 0.54902 0.572549
0.690196 0.662745 0.690196
0.784314 0.764706 0.788235
0 0 0
0.054902 0.0627451 0.0588235
0.172549 0.192157 0.176471
0.262745 0.282353 0.266667
0.376471 0.376471 0.384314
0.505882 0.486275 0.509804
0.623529 0.596078 0.623529
0.737255 0.709804 0.737255
0.831373 0.811765 0.835294
0 0 0
0.109804 0.129412 0.113725
0.207843 0.227451 0.211765
0.309804 0.317647 0.313725
0.423529 0.415686 0.427451
0.541176 0.521569 0.545098
0.666667 0.639216 0.666667
0.772549 0.752941 0.776471
0.862745 0.854902 0.866667
0 0 0
0.141176 0.160784 0.145098
0.239216 0.258824 0.243137
0.345098 0.352941 0.34902
0.466667 0.458824 0.470588
0.588235 0.560784 0.588235
0.705882 0.678431 0.705882
0.811765 0.792157 0.815686
0.901961 0.894118 0.905882
0 0 0
0 0 0
0 0 0
0 0 0
0.109804 0.129412 0.113725
0.215686 0.235294 0.219608
0.313725 0.321569 0.317647
0.435294 0.427451 0.439216
0.545098 0.52549 0.54902
0 0 0
0 0 0
0 0 0
0 0 0
0.152941 0.172549 0.156863
0.25098 0.270588 0.254902
0.356863 0.364706 0.360784
0.470588 0.462745 0.47451
0.596078 0.568627 0.596078
0 0 0
0 0 0
0 0 0
0.0862745 0.105882 0.0901961
0.192157 0.211765 0.196078
0.282353 0.298039 0.294118
0.403922 0.403922 0.411765
0.533333 0.513725 0.537255
0.635294 0.607843 0.635294
0 0 0
0 0 0
0 0 0
0.133333 0.152941 0.137255
0.227451 0.247059 0.231373
0.337255 0.345098 0.341176
0.443137 0.435294 0.447059
0.572549 0.552941 0.576471
0.682353 0.654902 0.682353
0 0 0
0 0 0
0.054902 0.0627451 0.0588235
0.164706 0.184314 0.168627
0.262745 0.282353 0.266667
0.376471 0.376471 0.384314
0.490196 0.482353 0.501961
0.615686 0.588235 0.615686
0.729412 0.701961 0.729412
0 0 0
0 0 0
0.109804 0.129412 0.113725
0.207843 0.227451 0.211765
0.313725 0.321569 0.317647
0.415686 0.415686 0.423529
0.541176 0.521569 0.545098
0.666667 0.639216 0.666667
0.764706 0.745098 0.768627
0 0 0
0 0 0
0.145098 0.164706 0.14902
0.243137 0.262745 0.247059
0.34902 0.356863 0.352941
0.466667 0.458824 0.470588
0.6 0.572549 0.6
0.701961 0.67451 0.701961
0.811765 0.792157 0.815686
0 0 0
0.0784314 0.0980392 0.0823529
0.188235 0.207843 0.192157
0.278431 0.298039 0.282353
0.392157 0.392157 0.4
0.517647 0.498039 0.521569
0.639216 0.611765 0.639216
0.74902 0.729412 0.752941
0.847059 0.827451 0.843137
0 0 0
0.113725 0.133333 0.117647
0.215686 0.235294 0.219608
0.321569 0.329412 0.32549
0.435294 0.427451 0.439216
0.560784 0.541176 0.564706
0.678431 0.65098 0.678431
0.780392 0.760784 0.784314
0.878431 0.870588 0.882353
0 0 0
0 0 0
0 0 0
0 0 0
0.0784314 0.0980392 0.0823529
0.192157 0.211765 0.196078
0.282353 0.298039 0.294118
0.396078 0.396078 0.403922
0.517647 0.498039 0.521569
0 0 0
0 0 0
0 0 0
0 0 0
0.133333 0.152941 0.137255
0.227451 0.247059 0.231373
0.329412 0.337255 0.333333
0.443137 0.435294 0.447059
0.564706 0.545098 0.568627
0 0 0
0 0 0
0 0 0
0.054902 0.0627451 0.0588235
0.172549 0.192157 0.176471
0.266667 0.286275 0.270588
0.376471 0.380392 0.388235
0.505882 0.486275 0.509804
0.611765 0.584314 0.611765
0 0 0
0 0 0
0 0 0
0.109804 0.129412 0.113725
0.207843 0.227451 0.211765
0.309804 0.317647 0.313725
0.415686 0.415686 0.423529
0.54902 0.529412 0.552941
0.658824 0.631373 0.658824
0 0 0
0 0 0
0 0 0
0.14902 0.168627 0.152941
0.243137 0.262745 0.247059
0.34902 0.356863 0.352941
0.470588 0.462745 0.47451
0.6 0.572549 0.6
0.698039 0.670588 0.698039
0 0 0
0 0 0
0.0784314 0.0862745 0.0823529
0.188235 0.207843 0.192157
0.27451 0.294118 0.278431
0.392157 0.392157 0.4
0.517647 0.498039 0.521569
0.639216 0.611765 0.639216
0.741176 0.721569 0.745098
0 0 0
0 0 0
0.121569 0.141176 0.12549
0.223529 0.243137 0.227451
0.32549 0.333333 0.329412
0.443137 0.435294 0.447059
0.564706 0.545098 0.568627
0.686275 0.658824 0.686275
0.780392 0.760784 0.784314
0 0 0
0.054902 0.0627451 0.0588235
0.164706 0.184314 0.168627
0.258824 0.278431 0.262745
0.376471 0.376471 0.384314
0.482353 0.47451 0.494118
0.615686 0.588235 0.615686
0.733333 0.705882 0.733333
0.823529 0.803922 0.827451
0 0 0
0.0901961 0.109804 0.0941176
0.2 0.219608 0.203922
0.301961 0.309804 0.305882
0.411765 0.411765 0.419608
0.537255 0.517647 0.541176
0.658824 0.631373 0.658824
0.764706 0.745098 0.768627
0.854902 0.847059 0.858824
