assets/luts/blackwhite/Vintage BW.cube
#Generated by Picture Instruments - Unlimited Filters
TITLE "filter mobile test 7"
LUT_3D_SIZE 5
0 0 0
0.054902 0.0627451 0.0588235
0.266667 0.286275 0.270588
0.505882 0.486275 0.509804
0.733333 0.705882 0.733333
0 0 0
0.152941 0.172549 0.156863
0.352941 0.360784 0.356863
0.6 0.572549 0.6
0.811765 0.792157 0.815686
0 0 0
0.223529 0.243137 0.227451
0.439216 0.431373 0.443137
0.690196 0.662745 0.690196
0.886275 0.878431 0.890196
0.109804 0.129412 0.113725
0.309804 0.317647 0.313725
0.54902 0.529412 0.552941
0.772549 0.752941 0.776471
0.968627 0.968627 0.968627
0.176471 0.196078 0.180392
0.376471 0.380392 0.388235
0.631373 0.603922 0.631373
0.847059 0.827451 0.843137
0.996078 0.996078 0.996078
0 0 0
0 0 0
0.227451 0.247059 0.231373
0.443137 0.435294 0.447059
0.682353 0.654902 0.682353
0 0 0
0.101961 0.121569 0.105882
0.309804 0.317647 0.313725
0.541176 0.521569 0.545098
0.764706 0.745098 0.768627
0 0 0
0.180392 0.2 0.184314
0.392157 0.392157 0.4
0.635294 0.607843 0.635294
0.847059 0.827451 0.843137
0.0313725 0.0392157 0.027451
0.254902 0.27451 0.258824
0.478431 0.470588 0.490196
0.721569 0.694118 0.721569
0.921569 0.913725 0.92549
0.137255 0.156863 0.141176
0.333333 0.341176 0.337255
0.580392 0.552941 0.580392
0.8 0.780392 0.803922
0.992157 0.992157 0.992157
0 0 0
0 0 0
0.188235 0.207843 0.192157
0.392157 0.392157 0.4
0.631373 0.603922 0.631373
0 0 0
0.0313725 0.0392157 0.027451
0.254902 0.27451 0.258824
0.482353 0.47451 0.494118
0.713725 0.686275 0.713725
0 0 0
0.141176 0.160784 0.145098
0.337255 0.345098 0.341176
0.584314 0.556863 0.584314
0.8 0.780392 0.803922
0 0 0
0.207843 0.227451 0.211765
0.435294 0.427451 0.439216
0.670588 0.643137 0.670588
0.878431 0.870588 0.882353
0.0745098 0.0941176 0.0784314
0.278431 0.294118 0.290196
0.529412 0.509804 0.533333
0.74902 0.729412 0.752941
0.945098 0.945098 0.945098
0 0 0
0 0 0
0.141176 0.160784 0.145098
0.337255 0.345098 0.341176
0.568627 0.54902 0.572549
0 0 0
0 0 0
0.219608 0.239216 0.223529
0.435294 0.427451 0.439216
0.662745 0.635294 0.662745
0 0 0
0.0862745 0.105882 0.0901961
0.282353 0.298039 0.294118
0.521569 0.501961 0.52549
0.745098 0.72549 0.74902
0 0 0
0.172549 0.192157 0.176471
0.376471 0.376471 0.384314
0.623529 0.596078 0.623529
0.831373 0.811765 0.835294
0 0 0
0.239216 0.258824 0.243137
0.466667 0.458824 0.470588
0.705882 0.678431 0.705882
0.901961 0.894118 0.905882
0 0 0
0 0 0
0.0784314 0.0980392 0.0823529
0.282353 0.298039 0.294118
0.517647 0.498039 0.521569
0 0 0
0 0 0
0.172549 0.192157 0.176471
0.376471 0.380392 0.388235
0.611765 0.584314 0.611765
0 0 0
0 0 0
0.243137 0.262745 0.247059
0.470588 0.462745 0.47451
0.698039 0.670588 0.698039
0 0 0
0.121569 0.141176 0.12549
0.32549 0.333333 0.329412
0.564706 0.545098 0.568627
0.780392 0.760784 0.784314
0 0 0
0.2 0.219608 0.203922
0.411765 0.411765 0.419608
0.658824 0.631373 0.658824
0.854902 0.847059 0.858824
