assets/luts/vintage/Vintage Color.cube
#Generated by Picture Instruments - Unlimited Filters
TITLE "Vintage Color"
LUT_3D_SIZE 9
0.0745098 0.0196078 0.0156863
0.117647 0.0352941 0.0235294
0.203922 0.0470588 0.0392157
0.32549 0.0705882 0.054902
0.486275 0.0980392 0.0784314
0.662745 0.101961 0.0862745
0.811765 0.0980392 0.0823529
0.937255 0.101961 0.0862745
0.980392 0.105882 0.0862745
0.0784314 0.0705882 0.0196078
0.117647 0.0705882 0.0235294
0.203922 0.0941176 0.0392157
0.32549 0.117647 0.0627451
0.478431 0.141176 0.0823529
0.662745 0.152941 0.0901961
0.8 0.14902 0.0862745
0.929412 0.156863 0.0901961
0.976471 0.164706 0.0941176
0.0666667 0.160784 0.0352941
0.117647 0.141176 0.0392157
0.203922 0.14902 0.0431373
0.317647 0.180392 0.054902
0.470588 0.219608 0.0823529
0.65098 0.227451 0.0862745
0.803922 0.231373 0.0862745
0.92549 0.247059 0.0901961
0.968627 0.25098 0.0941176
0.054902 0.270588 0.0470588
0.113725 0.258824 0.0470588
0.196078 0.243137 0.0470588
0.309804 0.262745 0.0588235
0.47451 0.309804 0.0823529
0.647059 0.317647 0.0823529
0.811765 0.341176 0.0941176
0.929412 0.368627 0.0941176
0.972549 0.364706 0.101961
0.0431373 0.403922 0.0627451
0.109804 0.407843 0.0627451
0.192157 0.384314 0.0666667
0.305882 0.4 0.0627451
0.454902 0.411765 0.0901961
0.639216 0.443137 0.0941176
0.8 0.478431 0.0901961
0.917647 0.501961 0.101961
0.972549 0.505882 0.0980392
0.0431373 0.572549 0.0705882
0.113725 0.568627 0.0705882
0.203922 0.552941 0.0823529
0.329412 0.537255 0.0901961
0.47451 0.54902 0.0941176
0.639216 0.576471 0.0980392
0.803922 0.611765 0.105882
0.921569 0.639216 0.105882
0.964706 0.643137 0.105882
0.0627451 0.729412 0.0745098
0.129412 0.721569 0.0745098
0.235294 0.705882 0.0823529
0.364706 0.690196 0.0941176
0.517647 0.698039 0.105882
0.658824 0.713725 0.0980392
0.788235 0.72549 0.105882
0.921569 0.760784 0.109804
0.968627 0.768627 0.113725
0.0823529 0.870588 0.0784314
0.152941 0.870588 0.0784314
0.25098 0.854902 0.0862745
0.384314 0.843137 0.0901961
0.533333 0.831373 0.101961
0.67451 0.831373 0.105882
0.8 0.847059 0.109804
0.913725 0.862745 0.109804
0.956863 0.866667 0.113725
0.0941176 0.968627 0.0784314
0.160784 0.968627 0.0784314
0.266667 0.956863 0.0901961
0.4 0.941176 0.0941176
0.568627 0.937255 0.101961
0.690196 0.937255 0.113725
0.807843 0.937255 0.109804
0.909804 0.941176 0.113725
0.952941 0.945098 0.109804
0.0705882 0.0235294 0.0627451
0.12549 0.0352941 0.0666667
0.207843 0.054902 0.0745098
0.333333 0.0745098 0.0901961
0.494118 0.0980392 0.113725
0.666667 0.0980392 0.12549
0.807843 0.0980392 0.12549
0.941176 0.101961 0.133333
0.984314 0.101961 0.133333
0.0705882 0.0784314 0.0588235
0.121569 0.0862745 0.0666667
0.2 0.101961 0.0862745
0.333333 0.12549 0.101961
0.486275 0.141176 0.12549
0.658824 0.156863 0.121569
0.815686 0.152941 0.133333
0.937255 0.156863 0.137255
0.984314 0.164706 0.137255
0.0666667 0.152941 0.0705882
0.121569 0.156863 0.0823529
0.203922 0.160784 0.0901961
0.333333 0.192157 0.0980392
0.486275 0.219608 0.129412
0.666667 0.235294 0.129412
0.815686 0.247059 0.141176
0.933333 0.247059 0.141176
0.980392 0.254902 0.145098
0.054902 0.27451 0.0901961
0.113725 0.278431 0.0901961
0.2 0.266667 0.0941176
0.329412 0.286275 0.105882
0.482353 0.317647 0.129412
0.670588 0.333333 0.133333
0.807843 0.34902 0.141176
0.933333 0.372549 0.137255
0.980392 0.376471 0.141176
0.0431373 0.411765 0.105882
0.105882 0.415686 0.0980392
0.203922 0.407843 0.113725
0.321569 0.407843 0.113725
0.47451 0.419608 0.133333
0.666667 0.462745 0.137255
0.819608 0.490196 0.145098
0.937255 0.513725 0.156863
0.976471 0.52549 0.156863
0.0431373 0.584314 0.109804
0.113725 0.572549 0.113725
0.219608 0.576471 0.117647
0.341176 0.560784 0.133333
0.498039 0.576471 0.133333
0.658824 0.6 0.14902
0.807843 0.627451 0.14902
0.92549 0.654902 0.14902
0.968627 0.658824 0.156863
0.0666667 0.733333 0.113725
0.137255 0.729412 0.121569
0.239216 0.729412 0.133333
0.384314 0.717647 0.141176
0.517647 0.701961 0.145098
0.662745 0.721569 0.152941
0.803922 0.741176 0.160784
0.921569 0.760784 0.156863
0.972549 0.772549 0.168627
0.0823529 0.870588 0.117647
0.14902 0.866667 0.12549
0.254902 0.866667 0.129412
0.411765 0.862745 0.145098
0.556863 0.843137 0.14902
0.698039 0.847059 0.160784
0.807843 0.858824 0.168627
0.921569 0.862745 0.160784
0.964706 0.878431 0.168627
0.0901961 0.968627 0.121569
0.164706 0.968627 0.129412
0.27451 0.968627 0.137255
0.419608 0.960784 0.145098
0.580392 0.952941 0.156863
0.705882 0.945098 0.164706
0.819608 0.945098 0.168627
0.917647 0.94902 0.172549
0.952941 0.952941 0.164706
0.0588235 0.0392157 0.164706
0.121569 0.0431373 0.14902
0.207843 0.0509804 0.152941
0.345098 0.0705882 0.172549
0.498039 0.0901961 0.180392
0.678431 0.0980392 0.192157
0.831373 0.101961 0.196078
0.94902 0.101961 0.196078
0.992157 0.101961 0.207843
0.0588235 0.0941176 0.160784
0.117647 0.0941176 0.14902
0.207843 0.0980392 0.152941
0.341176 0.121569 0.172549
0.494118 0.141176 0.188235
0.682353 0.156863 0.2
0.823529 0.156863 0.207843
0.94902 0.160784 0.223529
0.988235 0.164706 0.215686
0.0588235 0.180392 0.156863
0.121569 0.172549 0.145098
0.211765 0.176471 0.156863
0.337255 0.207843 0.180392
0.501961 0.227451 0.196078
0.686275 0.243137 0.211765
0.815686 0.25098 0.215686
0.941176 0.247059 0.223529
0.984314 0.25098 0.227451
0.0470588 0.298039 0.160784
0.117647 0.278431 0.160784
0.211765 0.286275 0.168627
0.333333 0.286275 0.184314
0.505882 0.329412 0.207843
0.678431 0.34902 0.215686
0.827451 0.360784 0.227451
0.929412 0.380392 0.239216
0.984314 0.384314 0.243137
0.0392157 0.427451 0.172549
0.105882 0.427451 0.184314
0.203922 0.431373 0.192157
0.329412 0.423529 0.196078
0.490196 0.443137 0.207843
0.670588 0.478431 0.219608
0.823529 0.509804 0.231373
0.945098 0.52549 0.243137
0.984314 0.537255 0.247059
0.0470588 0.580392 0.180392
0.113725 0.584314 0.192157
0.223529 0.596078 0.203922
0.364706 0.588235 0.215686
0.509804 0.584314 0.231373
0.67451 0.611765 0.235294
0.823529 0.647059 0.25098
0.941176 0.662745 0.254902
0.980392 0.67451 0.25098
0.0705882 0.729412 0.184314
0.137255 0.745098 0.196078
0.247059 0.741176 0.207843
0.396078 0.74902 0.223529
0.537255 0.729412 0.239216
0.682353 0.741176 0.243137
0.811765 0.752941 0.247059
0.929412 0.780392 0.258824
0.976471 0.788235 0.254902
0.0823529 0.866667 0.203922
0.156863 0.87451 0.207843
0.262745 0.882353 0.207843
0.415686 0.87451 0.223529
0.576471 0.866667 0.243137
0.709804 0.862745 0.262745
0.815686 0.870588 0.254902
0.929412 0.878431 0.258824
0.968627 0.890196 0.266667
0.0901961 0.968627 0.203922
0.164706 0.976471 0.207843
0.266667 0.980392 0.211765
0.427451 0.968627 0.227451
0.588235 0.960784 0.25098
0.721569 0.960784 0.262745
0.827451 0.956863 0.266667
0.92549 0.956863 0.27451
0.968627 0.960784 0.27451
0.0509804 0.054902 0.305882
0.113725 0.0588235 0.298039
0.207843 0.054902 0.262745
0.337255 0.0666667 0.278431
0.494118 0.0941176 0.282353
0.670588 0.0941176 0.298039
0.819608 0.0980392 0.301961
0.945098 0.0941176 0.309804
0.992157 0.0980392 0.317647
0.0392157 0.101961 0.301961
0.109804 0.101961 0.294118
0.207843 0.109804 0.27451
0.345098 0.117647 0.27451
0.501961 0.141176 0.294118
0.678431 0.145098 0.301961
0.823529 0.145098 0.313725
0.94902 0.152941 0.329412
0.992157 0.156863 0.329412
0.0470588 0.192157 0.305882
0.0980392 0.180392 0.294118
0.207843 0.188235 0.278431
0.337255 0.2 0.286275
0.505882 0.227451 0.298039
0.67451 0.231373 0.309804
0.831373 0.247059 0.321569
0.945098 0.247059 0.341176
0.988235 0.243137 0.345098
0.0470588 0.32549 0.301961
0.0980392 0.313725 0.294118
0.203922 0.309804 0.282353
0.345098 0.317647 0.294118
0.509804 0.341176 0.317647
0.682353 0.356863 0.333333
0.835294 0.376471 0.34902
0.945098 0.376471 0.356863
0.992157 0.384314 0.364706
0.0313725 0.466667 0.301961
0.0941176 0.454902 0.294118
0.207843 0.443137 0.301961
0.352941 0.447059 0.305882
0.521569 0.458824 0.32549
0.698039 0.494118 0.34902
0.827451 0.517647 0.364706
0.94902 0.533333 0.368627
0.988235 0.545098 0.380392
0.0470588 0.619608 0.294118
0.109804 0.607843 0.298039
0.223529 0.6 0.309804
0.380392 0.615686 0.333333
0.533333 0.596078 0.341176
0.686275 0.615686 0.356863
0.827451 0.654902 0.368627
0.945098 0.67451 0.380392
0.988235 0.67451 0.388235
0.0627451 0.756863 0.298039
0.137255 0.752941 0.309804
0.243137 0.752941 0.329412
0.396078 0.756863 0.337255
0.564706 0.74902 0.34902
0.705882 0.760784 0.376471
0.823529 0.776471 0.376471
0.945098 0.792157 0.396078
0.984314 0.796078 0.392157
0.0784314 0.894118 0.305882
0.156863 0.866667 0.313725
0.266667 0.890196 0.32549
0.415686 0.890196 0.352941
0.588235 0.890196 0.372549
0.717647 0.87451 0.384314
0.835294 0.882353 0.388235
0.933333 0.890196 0.403922
0.976471 0.901961 0.407843
0.0901961 0.980392 0.309804
0.164706 0.972549 0.32549
0.27451 0.972549 0.345098
0.427451 0.972549 0.356863
0.596078 0.976471 0.372549
0.72549 0.972549 0.396078
0.843137 0.964706 0.403922
0.937255 0.968627 0.415686
0.968627 0.972549 0.411765
0.0392157 0.0705882 0.454902
0.0980392 0.0745098 0.45098
0.207843 0.0823529 0.415686
0.337255 0.0901961 0.4
0.494118 0.101961 0.388235
0.662745 0.101961 0.415686
0.827451 0.0941176 0.435294
0.952941 0.0941176 0.447059
0.996078 0.0901961 0.45098
0.0352941 0.121569 0.454902
0.0901961 0.121569 0.454902
0.2 0.12549 0.443137
0.333333 0.133333 0.403922
0.494118 0.145098 0.411765
0.682353 0.152941 0.423529
0.823529 0.14902 0.431373
0.945098 0.152941 0.443137
0.996078 0.152941 0.458824
0.0392157 0.196078 0.466667
0.0862745 0.203922 0.447059
0.188235 0.192157 0.443137
0.345098 0.211765 0.411765
0.505882 0.215686 0.407843
0.678431 0.231373 0.435294
0.835294 0.235294 0.454902
0.952941 0.239216 0.470588
1 0.247059 0.478431
0.0352941 0.32549 0.470588
0.0784314 0.32549 0.454902
0.176471 0.305882 0.435294
0.341176 0.317647 0.427451
0.505882 0.333333 0.423529
0.686275 0.34902 0.447059
0.827451 0.364706 0.466667
0.952941 0.368627 0.482353
0.996078 0.372549 0.498039
0.0392157 0.490196 0.478431
0.0823529 0.470588 0.45098
0.188235 0.466667 0.45098
0.356863 0.462745 0.443137
0.533333 0.478431 0.443137
0.694118 0.501961 0.482353
0.831373 0.513725 0.498039
0.956863 0.533333 0.521569
0.996078 0.537255 0.517647
0.054902 0.670588 0.470588
0.109804 0.643137 0.454902
0.219608 0.623529 0.439216
0.384314 0.611765 0.454902
0.552941 0.623529 0.47451
0.698039 0.635294 0.494118
0.843137 0.666667 0.505882
0.952941 0.682353 0.529412
0.992157 0.686275 0.533333
0.0627451 0.796078 0.439216
0.12549 0.776471 0.439216
0.243137 0.764706 0.454902
0.396078 0.756863 0.470588
0.576471 0.780392 0.498039
0.701961 0.764706 0.509804
0.843137 0.784314 0.521569
0.945098 0.807843 0.541176
0.992157 0.819608 0.541176
0.0745098 0.917647 0.443137
0.14902 0.898039 0.443137
0.262745 0.890196 0.458824
0.419608 0.886275 0.494118
0.584314 0.890196 0.494118
0.72549 0.898039 0.517647
0.847059 0.905882 0.541176
0.945098 0.909804 0.545098
0.988235 0.913725 0.552941
0.0862745 0.992157 0.45098
0.160784 0.984314 0.45098
0.278431 0.968627 0.470588
0.431373 0.972549 0.494118
0.592157 0.980392 0.513725
0.729412 0.984314 0.529412
0.847059 0.972549 0.541176
0.941176 0.976471 0.556863
0.984314 0.976471 0.560784
0.0470588 0.0705882 0.658824
0.109804 0.0705882 0.662745
0.211765 0.0784314 0.619608
0.34902 0.0901961 0.584314
0.494118 0.0980392 0.568627
0.666667 0.101961 0.584314
0.819608 0.0980392 0.607843
0.956863 0.0980392 0.607843
1 0.0901961 0.623529
0.0470588 0.117647 0.65098
0.101961 0.117647 0.65098
0.207843 0.117647 0.643137
0.356863 0.133333 0.592157
0.505882 0.145098 0.572549
0.682353 0.14902 0.580392
0.823529 0.145098 0.6
0.960784 0.145098 0.623529
1 0.145098 0.623529
0.0431373 0.196078 0.662745
0.101961 0.192157 0.639216
0.2 0.188235 0.639216
0.352941 0.203922 0.607843
0.517647 0.223529 0.580392
0.678431 0.227451 0.6
0.827451 0.235294 0.615686
0.956863 0.231373 0.627451
0.996078 0.235294 0.631373
0.0470588 0.309804 0.666667
0.0941176 0.305882 0.65098
0.192157 0.301961 0.631373
0.341176 0.305882 0.623529
0.521569 0.341176 0.596078
0.682353 0.341176 0.607843
0.839216 0.352941 0.627451
0.968627 0.356863 0.643137
1 0.356863 0.647059
0.0431373 0.47451 0.666667
0.0901961 0.466667 0.662745
0.2 0.466667 0.643137
0.345098 0.458824 0.623529
0.529412 0.47451 0.611765
0.686275 0.486275 0.615686
0.843137 0.501961 0.639216
0.960784 0.513725 0.654902
1 0.52549 0.662745
0.0509804 0.678431 0.678431
0.0980392 0.658824 0.67451
0.203922 0.658824 0.647059
0.345098 0.643137 0.635294
0.541176 0.647059 0.627451
0.709804 0.65098 0.639216
0.847059 0.666667 0.666667
0.964706 0.686275 0.678431
1 0.686275 0.682353
0.0627451 0.827451 0.654902
0.117647 0.819608 0.654902
0.215686 0.807843 0.647059
0.372549 0.792157 0.627451
0.560784 0.780392 0.635294
0.72549 0.784314 0.662745
0.847059 0.796078 0.670588
0.964706 0.811765 0.682353
0.996078 0.815686 0.682353
0.0745098 0.945098 0.65098
0.129412 0.933333 0.631373
0.235294 0.921569 0.627451
0.376471 0.909804 0.627451
0.576471 0.898039 0.647059
0.733333 0.913725 0.670588
0.847059 0.905882 0.682353
0.956863 0.905882 0.690196
0.996078 0.917647 0.694118
0.0862745 0.992157 0.635294
0.14902 0.992157 0.631373
0.25098 0.988235 0.623529
0.403922 0.988235 0.639216
0.580392 0.980392 0.658824
0.741176 0.996078 0.682353
0.858824 0.992157 0.682353
0.952941 0.984314 0.698039
0.984314 0.980392 0.698039
0.054902 0.0666667 0.823529
0.117647 0.0666667 0.827451
0.211765 0.0705882 0.8
0.368627 0.0823529 0.780392
0.505882 0.0941176 0.741176
0.67451 0.0980392 0.756863
0.811765 0.0941176 0.752941
0.94902 0.0941176 0.768627
0.996078 0.0980392 0.768627
0.054902 0.109804 0.831373
0.109804 0.109804 0.823529
0.207843 0.105882 0.823529
0.360784 0.117647 0.780392
0.52549 0.137255 0.745098
0.686275 0.145098 0.752941
0.815686 0.145098 0.764706
0.952941 0.145098 0.780392
0.996078 0.14902 0.772549
0.0588235 0.188235 0.843137
0.109804 0.180392 0.815686
0.2 0.180392 0.815686
0.360784 0.180392 0.8
0.537255 0.211765 0.760784
0.678431 0.223529 0.752941
0.835294 0.227451 0.760784
0.956863 0.223529 0.784314
1 0.235294 0.784314
0.054902 0.305882 0.823529
0.105882 0.301961 0.823529
0.2 0.298039 0.803922
0.341176 0.290196 0.803922
0.529412 0.321569 0.784314
0.694118 0.352941 0.772549
0.831373 0.34902 0.768627
0.960784 0.34902 0.780392
1 0.34902 0.792157
0.054902 0.462745 0.85098
0.109804 0.45098 0.831373
0.203922 0.45098 0.815686
0.345098 0.45098 0.8
0.521569 0.447059 0.796078
0.690196 0.478431 0.784314
0.831373 0.486275 0.784314
0.960784 0.505882 0.8
1 0.505882 0.796078
0.054902 0.662745 0.85098
0.105882 0.658824 0.835294
0.192157 0.643137 0.819608
0.341176 0.643137 0.815686
0.509804 0.635294 0.796078
0.705882 0.65098 0.792157
0.839216 0.658824 0.8
0.964706 0.67451 0.803922
1 0.67451 0.815686
0.0627451 0.839216 0.85098
0.105882 0.827451 0.835294
0.207843 0.815686 0.831373
0.341176 0.811765 0.807843
0.517647 0.807843 0.811765
0.717647 0.803922 0.796078
0.862745 0.807843 0.803922
0.964706 0.811765 0.815686
1 0.819608 0.819608
0.0666667 0.960784 0.831373
0.121569 0.94902 0.819608
0.211765 0.94902 0.811765
0.345098 0.929412 0.811765
0.541176 0.921569 0.792157
0.721569 0.921569 0.8
0.866667 0.92549 0.811765
0.964706 0.917647 0.815686
0.996078 0.929412 0.827451
0.0862745 1 0.796078
0.137255 0.996078 0.792157
0.239216 0.996078 0.792157
0.372549 0.996078 0.788235
0.552941 0.992157 0.796078
0.737255 0.996078 0.8
0.870588 0.996078 0.815686
0.960784 0.992157 0.831373
0.996078 0.992157 0.831373
0.0705882 0.0666667 0.952941
0.133333 0.0666667 0.960784
0.231373 0.0666667 0.945098
0.372549 0.0784314 0.929412
0.533333 0.0862745 0.905882
0.686275 0.0941176 0.890196
0.823529 0.0941176 0.898039
0.94902 0.0901961 0.890196
0.992157 0.0941176 0.898039
0.0666667 0.105882 0.964706
0.121569 0.105882 0.964706
0.223529 0.105882 0.960784
0.360784 0.113725 0.941176
0.52549 0.12549 0.929412
0.690196 0.141176 0.898039
0.827451 0.145098 0.901961
0.94902 0.145098 0.901961
0.996078 0.145098 0.901961
0.0627451 0.176471 0.960784
0.113725 0.176471 0.956863
0.203922 0.172549 0.952941
0.352941 0.180392 0.952941
0.521569 0.203922 0.921569
0.694118 0.211765 0.901961
0.839216 0.227451 0.901961
0.956863 0.227451 0.901961
0.996078 0.227451 0.901961
0.0627451 0.301961 0.964706
0.121569 0.294118 0.964706
0.203922 0.294118 0.945098
0.341176 0.290196 0.945098
0.517647 0.294118 0.941176
0.705882 0.329412 0.921569
0.835294 0.341176 0.905882
0.960784 0.345098 0.905882
1 0.34902 0.913725
0.0627451 0.447059 0.976471
0.113725 0.443137 0.960784
0.2 0.435294 0.952941
0.329412 0.435294 0.941176
0.501961 0.435294 0.937255
0.694118 0.462745 0.933333
0.847059 0.486275 0.921569
0.956863 0.498039 0.917647
1 0.494118 0.921569
0.0588235 0.65098 0.976471
0.113725 0.643137 0.964706
0.2 0.635294 0.956863
0.333333 0.627451 0.945098
0.509804 0.623529 0.937255
0.694118 0.619608 0.937255
0.85098 0.65098 0.921569
0.968627 0.65098 0.921569
1 0.666667 0.921569
0.0627451 0.831373 0.980392
0.113725 0.815686 0.972549
0.196078 0.815686 0.968627
0.32549 0.803922 0.956863
0.501961 0.796078 0.94902
0.694118 0.788235 0.937255
0.862745 0.8 0.941176
0.964706 0.803922 0.929412
1 0.815686 0.933333
0.0588235 0.968627 0.976471
0.109804 0.964706 0.968627
0.2 0.952941 0.964706
0.329412 0.94902 0.960784
0.501961 0.941176 0.945098
0.686275 0.937255 0.937255
0.854902 0.933333 0.929412
0.968627 0.929412 0.933333
0.996078 0.929412 0.937255
0.0823529 1 0.92549
0.137255 0.996078 0.929412
0.231373 1 0.92549
0.372549 0.996078 0.929412
0.533333 0.996078 0.937255
0.705882 0.996078 0.937255
0.862745 0.996078 0.933333
0.964706 0.996078 0.937255
0.996078 0.996078 0.941176
0.0823529 0.0705882 1
0.141176 0.0745098 1
0.231373 0.0705882 0.996078
0.380392 0.0745098 0.996078
0.533333 0.0745098 0.996078
0.694118 0.0823529 0.996078
0.823529 0.0941176 0.996078
0.945098 0.0901961 0.988235
0.996078 0.0941176 0.992157
0.0745098 0.121569 0.996078
0.141176 0.121569 1
0.235294 0.12549 1
0.380392 0.129412 1
0.529412 0.12549 0.996078
0.701961 0.133333 0.996078
0.827451 0.137255 0.996078
0.94902 0.145098 0.992157
0.996078 0.145098 0.996078
0.0823529 0.184314 1
0.133333 0.192157 1
0.231373 0.196078 1
0.368627 0.192157 1
0.541176 0.2 0.996078
0.701961 0.203922 0.996078
0.835294 0.223529 0.996078
0.956863 0.223529 0.996078
0.996078 0.219608 0.988235
0.0823529 0.298039 1
0.137255 0.305882 0.996078
0.223529 0.309804 0.996078
0.360784 0.309804 1
0.52549 0.313725 1
0.701961 0.321569 0.996078
0.843137 0.337255 0.996078
0.956863 0.34902 0.996078
1 0.345098 0.992157
0.0784314 0.447059 0.996078
0.145098 0.447059 1
0.227451 0.45098 1
0.364706 0.454902 0.996078
0.52549 0.458824 0.996078
0.698039 0.458824 0.996078
0.847059 0.466667 0.992157
0.960784 0.490196 0.996078
1 0.490196 0.996078
0.0784314 0.615686 1
0.137255 0.627451 0.996078
0.223529 0.627451 0.996078
0.360784 0.631373 1
0.517647 0.631373 0.996078
0.701961 0.635294 0.996078
0.85098 0.643137 0.996078
0.968627 0.658824 0.996078
0.996078 0.658824 0.996078
0.0823529 0.776471 0.996078
0.133333 0.776471 1
0.231373 0.780392 0.996078
0.372549 0.788235 1
0.52549 0.792157 1
0.709804 0.792157 0.996078
0.858824 0.792157 0.996078
0.964706 0.803922 0.996078
0.996078 0.803922 0.996078
0.0823529 0.917647 1
0.141176 0.913725 1
0.231373 0.921569 0.996078
0.364706 0.921569 0.996078
0.541176 0.92549 1
0.701961 0.921569 0.996078
0.858824 0.929412 0.996078
0.976471 0.929412 0.996078
1 0.929412 0.996078
0.0823529 0.996078 0.996078
0.145098 0.996078 0.996078
0.231373 0.996078 0.996078
0.372549 0.996078 0.992157
0.537255 0.996078 0.996078
0.717647 0.996078 0.996078
0.858824 0.996078 0.996078
0.972549 0.992157 0.992157
1 0.996078 0.996078
