assets/luts/vintage/Vintage Color.cube
#Generated by Picture Instruments - Unlimited Filters
TITLE "Vintage Color"
LUT_3D_SIZE 5
0.0745098 0.0196078 0.0156863
0.203922 0.0470588 0.0392157
0.486275 0.0980392 0.0784314
0.811765 0.0980392 0.0823529
0.980392 0.105882 0.0862745
0.0666667 0.160784 0.0352941
0.203922 0.14902 0.0431373
0.470588 0.219608 0.0823529
0.803922 0.231373 0.0862745
0.968627 0.25098 0.0941176
0.0431373 0.403922 0.0627451
0.192157 0.384314 0.0666667
0.454902 0.411765 0.0901961
0.8 0.478431 0.0901961
0.972549 0.505882 0.0980392
0.0627451 0.729412 0.0745098
0.235294 0.705882 0.0823529
0.517647 0.698039 0.105882
0.788235 0.72549 0.105882
0.968627 0.768627 0.113725
0.0941176 0.968627 0.0784314
0.266667 0.956863 0.0901961
0.568627 0.937255 0.101961
0.807843 0.937255 0.109804
0.952941 0.945098 0.109804
0.0588235 0.0392157 0.164706
0.207843 0.0509804 0.152941
0.498039 0.0901961 0.180392
0.831373 0.101961 0.196078
0.992157 0.101961 0.207843
0.0588235 0.180392 0.156863
0.211765 0.176471 0.156863
0.501961 0.227451 0.196078
0.815686 0.25098 0.215686
0.984314 0.25098 0.227451
0.0392157 0.427451 0.172549
0.203922 0.431373 0.192157
0.490196 0.443137 0.207843
0.823529 0.509804 0.231373
0.984314 0.537255 0.247059
0.0705882 0.729412 0.184314
0.247059 0.741176 0.207843
0.537255 0.729412 0.239216
0.811765 0.752941 0.247059
0.976471 0.788235 0.254902
0.0901961 0.968627 0.203922
0.266667 0.980392 0.211765
0.588235 0.960784 0.25098
0.827451 0.956863 0.266667
0.968627 0.960784 0.27451
0.0392157 0.0705882 0.454902
0.207843 0.0823529 0.415686
0.494118 0.101961 0.388235
0.827451 0.0941176 0.435294
0.996078 0.0901961 0.45098
0.0392157 0.196078 0.466667
0.188235 0.192157 0.443137
0.505882 0.215686 0.407843
0.835294 0.235294 0.454902
1 0.247059 0.478431
0.0392157 0.490196 0.478431
0.188235 0.466667 0.45098
0.533333 0.478431 0.443137
0.831373 0.513725 0.498039
0.996078 0.537255 0.517647
0.0627451 0.796078 0.439216
0.243137 0.764706 0.454902
0.576471 0.780392 0.498039
0.843137 0.784314 0.521569
0.992157 0.819608 0.541176
0.0862745 0.992157 0.45098
0.278431 0.968627 0.470588
0.592157 0.980392 0.513725
0.847059 0.972549 0.541176
0.984314 0.976471 0.560784
0.054902 0.0666667 0.823529
0.211765 0.0705882 0.8
0.505882 0.0941176 0.741176
0.811765 0.0941176 0.752941
0.996078 0.0980392 0.768627
0.0588235 0.188235 0.843137
0.2 0.180392 0.815686
0.537255 0.211765 0.760784
0.835294 0.227451 0.760784
1 0.235294 0.784314
0.054902 0.462745 0.85098
0.203922 0.45098 0.815686
0.521569 0.447059 0.796078
0.831373 0.486275 0.784314
1 0.505882 0.796078
0.0627451 0.839216 0.85098
0.207843 0.815686 0.831373
0.517647 0.807843 0.811765
0.862745 0.807843 0.803922
1 0.819608 0.819608
0.0862745 1 0.796078
0.239216 0.996078 0.792157
0.552941 0.992157 0.796078
0.870588 0.996078 0.815686
0.996078 0.992157 0.831373
0.0823529 0.0705882 1
0.231373 0.0705882 0.996078
0.533333 0.0745098 0.996078
0.823529 0.0941176 0.996078
0.996078 0.0941176 0.992157
0.0823529 0.184314 1
0.231373 0.196078 1
0.541176 0.2 0.996078
0.835294 0.223529 0.996078
0.996078 0.219608 0.988235
0.0784314 0.447059 0.996078
0.227451 0.45098 1
0.52549 0.458824 0.996078
0.847059 0.466667 0.992157
1 0.490196 0.996078
0.0823529 0.776471 0.996078
0.231373 0.780392 0.996078
0.52549 0.792157 1
0.858824 0.792157 0.996078
0.996078 0.803922 0.996078
0.0823529 0.996078 0.996078
0.231373 0.996078 0.996078
0.537255 0.996078 0.996078
0.858824 0.996078 0.996078
1 0.996078 0.996078
