assets/luts/vintage/Vintage Color.cube
#Generated by Picture Instruments - Unlimited Filters
TITLE "Vintage Color"
LUT_3D_SIZE 17
0.0745098 0.0196078 0.0156863
0.0980392 0.027451 0.0196078
0.117647 0.0352941 0.0235294
0.160784 0.0431373 0.0352941
0.203922 0.0470588 0.0392157
0.262745 0.0627451 0.0470588
0.32549 0.0705882 0.054902
0.4 0.0901961 0.0705882
0.486275 0.0980392 0.0784314
0.576471 0.0980392 0.0784314
0.662745 0.101961 0.0862745
0.737255 0.0941176 0.0862745
0.811765 0.0980392 0.0823529
0.882353 0.101961 0.0823529
0.937255 0.101961 0.0862745
0.980392 0.105882 0.0862745
0.980392 0.105882 0.0862745
0.0784314 0.0431373 0.0156863
0.0901961 0.0509804 0.0156863
0.12549 0.0588235 0.027451
0.160784 0.0627451 0.0352941
0.203922 0.0745098 0.0392157
0.254902 0.0823529 0.0470588
0.317647 0.0941176 0.0509804
0.388235 0.101961 0.0666667
0.470588 0.117647 0.0823529
0.568627 0.121569 0.0784314
0.647059 0.121569 0.0784314
0.733333 0.117647 0.0823529
0.8 0.12549 0.0862745
0.878431 0.121569 0.0862745
0.929412 0.129412 0.0941176
0.980392 0.129412 0.0941176
0.980392 0.129412 0.0901961
0.0784314 0.0705882 0.0196078
0.0980392 0.0666667 0.0235294
0.117647 0.0705882 0.0235294
0.160784 0.0862745 0.0313725
0.203922 0.0941176 0.0392157
0.270588 0.105882 0.0509804
0.32549 0.117647 0.0627451
0.392157 0.137255 0.0666667
0.478431 0.141176 0.0823529
0.572549 0.141176 0.0823529
0.662745 0.152941 0.0901961
0.733333 0.145098 0.0862745
0.8 0.14902 0.0862745
0.87451 0.156863 0.0941176
0.929412 0.156863 0.0901961
0.976471 0.164706 0.0941176
0.976471 0.164706 0.0941176
0.0666667 0.113725 0.027451
0.0901961 0.101961 0.027451
0.121569 0.101961 0.027451
0.160784 0.117647 0.0392157
0.203922 0.121569 0.0392157
0.262745 0.137255 0.054902
0.329412 0.14902 0.054902
0.392157 0.164706 0.0705882
0.478431 0.172549 0.0823529
0.572549 0.180392 0.0862745
0.65098 0.180392 0.0823529
0.733333 0.184314 0.0862745
0.803922 0.196078 0.0862745
0.878431 0.196078 0.0901961
0.92549 0.203922 0.0941176
0.976471 0.211765 0.0941176
0.976471 0.211765 0.0941176
0.0666667 0.160784 0.0352941
0.0862745 0.145098 0.0313725
0.117647 0.141176 0.0392157
0.14902 0.145098 0.0352941
0.203922 0.14902 0.0431373
0.254902 0.172549 0.0509804
0.317647 0.180392 0.054902
0.388235 0.196078 0.0705882
0.470588 0.219608 0.0823529
0.568627 0.215686 0.0823529
0.65098 0.227451 0.0862745
0.737255 0.227451 0.0862745
0.803922 0.231373 0.0862745
0.878431 0.243137 0.0901961
0.92549 0.247059 0.0901961
0.968627 0.25098 0.0941176
0.968627 0.25098 0.0941176
0.0627451 0.207843 0.0392157
0.0862745 0.207843 0.0431373
0.117647 0.2 0.0392157
0.14902 0.188235 0.0431373
0.2 0.192157 0.0392157
0.254902 0.207843 0.0509804
0.321569 0.223529 0.0627451
0.392157 0.239216 0.0705882
0.462745 0.25098 0.0784314
0.564706 0.262745 0.0823529
0.670588 0.278431 0.0862745
0.74902 0.278431 0.0823529
0.807843 0.278431 0.0901961
0.878431 0.290196 0.0901961
0.933333 0.301961 0.0980392
0.972549 0.305882 0.101961
0.972549 0.305882 0.101961
0.054902 0.270588 0.0470588
0.0823529 0.266667 0.0509804
0.113725 0.258824 0.0470588
0.152941 0.247059 0.0509804
0.196078 0.243137 0.0470588
0.247059 0.247059 0.0509804
0.309804 0.262745 0.0588235
0.384314 0.286275 0.0666667
0.47451 0.309804 0.0823529
0.556863 0.313725 0.0823529
0.647059 0.317647 0.0823529
0.729412 0.32549 0.0941176
0.811765 0.341176 0.0941176
0.878431 0.356863 0.0941176
0.929412 0.368627 0.0941176
0.972549 0.364706 0.101961
0.972549 0.364706 0.101961
0.0509804 0.337255 0.0509804
0.0784314 0.345098 0.0588235
0.109804 0.32549 0.0588235
0.145098 0.321569 0.0509804
0.196078 0.313725 0.0627451
0.239216 0.321569 0.0588235
0.309804 0.333333 0.0588235
0.384314 0.333333 0.0666667
0.458824 0.352941 0.0901961
0.560784 0.372549 0.0901961
0.65098 0.384314 0.0901961
0.733333 0.396078 0.0941176
0.803922 0.407843 0.0941176
0.870588 0.415686 0.0901961
0.917647 0.427451 0.0980392
0.968627 0.443137 0.0941176
0.968627 0.439216 0.0980392
0.0431373 0.403922 0.0627451
0.0705882 0.407843 0.0666667
0.109804 0.407843 0.0627451
0.14902 0.4 0.0705882
0.192157 0.384314 0.0666667
0.235294 0.380392 0.0666667
0.305882 0.4 0.0627451
0.380392 0.403922 0.0666667
0.454902 0.411765 0.0901961
0.54902 0.431373 0.0941176
0.639216 0.443137 0.0941176
0.733333 0.454902 0.0941176
0.8 0.478431 0.0901961
0.870588 0.486275 0.105882
0.917647 0.501961 0.101961
0.972549 0.513725 0.101961
0.972549 0.505882 0.0980392
0.0392157 0.482353 0.0745098
0.0627451 0.482353 0.0745098
0.105882 0.486275 0.0745098
0.141176 0.47451 0.0705882
0.196078 0.470588 0.0823529
0.258824 0.462745 0.0784314
0.317647 0.462745 0.0862745
0.396078 0.47451 0.0941176
0.462745 0.482353 0.0901961
0.560784 0.505882 0.0941176
0.647059 0.521569 0.0941176
0.733333 0.537255 0.0941176
0.803922 0.545098 0.101961
0.870588 0.560784 0.0980392
0.921569 0.572549 0.101961
0.968627 0.576471 0.105882
0.968627 0.580392 0.101961
0.0431373 0.572549 0.0705882
0.0666667 0.572549 0.0745098
0.113725 0.568627 0.0705882
0.156863 0.552941 0.0745098
0.203922 0.552941 0.0823529
0.262745 0.537255 0.0823529
0.329412 0.537255 0.0901961
0.396078 0.541176 0.0941176
0.47451 0.54902 0.0941176
0.556863 0.552941 0.0901961
0.639216 0.576471 0.0980392
0.729412 0.611765 0.101961
0.803922 0.611765 0.105882
0.862745 0.627451 0.105882
0.921569 0.639216 0.105882
0.964706 0.65098 0.105882
0.964706 0.643137 0.105882
0.054902 0.654902 0.0666667
0.0823529 0.658824 0.0705882
0.12549 0.65098 0.0745098
0.164706 0.643137 0.0745098
0.223529 0.647059 0.0784314
0.27451 0.631373 0.0823529
0.337255 0.619608 0.0941176
0.411765 0.619608 0.0941176
0.486275 0.627451 0.0941176
0.568627 0.635294 0.0941176
0.635294 0.647059 0.101961
0.721569 0.662745 0.109804
0.796078 0.678431 0.105882
0.854902 0.694118 0.0980392
0.913725 0.698039 0.101961
0.964706 0.709804 0.105882
0.964706 0.709804 0.105882
0.0627451 0.729412 0.0745098
0.0980392 0.729412 0.0784314
0.129412 0.721569 0.0745098
0.180392 0.713725 0.0784314
0.235294 0.705882 0.0823529
0.290196 0.698039 0.0823529
0.364706 0.690196 0.0941176
0.431373 0.690196 0.101961
0.517647 0.698039 0.105882
0.588235 0.701961 0.0980392
0.658824 0.713725 0.0980392
0.721569 0.721569 0.109804
0.788235 0.72549 0.105882
0.862745 0.74902 0.105882
0.921569 0.760784 0.109804
0.968627 0.768627 0.113725
0.968627 0.768627 0.113725
0.0745098 0.803922 0.0784314
0.101961 0.807843 0.0745098
0.141176 0.807843 0.0745098
0.188235 0.788235 0.0862745
0.247059 0.792157 0.0823529
0.301961 0.784314 0.0901961
0.376471 0.780392 0.0941176
0.454902 0.776471 0.0980392
0.521569 0.760784 0.109804
0.596078 0.764706 0.105882
0.666667 0.776471 0.101961
0.733333 0.788235 0.109804
0.8 0.796078 0.105882
0.858824 0.8 0.105882
0.913725 0.807843 0.105882
0.960784 0.827451 0.109804
0.960784 0.827451 0.109804
0.0823529 0.870588 0.0784314
0.113725 0.870588 0.0823529
0.152941 0.870588 0.0784314
0.2 0.858824 0.0784314
0.25098 0.854902 0.0862745
0.309804 0.847059 0.0941176
0.384314 0.843137 0.0901961
0.458824 0.827451 0.101961
0.533333 0.831373 0.101961
0.6 0.827451 0.109804
0.67451 0.831373 0.105882
0.745098 0.843137 0.105882
0.8 0.847059 0.109804
0.854902 0.85098 0.109804
0.913725 0.862745 0.109804
0.956863 0.866667 0.113725
0.956863 0.866667 0.113725
0.0901961 0.92549 0.0784314
0.121569 0.92549 0.0823529
0.160784 0.92549 0.0784314
0.203922 0.921569 0.0823529
0.262745 0.917647 0.0941176
0.329412 0.909804 0.0941176
0.403922 0.905882 0.0941176
0.482353 0.901961 0.101961
0.568627 0.901961 0.105882
0.623529 0.890196 0.109804
0.690196 0.894118 0.113725
0.752941 0.898039 0.109804
0.807843 0.898039 0.105882
0.862745 0.909804 0.109804
0.909804 0.905882 0.113725
0.956863 0.913725 0.113725
0.956863 0.913725 0.113725
0.0941176 0.968627 0.0784314
0.121569 0.964706 0.0823529
0.160784 0.968627 0.0784314
0.207843 0.964706 0.0745098
0.266667 0.956863 0.0901961
0.329412 0.952941 0.0941176
0.4 0.941176 0.0941176
0.482353 0.952941 0.0980392
0.568627 0.937255 0.101961
0.627451 0.933333 0.109804
0.690196 0.937255 0.113725
0.74902 0.933333 0.109804
0.807843 0.937255 0.109804
0.862745 0.941176 0.113725
0.909804 0.941176 0.113725
0.952941 0.945098 0.109804
0.952941 0.945098 0.109804
0.0745098 0.0156863 0.027451
0.0941176 0.0313725 0.0313725
0.121569 0.0352941 0.0431373
0.160784 0.0431373 0.0431373
0.207843 0.0509804 0.0509804
0.27451 0.0627451 0.0627451
0.341176 0.0745098 0.0784314
0.4 0.0862745 0.0823529
0.486275 0.0941176 0.0862745
0.584314 0.0980392 0.0980392
0.670588 0.0980392 0.0980392
0.74902 0.0980392 0.0980392
0.811765 0.0980392 0.0941176
0.882353 0.101961 0.0901961
0.941176 0.101961 0.0941176
0.988235 0.109804 0.101961
0.988235 0.109804 0.101961
0.0705882 0.0509804 0.0352941
0.0862745 0.0509804 0.0313725
0.117647 0.0588235 0.0392157
0.160784 0.0627451 0.0470588
0.196078 0.0745098 0.054902
0.270588 0.0862745 0.0627451
0.333333 0.0941176 0.0745098
0.403922 0.109804 0.0862745
0.486275 0.121569 0.0901961
0.572549 0.121569 0.0941176
0.658824 0.121569 0.0901961
0.741176 0.117647 0.0941176
0.811765 0.129412 0.101961
0.882353 0.12549 0.0980392
0.941176 0.129412 0.105882
0.976471 0.137255 0.0980392
0.976471 0.137255 0.101961
0.0705882 0.0784314 0.0352941
0.0901961 0.0745098 0.0313725
0.117647 0.0784314 0.0392157
0.160784 0.0901961 0.0509804
0.2 0.0941176 0.0588235
0.266667 0.109804 0.0705882
0.321569 0.117647 0.0745098
0.392157 0.133333 0.0784314
0.478431 0.141176 0.0901961
0.568627 0.145098 0.0941176
0.65098 0.152941 0.0941176
0.729412 0.14902 0.101961
0.803922 0.152941 0.0980392
0.878431 0.160784 0.105882
0.933333 0.156863 0.105882
0.976471 0.160784 0.109804
0.976471 0.164706 0.105882
0.0705882 0.117647 0.0392157
0.0941176 0.109804 0.0431373
0.117647 0.105882 0.0470588
0.152941 0.117647 0.0509804
0.203922 0.133333 0.054902
0.266667 0.137255 0.0627451
0.333333 0.156863 0.0745098
0.403922 0.164706 0.0823529
0.478431 0.172549 0.0862745
0.576471 0.184314 0.0941176
0.662745 0.184314 0.0941176
0.741176 0.192157 0.101961
0.803922 0.192157 0.101961
0.878431 0.196078 0.101961
0.933333 0.203922 0.105882
0.976471 0.207843 0.105882
0.976471 0.207843 0.105882
0.0627451 0.152941 0.0431373
0.0901961 0.152941 0.0470588
0.121569 0.141176 0.0509804
0.152941 0.145098 0.054902
0.203922 0.156863 0.054902
0.254902 0.172549 0.0588235
0.321569 0.188235 0.0784314
0.4 0.2 0.0784314
0.478431 0.219608 0.0941176
0.576471 0.219608 0.0980392
0.658824 0.227451 0.0980392
0.737255 0.227451 0.101961
0.803922 0.239216 0.105882
0.878431 0.239216 0.109804
0.929412 0.247059 0.113725
0.968627 0.247059 0.113725
0.976471 0.254902 0.113725
0.0588235 0.207843 0.0470588
0.0862745 0.211765 0.0509804
0.117647 0.203922 0.0509804
0.156863 0.196078 0.0588235
0.196078 0.196078 0.0627451
0.258824 0.211765 0.0627451
0.317647 0.231373 0.0705882
0.388235 0.243137 0.0784314
0.466667 0.258824 0.0941176
0.572549 0.262745 0.0941176
0.662745 0.278431 0.101961
0.737255 0.278431 0.105882
0.803922 0.282353 0.105882
0.87451 0.294118 0.105882
0.937255 0.309804 0.113725
0.976471 0.309804 0.117647
0.976471 0.305882 0.117647
0.054902 0.270588 0.054902
0.0784314 0.266667 0.0627451
0.117647 0.262745 0.0627451
0.152941 0.254902 0.0666667
0.196078 0.247059 0.0666667
0.254902 0.25098 0.0627451
0.317647 0.270588 0.0745098
0.396078 0.298039 0.0862745
0.47451 0.313725 0.101961
0.564706 0.317647 0.105882
0.662745 0.321569 0.109804
0.745098 0.333333 0.109804
0.811765 0.34902 0.109804
0.882353 0.356863 0.109804
0.933333 0.372549 0.113725
0.976471 0.368627 0.109804
0.972549 0.368627 0.113725
0.0509804 0.333333 0.0745098
0.0784314 0.341176 0.0705882
0.109804 0.333333 0.0666667
0.145098 0.32549 0.0745098
0.196078 0.321569 0.0666667
0.25098 0.321569 0.0784314
0.317647 0.32549 0.0705882
0.384314 0.34902 0.0862745
0.466667 0.368627 0.105882
0.568627 0.376471 0.105882
0.662745 0.388235 0.105882
0.741176 0.403922 0.109804
0.803922 0.411765 0.113725
0.878431 0.419608 0.117647
0.937255 0.431373 0.113725
0.972549 0.447059 0.113725
0.972549 0.435294 0.113725
0.0431373 0.403922 0.0784314
0.0705882 0.403922 0.0784314
0.105882 0.411765 0.0823529
0.152941 0.4 0.0823529
0.2 0.392157 0.0823529
0.25098 0.396078 0.0901961
0.317647 0.403922 0.0823529
0.396078 0.407843 0.0980392
0.470588 0.419608 0.109804
0.568627 0.443137 0.109804
0.65098 0.447059 0.109804
0.733333 0.458824 0.113725
0.807843 0.482353 0.113725
0.878431 0.490196 0.121569
0.929412 0.513725 0.113725
0.972549 0.513725 0.109804
0.972549 0.505882 0.109804
0.0431373 0.482353 0.0823529
0.0666667 0.490196 0.0901961
0.105882 0.490196 0.0862745
0.14902 0.486275 0.0901961
0.2 0.482353 0.0941176
0.254902 0.47451 0.0941176
0.317647 0.462745 0.0980392
0.388235 0.482353 0.0980392
0.470588 0.486275 0.105882
0.560784 0.501961 0.105882
0.647059 0.52549 0.101961
0.72549 0.537255 0.113725
0.803922 0.556863 0.113725
0.870588 0.576471 0.117647
0.917647 0.580392 0.113725
0.968627 0.592157 0.117647
0.968627 0.592157 0.117647
0.0470588 0.572549 0.0901961
0.0784314 0.572549 0.0823529
0.117647 0.572549 0.0901961
0.156863 0.564706 0.0901961
0.211765 0.556863 0.0862745
0.266667 0.552941 0.101961
0.337255 0.54902 0.109804
0.403922 0.54902 0.105882
0.478431 0.552941 0.101961
0.572549 0.568627 0.113725
0.647059 0.584314 0.109804
0.721569 0.596078 0.113725
0.807843 0.619608 0.117647
0.866667 0.639216 0.113725
0.92549 0.643137 0.117647
0.968627 0.65098 0.121569
0.968627 0.65098 0.121569
0.054902 0.658824 0.0862745
0.0784314 0.658824 0.0862745
0.12549 0.658824 0.0862745
0.168627 0.643137 0.0901961
0.227451 0.647059 0.0901961
0.286275 0.643137 0.105882
0.356863 0.631373 0.109804
0.423529 0.623529 0.117647
0.498039 0.639216 0.113725
0.580392 0.643137 0.113725
0.65098 0.654902 0.113725
0.729412 0.670588 0.117647
0.803922 0.682353 0.121569
0.866667 0.690196 0.121569
0.921569 0.701961 0.117647
0.968627 0.717647 0.129412
0.968627 0.709804 0.129412
0.0705882 0.733333 0.0941176
0.0980392 0.733333 0.0941176
0.137255 0.733333 0.0941176
0.176471 0.72549 0.0941176
0.231373 0.72549 0.101961
0.309804 0.72549 0.105882
0.360784 0.709804 0.105882
0.443137 0.701961 0.117647
0.517647 0.698039 0.117647
0.584314 0.701961 0.121569
0.654902 0.705882 0.109804
0.72549 0.721569 0.121569
0.792157 0.729412 0.121569
0.866667 0.756863 0.12549
0.917647 0.768627 0.129412
0.960784 0.768627 0.129412
0.960784 0.768627 0.129412
0.0784314 0.803922 0.0901961
0.109804 0.807843 0.0941176
0.145098 0.803922 0.0941176
0.192157 0.8 0.0941176
0.25098 0.796078 0.101961
0.317647 0.788235 0.101961
0.384314 0.784314 0.109804
0.454902 0.776471 0.109804
0.521569 0.768627 0.117647
0.607843 0.768627 0.117647
0.67451 0.780392 0.12549
0.741176 0.796078 0.117647
0.796078 0.788235 0.121569
0.854902 0.803922 0.117647
0.917647 0.815686 0.129412
0.964706 0.827451 0.129412
0.964706 0.823529 0.129412
0.0823529 0.870588 0.0862745
0.117647 0.870588 0.0901961
0.156863 0.870588 0.0980392
0.2 0.866667 0.0941176
0.258824 0.862745 0.101961
0.32549 0.854902 0.109804
0.388235 0.854902 0.109804
0.470588 0.839216 0.113725
0.556863 0.835294 0.121569
0.611765 0.827451 0.12549
0.682353 0.835294 0.12549
0.74902 0.843137 0.121569
0.803922 0.85098 0.121569
0.858824 0.854902 0.12549
0.917647 0.862745 0.129412
0.964706 0.87451 0.129412
0.960784 0.878431 0.129412
0.0862745 0.92549 0.0941176
0.117647 0.929412 0.0901961
0.152941 0.92549 0.0980392
0.203922 0.917647 0.0980392
0.262745 0.921569 0.101961
0.321569 0.917647 0.105882
0.4 0.905882 0.105882
0.482353 0.905882 0.121569
0.564706 0.901961 0.129412
0.619608 0.894118 0.129412
0.690196 0.890196 0.133333
0.74902 0.898039 0.12549
0.807843 0.901961 0.12549
0.862745 0.905882 0.129412
0.917647 0.909804 0.137255
0.960784 0.913725 0.129412
0.960784 0.913725 0.129412
0.101961 0.972549 0.0980392
0.12549 0.972549 0.0901961
0.164706 0.976471 0.0941176
0.207843 0.972549 0.0980392
0.262745 0.960784 0.105882
0.337255 0.956863 0.105882
0.403922 0.956863 0.105882
0.498039 0.952941 0.121569
0.572549 0.94902 0.12549
0.643137 0.941176 0.121569
0.698039 0.941176 0.12549
0.74902 0.945098 0.12549
0.811765 0.945098 0.129412
0.866667 0.945098 0.129412
0.917647 0.952941 0.129412
0.956863 0.945098 0.129412
0.956863 0.945098 0.129412
0.0705882 0.0235294 0.0627451
0.0901961 0.0235294 0.0627451
0.12549 0.0352941 0.0666667
0.160784 0.0470588 0.0666667
0.207843 0.054902 0.0745098
0.278431 0.0627451 0.0862745
0.333333 0.0745098 0.0901961
0.403922 0.0901961 0.101961
0.494118 0.0980392 0.113725
0.580392 0.0941176 0.12549
0.666667 0.0980392 0.12549
0.745098 0.0980392 0.121569
0.807843 0.0980392 0.12549
0.890196 0.101961 0.12549
0.941176 0.101961 0.133333
0.984314 0.101961 0.133333
0.984314 0.101961 0.133333
0.0705882 0.054902 0.0588235
0.0941176 0.054902 0.0588235
0.121569 0.0588235 0.0627451
0.164706 0.0627451 0.0745098
0.207843 0.0745098 0.0784314
0.27451 0.0862745 0.0862745
0.337255 0.0941176 0.0980392
0.411765 0.113725 0.113725
0.494118 0.117647 0.121569
0.584314 0.121569 0.121569
0.670588 0.121569 0.117647
0.756863 0.117647 0.129412
0.815686 0.12549 0.133333
0.890196 0.129412 0.133333
0.937255 0.129412 0.137255
0.980392 0.133333 0.137255
0.980392 0.133333 0.137255
0.0705882 0.0784314 0.0588235
0.0941176 0.0784314 0.0666667
0.121569 0.0862745 0.0666667
0.160784 0.0901961 0.0745098
0.2 0.101961 0.0862745
0.270588 0.109804 0.0941176
0.333333 0.12549 0.101961
0.407843 0.137255 0.109804
0.486275 0.141176 0.12549
0.584314 0.14902 0.121569
0.658824 0.156863 0.121569
0.745098 0.14902 0.129412
0.815686 0.152941 0.133333
0.882353 0.156863 0.137255
0.937255 0.156863 0.137255
0.984314 0.164706 0.137255
0.984314 0.164706 0.137255
0.0705882 0.117647 0.0627451
0.0901961 0.121569 0.0705882
0.113725 0.113725 0.0666667
0.156863 0.117647 0.0784314
0.207843 0.133333 0.0784314
0.266667 0.141176 0.0901961
0.329412 0.164706 0.101961
0.396078 0.172549 0.105882
0.478431 0.172549 0.121569
0.576471 0.184314 0.12549
0.662745 0.192157 0.129412
0.733333 0.196078 0.12549
0.807843 0.196078 0.137255
0.878431 0.207843 0.141176
0.937255 0.211765 0.141176
0.980392 0.207843 0.141176
0.980392 0.207843 0.141176
0.0666667 0.152941 0.0705882
0.0901961 0.160784 0.0745098
0.121569 0.156863 0.0823529
0.160784 0.156863 0.0862745
0.203922 0.160784 0.0901961
0.266667 0.180392 0.0901961
0.333333 0.192157 0.0980392
0.407843 0.203922 0.109804
0.486275 0.219608 0.129412
0.572549 0.219608 0.12549
0.666667 0.235294 0.129412
0.74902 0.239216 0.137255
0.815686 0.247059 0.141176
0.882353 0.239216 0.141176
0.933333 0.247059 0.141176
0.980392 0.254902 0.137255
0.980392 0.254902 0.145098
0.0588235 0.215686 0.0823529
0.0862745 0.207843 0.0823529
0.117647 0.211765 0.0862745
0.152941 0.203922 0.0862745
0.203922 0.207843 0.0862745
0.262745 0.219608 0.0941176
0.32549 0.235294 0.101961
0.403922 0.254902 0.113725
0.486275 0.266667 0.129412
0.580392 0.27451 0.12549
0.670588 0.278431 0.137255
0.745098 0.290196 0.137255
0.811765 0.286275 0.137255
0.878431 0.298039 0.141176
0.933333 0.309804 0.145098
0.980392 0.321569 0.145098
0.980392 0.317647 0.145098
0.054902 0.27451 0.0901961
0.0745098 0.278431 0.0862745
0.113725 0.278431 0.0901961
0.14902 0.27451 0.0823529
0.2 0.266667 0.0941176
0.262745 0.266667 0.0941176
0.329412 0.286275 0.105882
0.388235 0.301961 0.109804
0.482353 0.317647 0.129412
0.576471 0.329412 0.129412
0.670588 0.333333 0.133333
0.745098 0.34902 0.145098
0.807843 0.34902 0.141176
0.882353 0.372549 0.145098
0.933333 0.372549 0.137255
0.980392 0.380392 0.152941
0.980392 0.376471 0.141176
0.0470588 0.337255 0.0980392
0.0745098 0.352941 0.0941176
0.109804 0.345098 0.0941176
0.156863 0.337255 0.0941176
0.207843 0.329412 0.0980392
0.258824 0.329412 0.101961
0.329412 0.333333 0.105882
0.4 0.352941 0.117647
0.490196 0.380392 0.133333
0.580392 0.388235 0.129412
0.658824 0.392157 0.137255
0.74902 0.407843 0.145098
0.827451 0.415686 0.14902
0.882353 0.439216 0.141176
0.941176 0.439216 0.145098
0.976471 0.454902 0.145098
0.976471 0.454902 0.14902
0.0431373 0.411765 0.105882
0.0627451 0.419608 0.109804
0.105882 0.415686 0.0980392
0.152941 0.415686 0.105882
0.203922 0.407843 0.113725
0.270588 0.403922 0.113725
0.321569 0.407843 0.113725
0.4 0.407843 0.121569
0.47451 0.419608 0.133333
0.572549 0.45098 0.137255
0.666667 0.462745 0.137255
0.74902 0.47451 0.141176
0.819608 0.490196 0.145098
0.878431 0.505882 0.152941
0.937255 0.513725 0.156863
0.976471 0.529412 0.152941
0.976471 0.52549 0.156863
0.0392157 0.486275 0.109804
0.0705882 0.501961 0.113725
0.101961 0.501961 0.113725
0.152941 0.494118 0.113725
0.211765 0.490196 0.121569
0.266667 0.486275 0.129412
0.32549 0.47451 0.133333
0.396078 0.486275 0.133333
0.486275 0.501961 0.133333
0.580392 0.505882 0.137255
0.654902 0.529412 0.141176
0.737255 0.545098 0.145098
0.815686 0.564706 0.14902
0.87451 0.572549 0.156863
0.933333 0.588235 0.156863
0.972549 0.588235 0.152941
0.972549 0.588235 0.152941
0.0431373 0.584314 0.109804
0.0745098 0.580392 0.113725
0.113725 0.572549 0.113725
0.160784 0.584314 0.113725
0.219608 0.576471 0.117647
0.282353 0.572549 0.137255
0.341176 0.560784 0.133333
0.407843 0.560784 0.141176
0.498039 0.576471 0.133333
0.580392 0.580392 0.141176
0.658824 0.6 0.14902
0.733333 0.607843 0.141176
0.807843 0.627451 0.14902
0.87451 0.631373 0.14902
0.92549 0.654902 0.14902
0.972549 0.662745 0.156863
0.968627 0.658824 0.156863
0.0588235 0.658824 0.109804
0.0901961 0.666667 0.117647
0.133333 0.662745 0.117647
0.168627 0.658824 0.117647
0.227451 0.658824 0.129412
0.298039 0.658824 0.137255
0.372549 0.65098 0.141176
0.439216 0.643137 0.145098
0.505882 0.643137 0.141176
0.584314 0.65098 0.14902
0.666667 0.666667 0.156863
0.745098 0.67451 0.14902
0.803922 0.690196 0.156863
0.87451 0.705882 0.160784
0.92549 0.709804 0.152941
0.976471 0.721569 0.156863
0.976471 0.721569 0.156863
0.0666667 0.733333 0.113725
0.0901961 0.733333 0.117647
0.137255 0.729412 0.121569
0.176471 0.729412 0.117647
0.239216 0.729412 0.133333
0.313725 0.721569 0.137255
0.384314 0.717647 0.141176
0.454902 0.709804 0.145098
0.517647 0.701961 0.145098
0.592157 0.717647 0.14902
0.662745 0.721569 0.152941
0.733333 0.72549 0.14902
0.803922 0.741176 0.160784
0.862745 0.756863 0.156863
0.921569 0.760784 0.156863
0.972549 0.772549 0.168627
0.972549 0.772549 0.168627
0.0745098 0.807843 0.121569
0.105882 0.815686 0.121569
0.141176 0.811765 0.121569
0.192157 0.811765 0.12549
0.243137 0.807843 0.129412
0.317647 0.811765 0.145098
0.392157 0.796078 0.14902
0.462745 0.796078 0.145098
0.545098 0.788235 0.156863
0.611765 0.784314 0.160784
0.682353 0.792157 0.156863
0.737255 0.796078 0.14902
0.796078 0.807843 0.160784
0.866667 0.815686 0.164706
0.921569 0.827451 0.160784
0.964706 0.839216 0.168627
0.964706 0.839216 0.168627
0.0823529 0.870588 0.117647
0.109804 0.866667 0.12549
0.14902 0.866667 0.12549
0.2 0.870588 0.12549
0.254902 0.866667 0.129412
0.317647 0.862745 0.129412
0.411765 0.862745 0.145098
0.486275 0.85098 0.14902
0.556863 0.843137 0.14902
0.615686 0.835294 0.164706
0.698039 0.847059 0.160784
0.756863 0.85098 0.160784
0.807843 0.858824 0.168627
0.862745 0.858824 0.160784
0.921569 0.862745 0.160784
0.964706 0.878431 0.168627
0.964706 0.878431 0.168627
0.0941176 0.929412 0.121569
0.121569 0.929412 0.12549
0.156863 0.929412 0.129412
0.2 0.929412 0.12549
0.270588 0.933333 0.137255
0.345098 0.92549 0.141176
0.415686 0.917647 0.145098
0.494118 0.913725 0.152941
0.576471 0.913725 0.156863
0.647059 0.901961 0.164706
0.701961 0.898039 0.164706
0.760784 0.901961 0.164706
0.811765 0.909804 0.172549
0.870588 0.913725 0.168627
0.917647 0.913725 0.172549
0.960784 0.921569 0.164706
0.960784 0.921569 0.164706
0.0901961 0.968627 0.121569
0.121569 0.972549 0.121569
0.164706 0.968627 0.129412
0.211765 0.968627 0.12549
0.27451 0.968627 0.137255
0.345098 0.960784 0.137255
0.419608 0.960784 0.145098
0.509804 0.960784 0.152941
0.580392 0.952941 0.156863
0.647059 0.945098 0.156863
0.705882 0.945098 0.164706
0.768627 0.941176 0.168627
0.819608 0.945098 0.168627
0.870588 0.94902 0.168627
0.917647 0.94902 0.172549
0.952941 0.952941 0.168627
0.952941 0.952941 0.164706
0.0666667 0.0313725 0.113725
0.0980392 0.0313725 0.0941176
0.12549 0.0352941 0.105882
0.164706 0.0431373 0.105882
0.211765 0.0509804 0.121569
0.270588 0.0588235 0.121569
0.337255 0.0705882 0.129412
0.423529 0.0862745 0.137255
0.494118 0.0941176 0.14902
