assets/luts/vintage/Wash.cube
#Generated by Picture Instruments - Unlimited Filters
TITLE "filter mobile test 4"
LUT_3D_SIZE 5
0.239216 0.156863 0.278431
0.364706 0.0627451 0.196078
0.505882 0 0.117647
0.678431 0 0.0784314
0.835294 0 0.0392157
0.184314 0.298039 0.211765
0.34902 0.290196 0.2
0.490196 0.227451 0.12549
0.658824 0.215686 0.0823529
0.819608 0.203922 0.0588235
0.117647 0.462745 0.12549
0.290196 0.458824 0.137255
0.478431 0.447059 0.160784
0.65098 0.443137 0.129412
0.815686 0.431373 0.0980392
0.117647 0.705882 0.0901961
0.290196 0.705882 0.117647
0.470588 0.717647 0.12549
0.670588 0.717647 0.152941
0.847059 0.709804 0.129412
0.113725 0.976471 0.0627451
0.294118 0.984314 0.0823529
0.478431 0.992157 0.101961
0.662745 0.996078 0.121569
0.85098 0.996078 0.133333
0.188235 0.0784314 0.372549
0.356863 0.0784314 0.376471
0.505882 0 0.313725
0.682353 0 0.270588
0.835294 0.00392157 0.235294
0.188235 0.313725 0.364706
0.337255 0.32549 0.368627
0.478431 0.25098 0.305882
0.654902 0.243137 0.262745
0.811765 0.227451 0.231373
0.12549 0.490196 0.305882
0.294118 0.498039 0.305882
0.470588 0.490196 0.329412
0.647059 0.482353 0.294118
0.815686 0.466667 0.262745
0.121569 0.721569 0.266667
0.294118 0.72549 0.282353
0.466667 0.72549 0.294118
0.662745 0.733333 0.309804
0.847059 0.721569 0.298039
0.121569 0.984314 0.239216
0.298039 0.988235 0.247059
0.47451 0.992157 0.262745
0.662745 0.996078 0.286275
0.85098 0.996078 0.301961
0.145098 0.0117647 0.494118
0.313725 0 0.498039
0.498039 0.00392157 0.498039
0.678431 0.00392157 0.466667
0.831373 0.00784314 0.431373
0.137255 0.258824 0.482353
0.301961 0.266667 0.482353
0.478431 0.270588 0.482353
0.647059 0.254902 0.45098
0.796078 0.239216 0.419608
0.137255 0.509804 0.478431
0.298039 0.517647 0.47451
0.470588 0.521569 0.482353
0.643137 0.513725 0.454902
0.815686 0.501961 0.427451
0.137255 0.733333 0.447059
0.301961 0.741176 0.458824
0.482353 0.745098 0.466667
0.658824 0.741176 0.478431
0.847059 0.733333 0.470588
0.129412 0.980392 0.431373
0.301961 0.984314 0.443137
0.486275 0.992157 0.439216
0.666667 0.996078 0.458824
0.85098 0.996078 0.47451
0.145098 0.00784314 0.643137
0.309804 0.00784314 0.65098
0.490196 0 0.65098
0.670588 0.00784314 0.647059
0.831373 0.0156863 0.619608
0.145098 0.266667 0.631373
0.305882 0.262745 0.623529
0.466667 0.266667 0.627451
0.643137 0.270588 0.623529
0.803922 0.262745 0.607843
0.141176 0.513725 0.623529
0.301961 0.521569 0.619608
0.470588 0.52549 0.627451
0.647059 0.517647 0.631373
0.815686 0.505882 0.611765
0.145098 0.745098 0.623529
0.317647 0.74902 0.635294
0.490196 0.74902 0.639216
0.686275 0.784314 0.666667
0.843137 0.784314 0.666667
0.145098 0.988235 0.623529
0.313725 0.992157 0.623529
0.486275 0.992157 0.631373
0.701961 0.992157 0.662745
0.843137 0.992157 0.662745
0.141176 0.0117647 0.792157
0.309804 0.00784314 0.796078
0.482353 0.00784314 0.8
0.658824 0.00784314 0.796078
0.823529 0.0156863 0.784314
0.145098 0.262745 0.776471
0.301961 0.270588 0.764706
0.462745 0.270588 0.764706
0.635294 0.270588 0.776471
0.8 0.27451 0.772549
0.141176 0.509804 0.756863
0.309804 0.521569 0.760784
0.47451 0.521569 0.760784
0.643137 0.517647 0.780392
0.819608 0.517647 0.784314
0.14902 0.74902 0.768627
0.313725 0.756863 0.776471
0.490196 0.756863 0.788235
0.694118 0.792157 0.803922
0.831373 0.788235 0.8
0.14902 0.988235 0.784314
0.317647 0.992157 0.788235
0.494118 0.988235 0.8
0.701961 0.988235 0.803922
0.843137 0.988235 0.803922
