assets/luts/vintage/Wash.cube
#Generated by Picture Instruments - Unlimited Filters
TITLE "filter mobile test 4"
LUT_3D_SIZE 17
0.239216 0.156863 0.278431
0.266667 0.133333 0.262745
0.305882 0.109804 0.247059
0.329412 0.0901961 0.219608
0.364706 0.0627451 0.196078
0.4 0.0431373 0.180392
0.435294 0.027451 0.156863
0.47451 0.00784314 0.12549
0.505882 0 0.117647
0.54902 0 0.105882
0.596078 0 0.0980392
0.639216 0 0.0901961
0.678431 0 0.0784314
0.72549 0 0.0705882
0.764706 0 0.0627451
0.807843 0 0.0509804
0.835294 0 0.0392157
0.223529 0.196078 0.258824
0.262745 0.188235 0.262745
0.301961 0.172549 0.239216
0.321569 0.145098 0.223529
0.356863 0.12549 0.203922
0.392157 0.105882 0.172549
0.427451 0.0784314 0.156863
0.47451 0.0627451 0.129412
0.505882 0.0392157 0.113725
0.545098 0.0431373 0.101961
0.588235 0.0352941 0.0980392
0.627451 0.0313725 0.0823529
0.682353 0.0313725 0.0784314
0.721569 0.0313725 0.0745098
0.756863 0.0235294 0.0588235
0.803922 0.0235294 0.0431373
0.839216 0.0235294 0.0431373
0.215686 0.235294 0.247059
0.254902 0.235294 0.25098
0.286275 0.223529 0.235294
0.321569 0.207843 0.215686
0.360784 0.184314 0.196078
0.384314 0.164706 0.168627
0.427451 0.145098 0.14902
0.466667 0.117647 0.133333
0.505882 0.101961 0.113725
0.545098 0.0980392 0.0980392
0.584314 0.0901961 0.0941176
0.635294 0.0862745 0.0901961
0.666667 0.0862745 0.0784314
0.721569 0.0862745 0.0666667
0.760784 0.0823529 0.054902
0.8 0.0784314 0.0470588
0.827451 0.0745098 0.0392157
0.203922 0.266667 0.227451
0.239216 0.266667 0.235294
0.27451 0.262745 0.227451
0.32549 0.262745 0.211765
0.34902 0.247059 0.196078
0.384314 0.231373 0.172549
0.419608 0.211765 0.156863
0.458824 0.196078 0.133333
0.498039 0.172549 0.117647
0.537255 0.172549 0.105882
0.580392 0.168627 0.0941176
0.623529 0.164706 0.0862745
0.666667 0.160784 0.0745098
0.709804 0.160784 0.0705882
0.74902 0.160784 0.0627451
0.788235 0.152941 0.054902
0.815686 0.14902 0.0470588
0.184314 0.298039 0.211765
0.219608 0.294118 0.207843
0.262745 0.294118 0.211765
0.305882 0.298039 0.215686
0.34902 0.290196 0.2
0.380392 0.278431 0.188235
0.415686 0.258824 0.160784
0.454902 0.243137 0.133333
0.490196 0.227451 0.12549
0.537255 0.223529 0.117647
0.576471 0.219608 0.105882
0.623529 0.219608 0.0980392
0.658824 0.215686 0.0823529
0.698039 0.215686 0.0823529
0.74902 0.211765 0.0705882
0.784314 0.203922 0.0627451
0.819608 0.203922 0.0588235
0.172549 0.337255 0.196078
0.211765 0.337255 0.192157
0.247059 0.333333 0.192157
0.286275 0.329412 0.196078
0.337255 0.317647 0.2
0.384314 0.32549 0.196078
0.415686 0.301961 0.168627
0.454902 0.286275 0.14902
0.490196 0.270588 0.133333
0.529412 0.27451 0.117647
0.568627 0.27451 0.117647
0.615686 0.266667 0.101961
0.65098 0.262745 0.0980392
0.701961 0.266667 0.0862745
0.741176 0.262745 0.0784314
0.784314 0.254902 0.0705882
0.815686 0.254902 0.0588235
0.14902 0.372549 0.164706
0.188235 0.380392 0.164706
0.227451 0.372549 0.172549
0.278431 0.372549 0.176471
0.32549 0.372549 0.184314
0.368627 0.364706 0.184314
0.407843 0.356863 0.180392
0.45098 0.345098 0.160784
0.486275 0.329412 0.137255
0.521569 0.317647 0.129412
0.568627 0.321569 0.121569
0.607843 0.321569 0.113725
0.654902 0.313725 0.105882
0.694118 0.313725 0.105882
0.741176 0.313725 0.0901961
0.780392 0.305882 0.0823529
0.811765 0.305882 0.0823529
0.137255 0.415686 0.141176
0.172549 0.419608 0.141176
0.215686 0.415686 0.152941
0.262745 0.415686 0.152941
0.301961 0.415686 0.156863
0.356863 0.415686 0.160784
0.4 0.407843 0.160784
0.447059 0.407843 0.176471
0.482353 0.388235 0.152941
0.52549 0.388235 0.137255
0.564706 0.388235 0.133333
0.603922 0.376471 0.12549
0.647059 0.376471 0.113725
0.694118 0.380392 0.109804
0.741176 0.376471 0.105882
0.776471 0.380392 0.0980392
0.811765 0.368627 0.0901961
0.117647 0.462745 0.12549
0.156863 0.462745 0.12549
0.2 0.466667 0.133333
0.25098 0.462745 0.133333
0.290196 0.458824 0.137255
0.333333 0.454902 0.141176
0.380392 0.466667 0.141176
0.427451 0.462745 0.152941
0.478431 0.447059 0.160784
0.521569 0.45098 0.152941
0.560784 0.447059 0.141176
0.611765 0.45098 0.137255
0.65098 0.443137 0.129412
0.694118 0.439216 0.12549
0.729412 0.435294 0.109804
0.776471 0.439216 0.105882
0.815686 0.431373 0.0980392
0.121569 0.52549 0.113725
0.14902 0.521569 0.113725
0.2 0.521569 0.121569
0.243137 0.517647 0.129412
0.290196 0.517647 0.12549
0.341176 0.521569 0.133333
0.380392 0.521569 0.145098
0.427451 0.529412 0.14902
0.478431 0.521569 0.152941
0.529412 0.513725 0.164706
0.564706 0.513725 0.152941
0.611765 0.513725 0.152941
0.65098 0.509804 0.133333
0.698039 0.498039 0.137255
0.74902 0.501961 0.121569
0.784314 0.494118 0.113725
0.823529 0.494118 0.109804
0.113725 0.580392 0.109804
0.152941 0.584314 0.109804
0.196078 0.576471 0.121569
0.243137 0.584314 0.12549
0.290196 0.584314 0.121569
0.333333 0.588235 0.133333
0.380392 0.588235 0.141176
0.419608 0.588235 0.137255
0.470588 0.588235 0.141176
0.517647 0.588235 0.14902
0.568627 0.584314 0.152941
0.611765 0.584314 0.164706
0.658824 0.576471 0.14902
0.701961 0.568627 0.137255
0.74902 0.568627 0.129412
0.796078 0.572549 0.129412
0.831373 0.560784 0.113725
0.109804 0.647059 0.101961
0.14902 0.647059 0.101961
0.203922 0.65098 0.105882
0.247059 0.647059 0.117647
0.290196 0.65098 0.121569
0.32549 0.65098 0.12549
0.372549 0.647059 0.129412
0.419608 0.654902 0.129412
0.462745 0.658824 0.129412
0.517647 0.658824 0.141176
0.564706 0.654902 0.145098
0.615686 0.65098 0.152941
0.662745 0.647059 0.152941
0.717647 0.647059 0.152941
0.752941 0.639216 0.145098
0.803922 0.635294 0.12549
0.843137 0.635294 0.121569
0.117647 0.705882 0.0901961
0.156863 0.709804 0.0980392
0.203922 0.709804 0.109804
0.25098 0.705882 0.113725
0.290196 0.705882 0.117647
0.337255 0.705882 0.117647
0.380392 0.709804 0.121569
0.419608 0.717647 0.121569
0.470588 0.717647 0.12549
0.521569 0.717647 0.12549
0.568627 0.72549 0.141176
0.619608 0.721569 0.137255
0.670588 0.717647 0.152941
0.709804 0.717647 0.14902
0.764706 0.705882 0.152941
0.811765 0.709804 0.141176
0.847059 0.709804 0.129412
0.113725 0.772549 0.0941176
0.156863 0.776471 0.0980392
0.2 0.772549 0.101961
0.243137 0.776471 0.101961
0.290196 0.772549 0.109804
0.333333 0.776471 0.109804
0.380392 0.780392 0.113725
0.423529 0.784314 0.121569
0.47451 0.780392 0.109804
0.517647 0.788235 0.117647
0.572549 0.792157 0.129412
0.615686 0.796078 0.12549
0.670588 0.796078 0.133333
0.72549 0.792157 0.141176
0.764706 0.792157 0.145098
0.819608 0.788235 0.14902
0.85098 0.788235 0.141176
0.113725 0.847059 0.0823529
0.152941 0.839216 0.0823529
0.2 0.843137 0.0862745
0.25098 0.843137 0.0941176
0.286275 0.847059 0.101961
0.337255 0.85098 0.105882
0.384314 0.85098 0.105882
0.427451 0.854902 0.109804
0.478431 0.858824 0.109804
0.521569 0.862745 0.109804
0.572549 0.866667 0.117647
0.623529 0.870588 0.113725
0.670588 0.870588 0.121569
0.717647 0.870588 0.129412
0.772549 0.878431 0.129412
0.815686 0.87451 0.141176
0.866667 0.870588 0.141176
0.117647 0.913725 0.0745098
0.160784 0.917647 0.0745098
0.2 0.917647 0.0784314
0.25098 0.917647 0.0901961
0.298039 0.917647 0.0901961
0.341176 0.921569 0.0980392
0.384314 0.929412 0.0941176
0.423529 0.92549 0.0980392
0.482353 0.929412 0.105882
0.529412 0.941176 0.101961
0.572549 0.945098 0.105882
0.623529 0.94902 0.101961
0.670588 0.94902 0.109804
0.721569 0.952941 0.105882
0.772549 0.952941 0.117647
0.823529 0.952941 0.117647
0.870588 0.952941 0.121569
0.113725 0.976471 0.0627451
0.152941 0.980392 0.0627451
0.196078 0.980392 0.0705882
0.25098 0.980392 0.0705882
0.294118 0.984314 0.0823529
0.341176 0.988235 0.0862745
0.380392 0.992157 0.0862745
0.423529 0.992157 0.0941176
0.478431 0.992157 0.101961
0.521569 0.992157 0.0980392
0.572549 0.996078 0.109804
0.603922 0.996078 0.109804
0.662745 0.996078 0.121569
0.717647 0.996078 0.12549
0.756863 0.996078 0.129412
0.803922 0.996078 0.129412
0.85098 0.996078 0.133333
0.235294 0.137255 0.301961
0.262745 0.137255 0.298039
0.298039 0.113725 0.286275
0.333333 0.0941176 0.258824
0.356863 0.0705882 0.247059
0.396078 0.0470588 0.227451
0.439216 0.0235294 0.203922
0.478431 0.0117647 0.176471
0.509804 0 0.14902
0.552941 0 0.145098
0.592157 0 0.129412
0.643137 0 0.113725
0.678431 0 0.109804
0.721569 0 0.101961
0.768627 0 0.0862745
0.807843 0 0.0823529
0.839216 0 0.0627451
0.227451 0.196078 0.290196
0.262745 0.192157 0.294118
0.294118 0.176471 0.286275
0.32549 0.14902 0.270588
0.360784 0.129412 0.247059
0.396078 0.101961 0.219608
0.431373 0.0823529 0.207843
0.470588 0.0588235 0.176471
0.505882 0.0470588 0.14902
0.54902 0.0392157 0.133333
0.588235 0.0431373 0.12549
0.631373 0.0392157 0.113725
0.682353 0.0313725 0.109804
0.717647 0.0313725 0.0980392
0.760784 0.0313725 0.0862745
0.803922 0.027451 0.0784314
0.835294 0.027451 0.0666667
0.211765 0.235294 0.282353
0.25098 0.239216 0.282353
0.282353 0.227451 0.278431
0.321569 0.211765 0.258824
0.34902 0.188235 0.243137
0.392157 0.172549 0.223529
0.423529 0.14902 0.192157
0.454902 0.12549 0.184314
0.505882 0.105882 0.156863
0.541176 0.113725 0.137255
0.584314 0.101961 0.121569
0.627451 0.0901961 0.117647
0.662745 0.0901961 0.101961
0.713725 0.0941176 0.0980392
0.752941 0.0862745 0.0901961
0.792157 0.0784314 0.0666667
0.819608 0.0784314 0.0666667
0.2 0.270588 0.270588
0.239216 0.27451 0.270588
0.278431 0.27451 0.266667
0.317647 0.262745 0.258824
0.34902 0.25098 0.235294
0.384314 0.227451 0.219608
0.419608 0.211765 0.196078
0.458824 0.196078 0.172549
0.494118 0.168627 0.152941
0.541176 0.172549 0.141176
0.580392 0.172549 0.121569
0.631373 0.168627 0.121569
0.662745 0.160784 0.109804
0.709804 0.160784 0.0941176
0.752941 0.160784 0.0862745
0.784314 0.152941 0.0745098
0.819608 0.152941 0.0666667
0.184314 0.301961 0.254902
0.227451 0.305882 0.258824
0.262745 0.309804 0.254902
0.301961 0.301961 0.254902
0.352941 0.305882 0.25098
0.384314 0.282353 0.215686
0.411765 0.27451 0.2
0.45098 0.25098 0.176471
0.494118 0.231373 0.156863
0.533333 0.235294 0.145098
0.580392 0.227451 0.133333
0.615686 0.231373 0.12549
0.658824 0.231373 0.117647
0.694118 0.219608 0.105882
0.745098 0.215686 0.0901961
0.780392 0.215686 0.0784314
0.815686 0.219608 0.0784314
0.172549 0.34902 0.235294
0.211765 0.34902 0.231373
0.243137 0.341176 0.227451
0.282353 0.337255 0.235294
0.329412 0.345098 0.247059
0.376471 0.337255 0.231373
0.415686 0.321569 0.211765
0.447059 0.301961 0.196078
0.482353 0.290196 0.164706
0.521569 0.286275 0.152941
0.572549 0.278431 0.152941
0.607843 0.278431 0.133333
0.654902 0.278431 0.121569
0.694118 0.278431 0.113725
0.737255 0.270588 0.105882
0.776471 0.27451 0.0901961
0.819608 0.270588 0.0901961
0.152941 0.384314 0.203922
0.2 0.384314 0.211765
0.239216 0.384314 0.215686
0.27451 0.380392 0.211765
0.313725 0.372549 0.211765
0.364706 0.372549 0.219608
0.407843 0.372549 0.219608
0.447059 0.356863 0.196078
0.478431 0.341176 0.176471
0.52549 0.333333 0.164706
0.564706 0.337255 0.156863
0.615686 0.333333 0.145098
0.65098 0.329412 0.141176
0.701961 0.32549 0.129412
0.741176 0.32549 0.121569
0.780392 0.321569 0.109804
0.807843 0.313725 0.0980392
0.145098 0.423529 0.188235
0.176471 0.431373 0.180392
0.215686 0.427451 0.192157
0.262745 0.423529 0.196078
0.309804 0.423529 0.203922
0.352941 0.419608 0.203922
0.4 0.415686 0.215686
0.443137 0.415686 0.211765
0.482353 0.4 0.192157
0.52549 0.396078 0.184314
0.568627 0.392157 0.160784
0.607843 0.396078 0.160784
0.647059 0.388235 0.152941
0.694118 0.388235 0.145098
0.737255 0.388235 0.129412
0.784314 0.384314 0.12549
0.807843 0.384314 0.113725
0.12549 0.470588 0.164706
0.164706 0.47451 0.164706
0.196078 0.47451 0.160784
0.254902 0.466667 0.172549
0.298039 0.470588 0.176471
0.341176 0.466667 0.180392
0.388235 0.47451 0.188235
0.427451 0.470588 0.2
0.482353 0.462745 0.203922
0.517647 0.458824 0.188235
0.568627 0.454902 0.180392
0.607843 0.458824 0.172549
0.65098 0.447059 0.160784
0.694118 0.45098 0.156863
0.729412 0.443137 0.141176
0.772549 0.447059 0.133333
0.811765 0.443137 0.129412
0.117647 0.529412 0.156863
0.156863 0.529412 0.160784
0.2 0.537255 0.156863
0.25098 0.529412 0.160784
0.282353 0.529412 0.172549
0.329412 0.529412 0.168627
0.372549 0.52549 0.176471
0.419608 0.533333 0.180392
0.47451 0.529412 0.196078
0.513725 0.529412 0.2
0.564706 0.521569 0.2
0.6 0.521569 0.184314
0.65098 0.517647 0.176471
0.698039 0.521569 0.164706
0.741176 0.509804 0.156863
0.788235 0.509804 0.14902
0.815686 0.505882 0.133333
0.12549 0.588235 0.14902
0.164706 0.588235 0.14902
0.2 0.584314 0.14902
0.243137 0.588235 0.14902
0.286275 0.584314 0.160784
0.333333 0.592157 0.168627
0.384314 0.592157 0.176471
0.423529 0.592157 0.172549
0.47451 0.6 0.180392
0.521569 0.592157 0.192157
0.564706 0.592157 0.188235
0.615686 0.584314 0.2
0.654902 0.584314 0.192157
0.709804 0.580392 0.176471
0.752941 0.580392 0.168627
0.796078 0.572549 0.160784
0.831373 0.572549 0.152941
0.113725 0.65098 0.133333
0.156863 0.65098 0.129412
0.2 0.65098 0.137255
0.25098 0.65098 0.152941
0.290196 0.647059 0.14902
0.333333 0.654902 0.160784
0.380392 0.654902 0.168627
0.423529 0.658824 0.172549
0.466667 0.658824 0.168627
0.52549 0.658824 0.176471
0.564706 0.658824 0.180392
0.619608 0.654902 0.188235
0.662745 0.658824 0.196078
0.713725 0.647059 0.192157
0.756863 0.643137 0.180392
0.807843 0.643137 0.168627
0.839216 0.639216 0.160784
0.113725 0.713725 0.12549
0.152941 0.713725 0.12549
0.203922 0.713725 0.133333
0.247059 0.709804 0.137255
0.290196 0.713725 0.145098
0.337255 0.721569 0.152941
0.372549 0.713725 0.152941
0.423529 0.717647 0.160784
0.47451 0.721569 0.168627
0.513725 0.721569 0.164706
0.572549 0.72549 0.172549
0.611765 0.72549 0.176471
0.670588 0.72549 0.188235
0.717647 0.72549 0.192157
0.760784 0.721569 0.196078
0.811765 0.709804 0.176471
0.847059 0.701961 0.164706
0.121569 0.776471 0.12549
0.160784 0.776471 0.121569
0.203922 0.772549 0.12549
0.247059 0.776471 0.129412
0.286275 0.776471 0.133333
0.341176 0.780392 0.145098
0.384314 0.784314 0.14902
0.419608 0.780392 0.14902
0.466667 0.780392 0.156863
0.521569 0.788235 0.156863
0.572549 0.792157 0.160784
0.623529 0.8 0.168627
0.666667 0.788235 0.176471
0.713725 0.792157 0.176471
0.768627 0.788235 0.180392
0.815686 0.788235 0.196078
0.847059 0.788235 0.172549
0.113725 0.843137 0.109804
0.156863 0.839216 0.109804
0.2 0.847059 0.109804
0.247059 0.843137 0.12549
0.294118 0.839216 0.129412
0.337255 0.843137 0.133333
0.380392 0.85098 0.133333
0.427451 0.858824 0.133333
0.478431 0.862745 0.137255
0.513725 0.858824 0.145098
0.568627 0.866667 0.145098
0.615686 0.866667 0.145098
0.670588 0.870588 0.152941
0.717647 0.870588 0.168627
0.760784 0.870588 0.164706
0.819608 0.870588 0.172549
0.854902 0.87451 0.176471
0.113725 0.909804 0.101961
0.152941 0.921569 0.105882
0.2 0.921569 0.105882
0.243137 0.917647 0.109804
0.298039 0.921569 0.121569
0.341176 0.92549 0.117647
0.376471 0.921569 0.12549
0.431373 0.929412 0.133333
0.47451 0.937255 0.129412
0.52549 0.937255 0.129412
0.576471 0.941176 0.137255
0.615686 0.94902 0.137255
0.666667 0.94902 0.14902
0.721569 0.952941 0.145098
0.768627 0.952941 0.152941
0.831373 0.960784 0.156863
0.858824 0.952941 0.156863
0.113725 0.976471 0.0901961
0.152941 0.980392 0.0941176
0.2 0.984314 0.0941176
0.243137 0.980392 0.0980392
0.286275 0.984314 0.109804
0.337255 0.988235 0.101961
0.380392 0.992157 0.109804
0.427451 0.992157 0.12549
0.478431 0.996078 0.12549
0.52549 0.996078 0.133333
0.568627 0.996078 0.133333
0.615686 0.996078 0.145098
0.662745 0.996078 0.152941
0.709804 0.996078 0.160784
0.764706 0.996078 0.172549
0.803922 0.996078 0.168627
0.847059 0.996078 0.172549
0.211765 0.117647 0.321569
0.25098 0.117647 0.317647
0.290196 0.117647 0.32549
0.32549 0.101961 0.309804
0.352941 0.0784314 0.290196
0.396078 0.054902 0.270588
0.427451 0.0313725 0.25098
0.470588 0.0117647 0.219608
0.505882 0.00392157 0.203922
0.552941 0 0.203922
0.596078 0 0.184314
0.631373 0 0.164706
0.67451 0 0.164706
0.721569 0 0.14902
0.760784 0 0.137255
0.8 0 0.129412
0.839216 0 0.121569
0.219608 0.180392 0.317647
0.243137 0.176471 0.317647
0.290196 0.172549 0.321569
0.313725 0.14902 0.298039
0.356863 0.137255 0.290196
0.392157 0.109804 0.266667
0.431373 0.0901961 0.254902
0.466667 0.0666667 0.223529
0.498039 0.0470588 0.2
0.54902 0.0431373 0.192157
0.592157 0.0431373 0.188235
0.631373 0.0392157 0.168627
0.678431 0.0392157 0.160784
0.717647 0.0313725 0.145098
0.752941 0.0313725 0.133333
0.807843 0.0313725 0.129412
0.827451 0.0313725 0.121569
0.211765 0.239216 0.313725
0.25098 0.239216 0.313725
0.286275 0.235294 0.313725
0.317647 0.219608 0.301961
0.34902 0.192157 0.286275
0.388235 0.168627 0.266667
0.419608 0.152941 0.243137
0.458824 0.129412 0.219608
0.498039 0.105882 0.2
0.541176 0.113725 0.196078
0.584314 0.101961 0.180392
0.631373 0.101961 0.168627
0.666667 0.0980392 0.164706
0.705882 0.0941176 0.145098
0.752941 0.0862745 0.137255
0.792157 0.0862745 0.129412
0.823529 0.0823529 0.121569
0.2 0.27451 0.301961
0.235294 0.278431 0.301961
0.27451 0.27451 0.305882
0.309804 0.270588 0.301961
0.345098 0.254902 0.278431
0.380392 0.243137 0.258824
0.415686 0.223529 0.239216
0.454902 0.2 0.215686
0.486275 0.176471 0.2
0.533333 0.180392 0.188235
0.580392 0.176471 0.180392
0.623529 0.180392 0.164706
0.654902 0.168627 0.160784
0.705882 0.168627 0.145098
0.741176 0.164706 0.133333
0.784314 0.160784 0.137255
0.823529 0.156863 0.117647
0.188235 0.313725 0.294118
0.227451 0.317647 0.294118
0.266667 0.317647 0.290196
0.305882 0.317647 0.290196
0.341176 0.305882 0.270588
0.376471 0.298039 0.254902
0.411765 0.278431 0.243137
0.447059 0.258824 0.219608
0.490196 0.247059 0.196078
0.529412 0.239216 0.188235
0.580392 0.243137 0.184314
0.615686 0.235294 0.168627
0.666667 0.231373 0.156863
0.698039 0.231373 0.145098
0.741176 0.223529 0.141176
0.780392 0.223529 0.129412
0.815686 0.223529 0.129412
0.172549 0.34902 0.270588
0.211765 0.34902 0.270588
0.247059 0.356863 0.270588
0.286275 0.356863 0.270588
0.329412 0.345098 0.278431
0.376471 0.345098 0.270588
0.407843 0.32549 0.25098
0.45098 0.313725 0.227451
0.482353 0.301961 0.207843
0.521569 0.294118 0.2
0.564706 0.301961 0.196078
0.615686 0.290196 0.172549
0.65098 0.294118 0.172549
0.698039 0.286275 0.160784
0.733333 0.286275 0.145098
0.780392 0.282353 0.145098
0.815686 0.282353 0.141176
0.152941 0.388235 0.254902
0.192157 0.388235 0.25098
0.231373 0.396078 0.254902
0.27451 0.392157 0.258824
0.309804 0.384314 0.258824
0.360784 0.388235 0.258824
0.403922 0.384314 0.258824
0.447059 0.372549 0.243137
0.470588 0.352941 0.211765
0.52549 0.345098 0.211765
0.564706 0.34902 0.196078
0.611765 0.345098 0.192157
0.65098 0.34902 0.184314
0.694118 0.345098 0.172549
0.737255 0.333333 0.164706
0.780392 0.341176 0.160784
0.807843 0.333333 0.14902
0.137255 0.427451 0.235294
0.180392 0.431373 0.227451
0.223529 0.435294 0.231373
0.262745 0.435294 0.235294
0.301961 0.427451 0.235294
0.352941 0.431373 0.239216
0.4 0.431373 0.247059
0.443137 0.427451 0.243137
0.482353 0.411765 0.231373
0.52549 0.403922 0.223529
0.568627 0.403922 0.207843
0.611765 0.403922 0.2
0.65098 0.411765 0.2
0.686275 0.4 0.192157
0.733333 0.392157 0.180392
0.780392 0.392157 0.168627
0.803922 0.392157 0.168627
0.12549 0.47451 0.215686
0.164706 0.47451 0.215686
0.203922 0.47451 0.211765
0.247059 0.478431 0.219608
0.290196 0.470588 0.215686
0.337255 0.47451 0.215686
0.384314 0.482353 0.227451
0.427451 0.466667 0.231373
0.47451 0.47451 0.239216
0.517647 0.470588 0.235294
0.564706 0.462745 0.223529
0.607843 0.458824 0.215686
0.647059 0.458824 0.2
0.694118 0.462745 0.203922
0.737255 0.462745 0.192157
0.776471 0.45098 0.176471
0.811765 0.45098 0.176471
0.121569 0.533333 0.2
0.164706 0.533333 0.203922
0.203922 0.537255 0.203922
0.247059 0.537255 0.203922
0.290196 0.537255 0.219608
0.341176 0.533333 0.215686
0.376471 0.541176 0.219608
0.423529 0.537255 0.223529
0.466667 0.541176 0.231373
0.517647 0.533333 0.231373
0.560784 0.521569 0.239216
0.603922 0.529412 0.231373
0.65098 0.521569 0.219608
0.698039 0.517647 0.211765
0.741176 0.517647 0.207843
0.792157 0.513725 0.192157
0.823529 0.513725 0.180392
0.117647 0.6 0.184314
0.160784 0.596078 0.192157
0.2 0.596078 0.196078
0.25098 0.596078 0.196078
0.294118 0.6 0.203922
0.333333 0.6 0.211765
0.372549 0.592157 0.211765
0.415686 0.596078 0.211765
0.466667 0.6 0.219608
0.521569 0.603922 0.231373
0.564706 0.6 0.235294
0.607843 0.592157 0.243137
0.654902 0.588235 0.235294
0.705882 0.584314 0.227451
0.756863 0.592157 0.207843
0.792157 0.580392 0.203922
0.827451 0.572549 0.192157
0.117647 0.658824 0.192157
0.164706 0.654902 0.184314
0.207843 0.658824 0.184314
0.247059 0.65098 0.188235
0.294118 0.658824 0.2
0.341176 0.654902 0.203922
0.380392 0.654902 0.207843
0.427451 0.662745 0.215686
0.470588 0.662745 0.211765
0.517647 0.662745 0.219608
0.572549 0.666667 0.227451
0.623529 0.658824 0.231373
0.666667 0.654902 0.243137
0.705882 0.65098 0.239216
0.760784 0.65098 0.223529
0.807843 0.643137 0.211765
0.835294 0.643137 0.2
0.117647 0.713725 0.176471
0.160784 0.717647 0.176471
0.2 0.717647 0.176471
0.247059 0.721569 0.184314
0.286275 0.717647 0.188235
0.337255 0.713725 0.192157
0.376471 0.717647 0.196078
0.419608 0.721569 0.211765
0.478431 0.72549 0.211765
0.517647 0.72549 0.207843
0.572549 0.729412 0.211765
0.615686 0.733333 0.223529
0.662745 0.729412 0.227451
0.717647 0.72549 0.227451
0.760784 0.717647 0.231373
0.807843 0.713725 0.219608
0.843137 0.709804 0.207843
0.117647 0.784314 0.164706
0.160784 0.788235 0.168627
0.2 0.780392 0.168627
0.243137 0.784314 0.172549
0.294118 0.776471 0.176471
0.337255 0.780392 0.192157
0.384314 0.788235 0.188235
0.423529 0.788235 0.196078
0.47451 0.788235 0.203922
0.521569 0.788235 0.203922
0.564706 0.803922 0.203922
0.615686 0.796078 0.203922
0.666667 0.796078 0.211765
0.717647 0.796078 0.211765
0.768627 0.8 0.223529
0.819608 0.792157 0.235294
0.854902 0.792157 0.227451
0.113725 0.847059 0.160784
0.164706 0.839216 0.156863
0.203922 0.847059 0.160784
0.25098 0.847059 0.168627
0.290196 0.839216 0.168627
0.341176 0.85098 0.180392
0.384314 0.85098 0.184314
0.431373 0.854902 0.184314
0.478431 0.854902 0.180392
0.517647 0.862745 0.188235
0.564706 0.862745 0.192157
0.619608 0.870588 0.196078
0.678431 0.87451 0.196078
0.717647 0.870588 0.2
0.764706 0.87451 0.207843
0.815686 0.878431 0.219608
0.847059 0.870588 0.223529
0.117647 0.917647 0.152941
0.156863 0.917647 0.152941
0.203922 0.917647 0.14902
0.247059 0.921569 0.152941
0.294118 0.917647 0.168627
0.352941 0.921569 0.172549
0.384314 0.921569 0.168627
0.431373 0.929412 0.180392
0.47451 0.92549 0.176471
0.529412 0.933333 0.184314
0.576471 0.933333 0.184314
0.619608 0.945098 0.184314
0.662745 0.94902 0.184314
0.713725 0.94902 0.188235
0.768627 0.952941 0.2
0.823529 0.952941 0.203922
0.862745 0.952941 0.215686
0.113725 0.972549 0.145098
0.156863 0.980392 0.141176
0.203922 0.980392 0.137255
0.247059 0.980392 0.141176
0.294118 0.984314 0.156863
0.341176 0.980392 0.156863
0.384314 0.984314 0.156863
0.431373 0.992157 0.164706
0.47451 0.988235 0.176471
0.521569 0.996078 0.172549
0.576471 0.996078 0.184314
0.623529 0.996078 0.188235
0.662745 0.996078 0.192157
0.713725 0.996078 0.2
0.768627 0.996078 0.203922
0.811765 0.996078 0.219608
0.847059 0.996078 0.219608
0.196078 0.101961 0.345098
0.247059 0.0941176 0.341176
0.286275 0.0941176 0.34902
0.317647 0.0980392 0.345098
0.352941 0.0823529 0.329412
0.392157 0.0588235 0.321569
0.427451 0.0313725 0.298039
0.47451 0.0156863 0.282353
0.509804 0.00392157 0.254902
0.54902 0 0.247059
0.588235 0.00392157 0.231373
0.639216 0 0.223529
0.67451 0.00392157 0.211765
0.717647 0.00392157 0.203922
0.756863 0 0.184314
0.807843 0 0.188235
0.831373 0 0.172549
0.196078 0.160784 0.337255
0.235294 0.160784 0.337255
0.282353 0.156863 0.341176
0.309804 0.156863 0.341176
0.352941 0.141176 0.337255
0.392157 0.117647 0.313725
0.423529 0.0980392 0.301961
0.462745 0.0784314 0.278431
0.494118 0.054902 0.25098
0.541176 0.0588235 0.243137
0.592157 0.0431373 0.235294
0.627451 0.0509804 0.227451
0.666667 0.0431373 0.203922
0.713725 0.0431373 0.207843
0.74902 0.0352941 0.192157
0.8 0.0392157 0.176471
