assets/luts/vintage/Wash.cube
#Generated by Picture Instruments - Unlimited Filters
TITLE "filter mobile test 4"
LUT_3D_SIZE 9
0.239216 0.156863 0.278431
0.305882 0.109804 0.247059
0.364706 0.0627451 0.196078
0.435294 0.027451 0.156863
0.505882 0 0.117647
0.596078 0 0.0980392
0.678431 0 0.0784314
0.764706 0 0.0627451
0.835294 0 0.0392157
0.215686 0.235294 0.247059
0.286275 0.223529 0.235294
0.360784 0.184314 0.196078
0.427451 0.145098 0.14902
0.505882 0.101961 0.113725
0.584314 0.0901961 0.0941176
0.666667 0.0862745 0.0784314
0.760784 0.0823529 0.054902
0.827451 0.0745098 0.0392157
0.184314 0.298039 0.211765
0.262745 0.294118 0.211765
0.34902 0.290196 0.2
0.415686 0.258824 0.160784
0.490196 0.227451 0.12549
0.576471 0.219608 0.105882
0.658824 0.215686 0.0823529
0.74902 0.211765 0.0705882
0.819608 0.203922 0.0588235
0.14902 0.372549 0.164706
0.227451 0.372549 0.172549
0.32549 0.372549 0.184314
0.407843 0.356863 0.180392
0.486275 0.329412 0.137255
0.568627 0.321569 0.121569
0.654902 0.313725 0.105882
0.741176 0.313725 0.0901961
0.811765 0.305882 0.0823529
0.117647 0.462745 0.12549
0.2 0.466667 0.133333
0.290196 0.458824 0.137255
0.380392 0.466667 0.141176
0.478431 0.447059 0.160784
0.560784 0.447059 0.141176
0.65098 0.443137 0.129412
0.729412 0.435294 0.109804
0.815686 0.431373 0.0980392
0.113725 0.580392 0.109804
0.196078 0.576471 0.121569
0.290196 0.584314 0.121569
0.380392 0.588235 0.141176
0.470588 0.588235 0.141176
0.568627 0.584314 0.152941
0.658824 0.576471 0.14902
0.74902 0.568627 0.129412
0.831373 0.560784 0.113725
0.117647 0.705882 0.0901961
0.203922 0.709804 0.109804
0.290196 0.705882 0.117647
0.380392 0.709804 0.121569
0.470588 0.717647 0.12549
0.568627 0.72549 0.141176
0.670588 0.717647 0.152941
0.764706 0.705882 0.152941
0.847059 0.709804 0.129412
0.113725 0.847059 0.0823529
0.2 0.843137 0.0862745
0.286275 0.847059 0.101961
0.384314 0.85098 0.105882
0.478431 0.858824 0.109804
0.572549 0.866667 0.117647
0.670588 0.870588 0.121569
0.772549 0.878431 0.129412
0.866667 0.870588 0.141176
0.113725 0.976471 0.0627451
0.196078 0.980392 0.0705882
0.294118 0.984314 0.0823529
0.380392 0.992157 0.0862745
0.478431 0.992157 0.101961
0.572549 0.996078 0.109804
0.662745 0.996078 0.121569
0.756863 0.996078 0.129412
0.85098 0.996078 0.133333
0.211765 0.117647 0.321569
0.290196 0.117647 0.32549
0.352941 0.0784314 0.290196
0.427451 0.0313725 0.25098
0.505882 0.00392157 0.203922
0.596078 0 0.184314
0.67451 0 0.164706
0.760784 0 0.137255
0.839216 0 0.121569
0.211765 0.239216 0.313725
0.286275 0.235294 0.313725
0.34902 0.192157 0.286275
0.419608 0.152941 0.243137
0.498039 0.105882 0.2
0.584314 0.101961 0.180392
0.666667 0.0980392 0.164706
0.752941 0.0862745 0.137255
0.823529 0.0823529 0.121569
0.188235 0.313725 0.294118
0.266667 0.317647 0.290196
0.341176 0.305882 0.270588
0.411765 0.278431 0.243137
0.490196 0.247059 0.196078
0.580392 0.243137 0.184314
0.666667 0.231373 0.156863
0.741176 0.223529 0.141176
0.815686 0.223529 0.129412
0.152941 0.388235 0.254902
0.231373 0.396078 0.254902
0.309804 0.384314 0.258824
0.403922 0.384314 0.258824
0.470588 0.352941 0.211765
0.564706 0.34902 0.196078
0.65098 0.34902 0.184314
0.737255 0.333333 0.164706
0.807843 0.333333 0.14902
0.12549 0.47451 0.215686
0.203922 0.47451 0.211765
0.290196 0.470588 0.215686
0.384314 0.482353 0.227451
0.47451 0.47451 0.239216
0.564706 0.462745 0.223529
0.647059 0.458824 0.2
0.737255 0.462745 0.192157
0.811765 0.45098 0.176471
0.117647 0.6 0.184314
0.2 0.596078 0.196078
0.294118 0.6 0.203922
0.372549 0.592157 0.211765
0.466667 0.6 0.219608
0.564706 0.6 0.235294
0.654902 0.588235 0.235294
0.756863 0.592157 0.207843
0.827451 0.572549 0.192157
0.117647 0.713725 0.176471
0.2 0.717647 0.176471
0.286275 0.717647 0.188235
0.376471 0.717647 0.196078
0.478431 0.72549 0.211765
0.572549 0.729412 0.211765
0.662745 0.729412 0.227451
0.760784 0.717647 0.231373
0.843137 0.709804 0.207843
0.113725 0.847059 0.160784
0.203922 0.847059 0.160784
0.290196 0.839216 0.168627
0.384314 0.85098 0.184314
0.478431 0.854902 0.180392
0.564706 0.862745 0.192157
0.678431 0.87451 0.196078
0.764706 0.87451 0.207843
0.847059 0.870588 0.223529
0.113725 0.972549 0.145098
0.203922 0.980392 0.137255
0.294118 0.984314 0.156863
0.384314 0.984314 0.156863
0.47451 0.988235 0.176471
0.576471 0.996078 0.184314
0.662745 0.996078 0.192157
0.768627 0.996078 0.203922
0.847059 0.996078 0.219608
0.188235 0.0784314 0.372549
0.270588 0.0823529 0.372549
0.356863 0.0784314 0.376471
0.431373 0.0352941 0.34902
0.505882 0 0.313725
0.592157 0.00392157 0.286275
0.682353 0 0.270588
0.756863 0.00392157 0.239216
0.835294 0.00392157 0.235294
0.192157 0.203922 0.372549
0.266667 0.2 0.364706
0.337255 0.196078 0.368627
0.415686 0.168627 0.337255
0.494118 0.117647 0.305882
0.580392 0.113725 0.270588
0.662745 0.113725 0.258824
0.752941 0.101961 0.25098
0.815686 0.0941176 0.219608
0.188235 0.313725 0.364706
0.262745 0.317647 0.360784
0.337255 0.32549 0.368627
0.407843 0.290196 0.337255
0.478431 0.25098 0.305882
0.560784 0.243137 0.270588
0.654902 0.243137 0.262745
0.729412 0.235294 0.247059
0.811765 0.227451 0.231373
0.152941 0.396078 0.337255
0.239216 0.407843 0.341176
0.321569 0.403922 0.337255
0.396078 0.4 0.337255
0.47451 0.376471 0.298039
0.560784 0.372549 0.286275
0.65098 0.368627 0.270588
0.733333 0.364706 0.254902
0.8 0.356863 0.235294
0.12549 0.490196 0.305882
0.207843 0.490196 0.309804
0.294118 0.498039 0.305882
0.376471 0.490196 0.309804
0.470588 0.490196 0.329412
0.556863 0.486275 0.305882
0.647059 0.482353 0.294118
0.733333 0.47451 0.270588
0.815686 0.466667 0.262745
0.121569 0.603922 0.286275
0.207843 0.603922 0.290196
0.298039 0.607843 0.290196
0.380392 0.6 0.305882
0.470588 0.615686 0.309804
0.564706 0.603922 0.317647
0.654902 0.6 0.313725
0.756863 0.592157 0.294118
0.831373 0.588235 0.278431
0.121569 0.721569 0.266667
0.203922 0.721569 0.282353
0.294118 0.72549 0.282353
0.384314 0.729412 0.290196
0.466667 0.72549 0.294118
0.568627 0.733333 0.301961
0.662745 0.733333 0.309804
0.760784 0.72549 0.321569
0.847059 0.721569 0.298039
0.12549 0.847059 0.258824
0.207843 0.854902 0.258824
0.294118 0.854902 0.266667
0.392157 0.854902 0.27451
0.482353 0.858824 0.27451
0.568627 0.866667 0.278431
0.662745 0.866667 0.290196
0.764706 0.87451 0.298039
0.858824 0.87451 0.309804
0.121569 0.984314 0.239216
0.203922 0.988235 0.247059
0.298039 0.988235 0.247059
0.388235 0.988235 0.258824
0.47451 0.992157 0.262745
0.576471 0.996078 0.278431
0.662745 0.996078 0.286275
0.760784 0.996078 0.294118
0.85098 0.996078 0.301961
0.164706 0.0392157 0.427451
0.247059 0.0431373 0.435294
0.337255 0.0352941 0.443137
0.423529 0.0392157 0.443137
0.505882 0 0.403922
0.588235 0 0.388235
0.67451 0.00392157 0.372549
0.756863 0 0.34902
0.823529 0.00784314 0.333333
0.164706 0.168627 0.419608
0.243137 0.168627 0.419608
0.32549 0.164706 0.431373
0.407843 0.164706 0.419608
0.486275 0.129412 0.4
0.576471 0.117647 0.384314
0.662745 0.109804 0.368627
0.74902 0.105882 0.345098
0.815686 0.101961 0.321569
0.160784 0.290196 0.419608
0.235294 0.294118 0.415686
0.321569 0.294118 0.415686
0.4 0.294118 0.423529
0.478431 0.266667 0.392157
0.560784 0.25098 0.372549
0.643137 0.25098 0.352941
0.729412 0.243137 0.345098
0.803922 0.235294 0.32549
0.156863 0.407843 0.415686
0.239216 0.411765 0.415686
0.321569 0.415686 0.415686
0.4 0.415686 0.411765
0.470588 0.384314 0.392157
0.556863 0.380392 0.368627
0.639216 0.384314 0.360784
0.72549 0.380392 0.341176
0.8 0.368627 0.32549
0.133333 0.494118 0.396078
0.215686 0.501961 0.388235
0.301961 0.498039 0.4
0.388235 0.505882 0.396078
0.466667 0.498039 0.403922
0.556863 0.501961 0.388235
0.647059 0.494118 0.372549
0.741176 0.494118 0.364706
0.811765 0.486275 0.345098
0.12549 0.611765 0.376471
0.207843 0.615686 0.376471
0.301961 0.623529 0.380392
0.388235 0.623529 0.388235
0.466667 0.615686 0.384314
0.564706 0.615686 0.396078
0.658824 0.615686 0.396078
0.74902 0.607843 0.380392
0.831373 0.6 0.364706
0.133333 0.721569 0.368627
0.215686 0.729412 0.364706
0.301961 0.729412 0.372549
0.384314 0.733333 0.372549
0.478431 0.729412 0.388235
0.568627 0.741176 0.392157
0.662745 0.741176 0.392157
0.756863 0.733333 0.396078
0.843137 0.72549 0.372549
0.129412 0.854902 0.352941
0.207843 0.854902 0.352941
0.301961 0.862745 0.360784
0.384314 0.858824 0.360784
0.478431 0.866667 0.372549
0.564706 0.862745 0.376471
0.670588 0.87451 0.376471
0.760784 0.882353 0.384314
0.85098 0.87451 0.396078
0.12549 0.984314 0.345098
0.207843 0.984314 0.345098
0.298039 0.988235 0.341176
0.384314 0.988235 0.341176
0.478431 0.988235 0.352941
0.572549 0.996078 0.360784
0.662745 0.996078 0.376471
0.760784 0.996078 0.384314
0.85098 0.996078 0.384314
0.145098 0.0117647 0.494118
0.231373 0 0.501961
0.313725 0 0.498039
0.411765 0 0.505882
0.498039 0.00392157 0.498039
0.592157 0.00392157 0.486275
0.678431 0.00392157 0.466667
0.756863 0.00784314 0.45098
0.831373 0.00784314 0.431373
0.145098 0.133333 0.482353
0.227451 0.137255 0.490196
0.301961 0.133333 0.486275
0.396078 0.133333 0.498039
0.486275 0.137255 0.490196
0.576471 0.129412 0.470588
0.658824 0.12549 0.458824
0.737255 0.121569 0.439216
0.819608 0.109804 0.423529
0.137255 0.258824 0.482353
0.223529 0.258824 0.47451
0.301961 0.266667 0.482353
0.384314 0.266667 0.478431
0.478431 0.270588 0.482353
0.564706 0.262745 0.47451
0.647059 0.254902 0.45098
0.733333 0.25098 0.435294
0.796078 0.239216 0.419608
0.141176 0.384314 0.482353
0.215686 0.392157 0.47451
0.301961 0.388235 0.470588
0.388235 0.4 0.47451
0.466667 0.396078 0.482353
0.556863 0.396078 0.466667
0.639216 0.388235 0.454902
0.72549 0.388235 0.431373
0.803922 0.376471 0.427451
0.137255 0.509804 0.478431
0.215686 0.513725 0.47451
0.298039 0.517647 0.47451
0.388235 0.517647 0.47451
0.470588 0.521569 0.482353
0.560784 0.521569 0.47451
0.643137 0.513725 0.454902
0.733333 0.513725 0.447059
0.815686 0.501961 0.427451
0.141176 0.619608 0.458824
0.219608 0.619608 0.462745
0.305882 0.627451 0.470588
0.388235 0.623529 0.47451
0.47451 0.635294 0.478431
0.564706 0.619608 0.478431
0.658824 0.627451 0.47451
0.752941 0.623529 0.462745
0.831373 0.607843 0.45098
0.137255 0.733333 0.447059
0.219608 0.733333 0.458824
0.301961 0.741176 0.458824
0.388235 0.741176 0.466667
0.482353 0.745098 0.466667
0.572549 0.741176 0.462745
0.658824 0.741176 0.478431
0.756863 0.737255 0.486275
0.847059 0.733333 0.470588
0.133333 0.862745 0.443137
0.223529 0.862745 0.45098
0.309804 0.862745 0.454902
0.392157 0.866667 0.45098
0.486275 0.866667 0.454902
0.568627 0.862745 0.466667
0.666667 0.87451 0.466667
0.764706 0.87451 0.470588
0.847059 0.870588 0.470588
0.129412 0.980392 0.431373
0.211765 0.988235 0.435294
0.301961 0.984314 0.443137
0.396078 0.992157 0.439216
0.486275 0.992157 0.439216
0.576471 0.992157 0.454902
0.666667 0.996078 0.458824
0.756863 0.992157 0.466667
0.85098 0.996078 0.47451
0.141176 0.0117647 0.572549
0.219608 0.00392157 0.572549
0.309804 0 0.572549
0.407843 0 0.584314
0.498039 0.00392157 0.576471
0.584314 0.00392157 0.576471
0.670588 0.00784314 0.560784
0.756863 0.0117647 0.537255
0.831373 0.0117647 0.533333
0.145098 0.137255 0.556863
0.223529 0.137255 0.560784
0.301961 0.129412 0.564706
0.396078 0.137255 0.560784
0.482353 0.129412 0.572549
0.568627 0.141176 0.560784
0.65098 0.129412 0.54902
0.741176 0.12549 0.537255
0.819608 0.121569 0.521569
0.137255 0.262745 0.564706
0.223529 0.262745 0.545098
0.305882 0.266667 0.552941
0.384314 0.266667 0.556863
0.470588 0.266667 0.556863
0.560784 0.270588 0.564706
0.643137 0.262745 0.541176
0.729412 0.262745 0.529412
0.803922 0.254902 0.521569
0.141176 0.388235 0.54902
0.215686 0.392157 0.552941
0.301961 0.392157 0.552941
0.384314 0.4 0.54902
0.462745 0.4 0.552941
0.552941 0.392157 0.54902
0.643137 0.392157 0.537255
0.729412 0.388235 0.52549
0.807843 0.376471 0.517647
0.141176 0.509804 0.54902
0.223529 0.513725 0.54902
0.298039 0.521569 0.556863
0.384314 0.521569 0.545098
0.470588 0.529412 0.556863
0.54902 0.521569 0.552941
0.647059 0.517647 0.545098
0.733333 0.509804 0.533333
0.815686 0.501961 0.529412
0.137255 0.631373 0.545098
0.215686 0.631373 0.545098
0.305882 0.635294 0.545098
0.392157 0.635294 0.552941
0.486275 0.639216 0.556863
0.588235 0.662745 0.584314
0.670588 0.662745 0.580392
0.752941 0.647059 0.564706
0.831373 0.647059 0.556863
0.145098 0.737255 0.537255
0.227451 0.741176 0.545098
0.309804 0.741176 0.54902
0.4 0.745098 0.54902
0.482353 0.741176 0.552941
0.592157 0.764706 0.572549
0.67451 0.768627 0.580392
0.760784 0.768627 0.584314
0.843137 0.760784 0.568627
0.141176 0.858824 0.545098
0.219608 0.862745 0.52549
0.305882 0.862745 0.541176
0.388235 0.866667 0.541176
0.482353 0.866667 0.541176
0.596078 0.882353 0.572549
0.670588 0.878431 0.572549
0.756863 0.878431 0.572549
0.847059 0.886275 0.572549
0.137255 0.980392 0.529412
0.215686 0.988235 0.52549
0.305882 0.988235 0.533333
0.396078 0.992157 0.537255
0.482353 0.992157 0.541176
0.6 0.988235 0.564706
0.686275 0.992157 0.568627
0.764706 0.996078 0.572549
0.85098 0.996078 0.572549
0.145098 0.00784314 0.643137
0.215686 0.0117647 0.65098
0.309804 0.00784314 0.65098
0.4 0.00392157 0.654902
0.490196 0 0.65098
0.580392 0.0117647 0.658824
0.670588 0.00784314 0.647059
0.752941 0.0156863 0.627451
0.831373 0.0156863 0.619608
0.141176 0.137255 0.635294
0.219608 0.137255 0.635294
0.301961 0.145098 0.635294
0.392157 0.137255 0.631373
0.47451 0.133333 0.643137
0.564706 0.145098 0.65098
0.65098 0.145098 0.639216
0.741176 0.133333 0.631373
0.815686 0.133333 0.607843
0.145098 0.266667 0.631373
0.227451 0.262745 0.627451
0.305882 0.262745 0.623529
0.384314 0.270588 0.623529
0.466667 0.266667 0.627451
0.552941 0.266667 0.627451
0.643137 0.270588 0.623529
0.729412 0.266667 0.611765
0.803922 0.262745 0.607843
0.137255 0.392157 0.619608
0.215686 0.392157 0.623529
0.305882 0.392157 0.615686
0.388235 0.396078 0.619608
0.470588 0.403922 0.619608
0.552941 0.396078 0.631373
0.635294 0.403922 0.631373
0.729412 0.396078 0.619608
0.807843 0.392157 0.611765
0.141176 0.513725 0.623529
0.223529 0.513725 0.619608
0.301961 0.521569 0.619608
0.396078 0.521569 0.619608
0.470588 0.52549 0.627451
0.560784 0.52549 0.631373
0.647059 0.517647 0.631373
0.737255 0.517647 0.623529
0.815686 0.505882 0.611765
0.145098 0.635294 0.619608
0.227451 0.639216 0.619608
0.309804 0.643137 0.631373
0.4 0.643137 0.639216
0.478431 0.643137 0.635294
0.592157 0.670588 0.662745
0.666667 0.666667 0.658824
0.745098 0.670588 0.654902
0.827451 0.654902 0.643137
0.145098 0.745098 0.623529
0.223529 0.745098 0.623529
0.317647 0.74902 0.635294
0.4 0.74902 0.631373
0.490196 0.74902 0.639216
0.592157 0.768627 0.654902
0.686275 0.784314 0.666667
0.772549 0.784314 0.678431
0.843137 0.784314 0.666667
0.145098 0.858824 0.619608
0.227451 0.866667 0.619608
0.317647 0.866667 0.627451
0.4 0.866667 0.639216
0.494118 0.870588 0.631373
0.603922 0.87451 0.658824
0.698039 0.894118 0.662745
0.772549 0.886275 0.658824
0.85098 0.894118 0.666667
0.145098 0.988235 0.623529
0.215686 0.988235 0.615686
0.313725 0.992157 0.623529
0.392157 0.992157 0.619608
0.486275 0.992157 0.631373
0.603922 0.984314 0.647059
0.701961 0.992157 0.662745
0.780392 0.996078 0.666667
0.843137 0.992157 0.662745
0.145098 0.00784314 0.721569
0.219608 0.00784314 0.721569
0.313725 0.00784314 0.721569
0.4 0.00784314 0.729412
0.482353 0.00784314 0.72549
0.580392 0.00784314 0.733333
0.658824 0.00784314 0.729412
0.756863 0.0156863 0.713725
0.823529 0.0156863 0.713725
0.145098 0.137255 0.709804
0.215686 0.141176 0.705882
0.298039 0.145098 0.705882
0.384314 0.141176 0.709804
0.470588 0.141176 0.717647
0.560784 0.137255 0.717647
0.647059 0.145098 0.713725
0.737255 0.141176 0.709804
0.815686 0.141176 0.698039
0.137255 0.262745 0.698039
0.219608 0.266667 0.705882
0.301961 0.270588 0.698039
0.384314 0.278431 0.698039
0.462745 0.270588 0.698039
0.552941 0.270588 0.701961
0.639216 0.278431 0.713725
0.72549 0.270588 0.698039
0.803922 0.266667 0.694118
0.141176 0.388235 0.698039
0.223529 0.392157 0.698039
0.305882 0.396078 0.694118
0.392157 0.4 0.694118
0.466667 0.403922 0.698039
0.545098 0.403922 0.694118
0.639216 0.4 0.705882
0.729412 0.4 0.701961
0.807843 0.392157 0.705882
0.141176 0.513725 0.701961
0.215686 0.517647 0.690196
0.309804 0.521569 0.694118
0.388235 0.521569 0.698039
0.47451 0.52549 0.698039
0.556863 0.52549 0.709804
0.643137 0.517647 0.709804
0.741176 0.521569 0.713725
0.819608 0.513725 0.713725
0.14902 0.631373 0.694118
0.223529 0.639216 0.694118
0.313725 0.639216 0.701961
0.396078 0.643137 0.709804
0.482353 0.647059 0.709804
0.592157 0.670588 0.713725
0.67451 0.670588 0.72549
0.752941 0.662745 0.72549
0.827451 0.658824 0.717647
0.156863 0.752941 0.701961
0.235294 0.752941 0.709804
0.317647 0.756863 0.709804
0.4 0.760784 0.717647
0.486275 0.760784 0.721569
0.6 0.768627 0.729412
0.698039 0.792157 0.737255
0.760784 0.784314 0.737255
0.839216 0.788235 0.733333
0.145098 0.870588 0.705882
0.235294 0.87451 0.705882
0.317647 0.878431 0.709804
0.407843 0.87451 0.717647
0.498039 0.878431 0.717647
0.6 0.882353 0.72549
0.694118 0.890196 0.741176
0.784314 0.901961 0.752941
0.847059 0.898039 0.745098
0.145098 0.988235 0.701961
0.223529 0.988235 0.701961
0.313725 0.992157 0.709804
0.403922 0.996078 0.713725
0.494118 0.992157 0.713725
0.6 0.988235 0.729412
0.698039 0.992157 0.733333
0.780392 0.996078 0.745098
0.85098 0.992157 0.745098
0.141176 0.0117647 0.792157
0.219608 0.0117647 0.784314
0.309804 0.00784314 0.796078
0.396078 0.0117647 0.796078
0.482353 0.00784314 0.8
0.576471 0.00392157 0.796078
0.658824 0.00784314 0.796078
0.745098 0.0117647 0.796078
0.823529 0.0156863 0.784314
0.141176 0.137255 0.784314
0.219608 0.137255 0.780392
0.305882 0.14902 0.776471
0.384314 0.141176 0.768627
0.470588 0.141176 0.780392
0.556863 0.141176 0.788235
0.643137 0.145098 0.788235
0.72549 0.14902 0.780392
0.807843 0.145098 0.784314
0.145098 0.262745 0.776471
0.219608 0.262745 0.772549
0.301961 0.270588 0.764706
0.388235 0.27451 0.764706
0.462745 0.270588 0.764706
0.552941 0.27451 0.772549
0.635294 0.270588 0.776471
0.72549 0.270588 0.776471
0.8 0.27451 0.772549
0.137255 0.388235 0.768627
0.215686 0.388235 0.768627
0.301961 0.396078 0.760784
0.380392 0.4 0.756863
0.462745 0.4 0.756863
0.545098 0.403922 0.764706
0.627451 0.403922 0.768627
0.729412 0.4 0.780392
0.807843 0.392157 0.780392
0.141176 0.509804 0.756863
0.219608 0.517647 0.760784
0.309804 0.521569 0.760784
0.392157 0.521569 0.760784
0.47451 0.521569 0.760784
0.556863 0.521569 0.776471
0.643137 0.517647 0.780392
0.729412 0.521569 0.784314
0.819608 0.517647 0.784314
0.141176 0.627451 0.760784
0.223529 0.639216 0.764706
0.309804 0.635294 0.768627
0.4 0.643137 0.780392
0.47451 0.643137 0.776471
0.592157 0.670588 0.792157
0.666667 0.670588 0.788235
0.74902 0.662745 0.8
0.831373 0.658824 0.796078
0.14902 0.74902 0.768627
0.231373 0.74902 0.776471
0.313725 0.756863 0.776471
0.403922 0.756863 0.784314
0.490196 0.756863 0.788235
0.6 0.776471 0.796078
0.694118 0.792157 0.803922
0.768627 0.792157 0.803922
0.831373 0.788235 0.8
0.156863 0.870588 0.776471
0.239216 0.870588 0.788235
0.32549 0.87451 0.788235
0.407843 0.87451 0.792157
0.494118 0.87451 0.792157
0.603922 0.878431 0.8
0.701961 0.894118 0.803922
0.788235 0.901961 0.807843
0.843137 0.898039 0.8
0.14902 0.988235 0.784314
0.227451 0.988235 0.780392
0.317647 0.992157 0.788235
0.411765 0.992157 0.792157
0.494118 0.988235 0.8
0.603922 0.992157 0.8
0.701961 0.988235 0.803922
0.784314 0.992157 0.803922
0.843137 0.988235 0.803922
