assets/luts/cinematic/Bleach Bypass.cube
#Generated by Picture Instruments - Unlimited Filters
TITLE "Bleach Bypass"
LUT_3D_SIZE 9
0 0 0
0.0196078 0.00392157 0
0.0862745 0.0156863 0.0156863
0.184314 0.0313725 0.0352941
0.317647 0.0666667 0.0666667
0.47451 0.0980392 0.101961
0.654902 0.152941 0.156863
0.752941 0.180392 0.184314
0.823529 0.203922 0.207843
0 0.0196078 0.00392157
0.0196078 0.0235294 0.00392157
0.0784314 0.0352941 0.0196078
0.184314 0.054902 0.0352941
0.317647 0.0862745 0.0705882
0.478431 0.121569 0.109804
0.65098 0.168627 0.14902
0.756863 0.2 0.184314
0.823529 0.223529 0.203922
0.0156863 0.0823529 0.0117647
0.0352941 0.0862745 0.0196078
0.0901961 0.0941176 0.0313725
0.180392 0.105882 0.0470588
0.321569 0.133333 0.0784314
0.478431 0.180392 0.117647
0.654902 0.223529 0.156863
0.764706 0.254902 0.192157
0.827451 0.27451 0.207843
0.0392157 0.180392 0.0392157
0.054902 0.180392 0.0352941
0.109804 0.188235 0.0431373
0.2 0.2 0.0588235
0.337255 0.223529 0.0901961
0.494118 0.266667 0.121569
0.670588 0.305882 0.176471
0.764706 0.337255 0.207843
0.831373 0.360784 0.223529
0.0705882 0.313725 0.0666667
0.0862745 0.313725 0.0745098
0.141176 0.321569 0.0784314
0.223529 0.337255 0.0862745
0.345098 0.345098 0.101961
0.501961 0.376471 0.137255
0.67451 0.423529 0.184314
0.772549 0.45098 0.215686
0.843137 0.466667 0.231373
0.101961 0.47451 0.105882
0.121569 0.478431 0.105882
0.180392 0.482353 0.113725
0.262745 0.494118 0.12549
0.384314 0.505882 0.137255
0.521569 0.517647 0.156863
0.690196 0.556863 0.203922
0.784314 0.584314 0.235294
0.854902 0.596078 0.254902
0.156863 0.65098 0.156863
0.164706 0.647059 0.156863
0.223529 0.658824 0.156863
0.305882 0.658824 0.172549
0.427451 0.670588 0.188235
0.560784 0.686275 0.203922
0.698039 0.698039 0.227451
0.803922 0.721569 0.262745
0.866667 0.737255 0.282353
0.184314 0.756863 0.188235
0.2 0.756863 0.184314
0.258824 0.764706 0.196078
0.337255 0.764706 0.203922
0.45098 0.776471 0.211765
0.580392 0.788235 0.239216
0.717647 0.8 0.254902
0.807843 0.811765 0.278431
0.87451 0.819608 0.298039
0.203922 0.823529 0.207843
0.219608 0.823529 0.203922
0.27451 0.827451 0.211765
0.356863 0.831373 0.223529
0.470588 0.843137 0.239216
0.6 0.854902 0.258824
0.737255 0.866667 0.282353
0.823529 0.878431 0.294118
0.882353 0.878431 0.298039
0.00392157 0 0.0196078
0.0313725 0.0117647 0.027451
0.0862745 0.0235294 0.0352941
0.180392 0.0392157 0.054902
0.313725 0.0705882 0.0823529
0.478431 0.105882 0.121569
0.647059 0.152941 0.168627
0.756863 0.188235 0.207843
0.831373 0.207843 0.223529
0.00392157 0.0196078 0.0235294
0.027451 0.027451 0.027451
0.0901961 0.0352941 0.0352941
0.188235 0.054902 0.0509804
0.321569 0.0862745 0.0862745
0.482353 0.129412 0.129412
0.658824 0.172549 0.172549
0.764706 0.207843 0.203922
0.827451 0.223529 0.223529
0.0196078 0.0823529 0.0392157
0.0392157 0.0862745 0.0392157
0.0941176 0.0941176 0.0470588
0.192157 0.117647 0.0627451
0.32549 0.145098 0.0941176
0.494118 0.184314 0.133333
0.666667 0.227451 0.180392
0.768627 0.258824 0.207843
0.835294 0.278431 0.231373
0.0431373 0.180392 0.054902
0.0666667 0.188235 0.0627451
0.117647 0.192157 0.0666667
0.203922 0.2 0.0784314
0.333333 0.227451 0.109804
0.501961 0.262745 0.14902
0.662745 0.305882 0.192157
0.768627 0.341176 0.219608
0.835294 0.360784 0.239216
0.0666667 0.317647 0.0823529
0.0862745 0.321569 0.0862745
0.14902 0.32549 0.101961
0.231373 0.341176 0.109804
0.34902 0.345098 0.121569
0.509804 0.384314 0.160784
0.678431 0.423529 0.203922
0.784314 0.45098 0.235294
0.843137 0.470588 0.258824
0.109804 0.482353 0.121569
0.129412 0.47451 0.133333
0.184314 0.494118 0.133333
0.262745 0.498039 0.145098
0.380392 0.509804 0.152941
0.521569 0.521569 0.184314
0.686275 0.560784 0.219608
0.788235 0.592157 0.258824
0.858824 0.603922 0.27451
0.156863 0.65098 0.168627
0.172549 0.654902 0.168627
0.227451 0.658824 0.184314
0.313725 0.662745 0.192157
0.423529 0.67451 0.203922
0.560784 0.694118 0.223529
0.705882 0.701961 0.247059
0.803922 0.72549 0.27451
0.866667 0.741176 0.298039
0.184314 0.752941 0.2
0.203922 0.756863 0.203922
0.262745 0.760784 0.207843
0.345098 0.772549 0.219608
0.454902 0.776471 0.239216
0.588235 0.784314 0.254902
0.72549 0.803922 0.278431
0.811765 0.811765 0.286275
0.878431 0.823529 0.309804
0.203922 0.819608 0.219608
0.223529 0.823529 0.223529
0.278431 0.831373 0.227451
0.364706 0.839216 0.239216
0.47451 0.843137 0.254902
0.603922 0.854902 0.27451
0.741176 0.866667 0.294118
0.823529 0.878431 0.309804
0.886275 0.886275 0.317647
0.0156863 0.0117647 0.0745098
0.0313725 0.0156863 0.0745098
0.0980392 0.0313725 0.0941176
0.188235 0.054902 0.117647
0.337255 0.0862745 0.14902
0.490196 0.121569 0.192157
0.666667 0.168627 0.235294
0.768627 0.2 0.258824
0.835294 0.219608 0.286275
0.0117647 0.027451 0.0705882
0.0352941 0.0313725 0.0862745
0.0980392 0.0509804 0.0980392
0.2 0.0666667 0.121569
0.32549 0.0980392 0.145098
0.498039 0.137255 0.188235
0.662745 0.184314 0.235294
0.768627 0.219608 0.262745
0.831373 0.235294 0.282353
0.0313725 0.0941176 0.0941176
0.0470588 0.0941176 0.0941176
0.105882 0.105882 0.105882
0.207843 0.129412 0.133333
0.337255 0.156863 0.156863
0.498039 0.192157 0.192157
0.670588 0.239216 0.235294
0.768627 0.266667 0.262745
0.839216 0.290196 0.286275
0.0509804 0.184314 0.117647
0.0666667 0.188235 0.117647
0.129412 0.203922 0.129412
0.211765 0.207843 0.137255
0.34902 0.243137 0.168627
0.509804 0.278431 0.207843
0.678431 0.321569 0.247059
0.784314 0.356863 0.278431
0.843137 0.376471 0.298039
0.0784314 0.321569 0.137255
0.0980392 0.321569 0.145098
0.156863 0.345098 0.156863
0.243137 0.345098 0.160784
0.364706 0.360784 0.188235
0.517647 0.396078 0.215686
0.686275 0.435294 0.262745
0.784314 0.466667 0.298039
0.858824 0.482353 0.317647
0.113725 0.482353 0.176471
0.129412 0.486275 0.176471
0.192157 0.501961 0.192157
0.278431 0.505882 0.203922
0.4 0.521569 0.223529
0.533333 0.533333 0.243137
0.701961 0.568627 0.278431
0.8 0.596078 0.301961
0.862745 0.619608 0.333333
0.156863 0.65098 0.219608
0.184314 0.662745 0.227451
0.239216 0.666667 0.239216
0.32549 0.67451 0.243137
0.439216 0.686275 0.266667
0.572549 0.701961 0.282353
0.709804 0.713725 0.305882
0.807843 0.733333 0.333333
0.878431 0.745098 0.352941
0.192157 0.760784 0.254902
0.211765 0.764706 0.254902
0.262745 0.768627 0.270588
0.34902 0.776471 0.278431
0.470588 0.784314 0.294118
0.6 0.796078 0.313725
0.733333 0.811765 0.337255
0.823529 0.823529 0.352941
0.890196 0.831373 0.372549
0.211765 0.827451 0.27451
0.231373 0.831373 0.278431
0.298039 0.839216 0.294118
0.380392 0.843137 0.301961
0.486275 0.854902 0.313725
0.615686 0.866667 0.333333
0.74902 0.878431 0.356863
0.835294 0.886275 0.368627
0.886275 0.886275 0.376471
0.0196078 0.0196078 0.160784
0.0431373 0.027451 0.172549
0.109804 0.0470588 0.188235
0.211765 0.0784314 0.215686
0.352941 0.101961 0.239216
0.513725 0.145098 0.286275
0.67451 0.188235 0.321569
0.784314 0.219608 0.356863
0.843137 0.239216 0.380392
0.0196078 0.0392157 0.164706
0.0392157 0.0392157 0.172549
0.117647 0.0627451 0.192157
0.211765 0.0901961 0.211765
0.352941 0.121569 0.247059
0.513725 0.156863 0.286275
0.678431 0.203922 0.32549
0.784314 0.239216 0.360784
0.843137 0.254902 0.368627
0.0352941 0.101961 0.180392
0.054902 0.105882 0.180392
0.121569 0.113725 0.196078
0.223529 0.14902 0.227451
0.356863 0.180392 0.258824
0.513725 0.211765 0.290196
0.682353 0.258824 0.321569
0.784314 0.294118 0.364706
0.85098 0.313725 0.384314
0.0588235 0.192157 0.196078
0.0784314 0.203922 0.2
0.137255 0.207843 0.207843
0.235294 0.235294 0.235294
0.364706 0.262745 0.266667
0.52549 0.298039 0.294118
0.690196 0.341176 0.34902
0.792157 0.368627 0.368627
0.854902 0.392157 0.392157
0.0901961 0.32549 0.227451
0.105882 0.337255 0.227451
0.172549 0.345098 0.247059
0.266667 0.368627 0.262745
0.380392 0.372549 0.27451
0.541176 0.415686 0.317647
0.701961 0.458824 0.360784
0.803922 0.482353 0.388235
0.870588 0.501961 0.403922
0.121569 0.494118 0.266667
0.145098 0.498039 0.258824
0.2 0.505882 0.278431
0.298039 0.52549 0.298039
0.415686 0.529412 0.301961
0.556863 0.552941 0.333333
0.709804 0.588235 0.372549
0.807843 0.611765 0.403922
0.87451 0.627451 0.419608
0.164706 0.662745 0.305882
0.192157 0.662745 0.313725
0.247059 0.67451 0.32549
0.341176 0.690196 0.337255
0.45098 0.694118 0.356863
0.588235 0.717647 0.368627
0.72549 0.721569 0.396078
0.823529 0.752941 0.431373
0.886275 0.756863 0.439216
0.203922 0.764706 0.341176
0.219608 0.768627 0.341176
0.282353 0.784314 0.356863
0.368627 0.788235 0.372549
0.482353 0.8 0.388235
0.607843 0.807843 0.403922
0.741176 0.823529 0.419608
0.831373 0.831373 0.439216
0.898039 0.843137 0.462745
0.223529 0.831373 0.360784
0.239216 0.835294 0.360784
0.301961 0.843137 0.376471
0.388235 0.854902 0.392157
0.501961 0.866667 0.407843
0.627451 0.87451 0.427451
0.760784 0.890196 0.439216
0.843137 0.898039 0.462745
0.905882 0.901961 0.470588
0.0313725 0.0313725 0.282353
0.0588235 0.0392157 0.298039
0.12549 0.0627451 0.309804
0.227451 0.0941176 0.333333
0.384314 0.133333 0.372549
0.529412 0.172549 0.411765
0.705882 0.219608 0.462745
0.796078 0.25098 0.482353
0.866667 0.270588 0.501961
0.0352941 0.054902 0.282353
0.054902 0.054902 0.290196
0.133333 0.0784314 0.317647
0.239216 0.105882 0.341176
0.380392 0.152941 0.384314
0.533333 0.188235 0.415686
0.694118 0.235294 0.45098
0.8 0.262745 0.482353
0.866667 0.282353 0.501961
0.0509804 0.117647 0.298039
0.0705882 0.117647 0.305882
0.129412 0.133333 0.313725
0.239216 0.164706 0.345098
0.384314 0.203922 0.384314
0.541176 0.247059 0.415686
0.705882 0.286275 0.466667
0.8 0.317647 0.490196
0.866667 0.337255 0.505882
0.0705882 0.207843 0.317647
0.0980392 0.219608 0.329412
0.14902 0.227451 0.333333
0.247059 0.254902 0.352941
0.388235 0.286275 0.392157
0.552941 0.32549 0.423529
0.705882 0.368627 0.466667
0.807843 0.4 0.490196
0.878431 0.415686 0.517647
0.105882 0.345098 0.34902
0.117647 0.345098 0.34902
0.188235 0.360784 0.364706
0.278431 0.380392 0.376471
0.407843 0.407843 0.407843
0.560784 0.443137 0.443137
0.721569 0.478431 0.482353
0.815686 0.509804 0.509804
0.878431 0.52549 0.52549
0.137255 0.501961 0.380392
0.156863 0.505882 0.388235
0.223529 0.517647 0.396078
0.313725 0.533333 0.419608
0.447059 0.560784 0.443137
0.572549 0.572549 0.462745
0.733333 0.611765 0.501961
0.827451 0.635294 0.517647
0.890196 0.65098 0.545098
0.184314 0.670588 0.423529
0.203922 0.67451 0.423529
0.258824 0.686275 0.431373
0.360784 0.698039 0.45098
0.486275 0.721569 0.486275
0.611765 0.729412 0.494118
0.745098 0.741176 0.517647
0.839216 0.764706 0.545098
0.905882 0.776471 0.564706
0.215686 0.776471 0.454902
0.235294 0.780392 0.454902
0.290196 0.784314 0.466667
0.388235 0.796078 0.486275
0.505882 0.815686 0.505882
0.639216 0.831373 0.521569
0.772549 0.843137 0.545098
0.847059 0.847059 0.556863
0.913725 0.858824 0.572549
0.235294 0.843137 0.47451
0.254902 0.839216 0.470588
0.309804 0.85098 0.478431
0.403922 0.866667 0.498039
0.529412 0.882353 0.529412
0.654902 0.890196 0.545098
0.776471 0.905882 0.556863
0.858824 0.913725 0.572549
0.917647 0.913725 0.584314
0.0509804 0.0509804 0.435294
0.0784314 0.0627451 0.435294
0.145098 0.0784314 0.447059
0.247059 0.109804 0.478431
0.4 0.14902 0.517647
0.564706 0.211765 0.564706
0.721569 0.258824 0.603922
0.819608 0.286275 0.619608
0.890196 0.309804 0.647059
0.054902 0.0666667 0.431373
0.0823529 0.0784314 0.443137
0.14902 0.0980392 0.458824
0.258824 0.129412 0.486275
0.4 0.168627 0.521569
0.568627 0.223529 0.560784
0.721569 0.266667 0.6
0.823529 0.298039 0.631373
0.882353 0.321569 0.635294
0.0705882 0.129412 0.447059
0.0862745 0.137255 0.447059
0.152941 0.14902 0.462745
0.258824 0.184314 0.494118
0.403922 0.223529 0.517647
0.568627 0.278431 0.572549
0.72549 0.321569 0.607843
0.827451 0.356863 0.635294
0.886275 0.372549 0.647059
0.0941176 0.227451 0.466667
0.109804 0.235294 0.466667
0.168627 0.243137 0.47451
0.262745 0.262745 0.498039
0.415686 0.305882 0.537255
0.580392 0.352941 0.580392
0.733333 0.403922 0.607843
0.827451 0.435294 0.639216
0.894118 0.447059 0.65098
0.113725 0.360784 0.490196
0.133333 0.364706 0.490196
0.203922 0.388235 0.505882
0.290196 0.396078 0.513725
0.427451 0.431373 0.54902
0.584314 0.470588 0.588235
0.745098 0.513725 0.623529
0.835294 0.545098 0.65098
0.901961 0.552941 0.662745
0.160784 0.517647 0.521569
0.176471 0.521569 0.52549
0.243137 0.533333 0.529412
0.333333 0.552941 0.556863
0.458824 0.568627 0.572549
0.603922 0.603922 0.603922
0.756863 0.639216 0.639216
0.847059 0.658824 0.658824
0.913725 0.670588 0.67451
0.203922 0.690196 0.556863
0.219608 0.686275 0.560784
0.282353 0.694118 0.572549
0.372549 0.713725 0.588235
0.498039 0.729412 0.611765
0.643137 0.756863 0.639216
0.768627 0.764706 0.654902
0.858824 0.792157 0.682353
0.921569 0.8 0.690196
0.231373 0.784314 0.580392
0.25098 0.788235 0.584314
0.313725 0.792157 0.592157
0.4 0.807843 0.615686
0.521569 0.827451 0.639216
0.662745 0.85098 0.662745
0.788235 0.854902 0.678431
0.87451 0.870588 0.690196
0.933333 0.882353 0.705882
0.254902 0.854902 0.603922
0.27451 0.858824 0.607843
0.333333 0.858824 0.611765
0.419608 0.87451 0.627451
0.545098 0.890196 0.654902
0.67451 0.913725 0.678431
0.796078 0.92549 0.690196
0.886275 0.937255 0.705882
0.937255 0.937255 0.709804
0.0784314 0.0784314 0.596078
0.0941176 0.0823529 0.603922
0.164706 0.105882 0.611765
0.27451 0.137255 0.647059
0.411765 0.176471 0.662745
0.580392 0.235294 0.705882
0.74902 0.301961 0.74902
0.847059 0.32549 0.776471
0.909804 0.345098 0.788235
0.0823529 0.0980392 0.592157
0.101961 0.0980392 0.6
0.168627 0.121569 0.623529
0.27451 0.14902 0.639216
0.419608 0.192157 0.666667
0.588235 0.247059 0.705882
0.752941 0.313725 0.752941
0.847059 0.345098 0.780392
0.909804 0.360784 0.780392
0.0980392 0.156863 0.615686
0.113725 0.156863 0.607843
0.172549 0.172549 0.619608
0.278431 0.207843 0.647059
0.427451 0.247059 0.67451
0.584314 0.298039 0.717647
0.760784 0.368627 0.756863
0.847059 0.392157 0.772549
0.917647 0.415686 0.796078
0.113725 0.254902 0.623529
0.129412 0.258824 0.631373
0.192157 0.266667 0.635294
0.286275 0.290196 0.654902
0.435294 0.333333 0.690196
0.596078 0.384314 0.721569
0.764706 0.443137 0.764706
0.854902 0.466667 0.780392
0.917647 0.494118 0.796078
0.14902 0.388235 0.65098
0.164706 0.388235 0.65098
0.223529 0.396078 0.65098
0.317647 0.415686 0.67451
0.443137 0.443137 0.694118
0.611765 0.494118 0.737255
0.772549 0.54902 0.764706
0.862745 0.576471 0.792157
0.92549 0.592157 0.807843
0.176471 0.541176 0.670588
0.196078 0.545098 0.670588
0.254902 0.552941 0.678431
0.352941 0.572549 0.701961
0.478431 0.592157 0.717647
0.623529 0.619608 0.741176
0.784314 0.670588 0.780392
0.87451 0.694118 0.803922
0.937255 0.705882 0.815686
0.223529 0.705882 0.698039
0.247059 0.701961 0.701961
0.301961 0.717647 0.717647
0.396078 0.72549 0.72549
0.513725 0.741176 0.745098
0.654902 0.768627 0.760784
0.796078 0.796078 0.796078
0.894118 0.819608 0.827451
0.94902 0.823529 0.827451
0.258824 0.796078 0.72549
0.270588 0.803922 0.717647
0.341176 0.807843 0.733333
0.427451 0.823529 0.752941
0.552941 0.839216 0.764706
0.682353 0.854902 0.788235
0.827451 0.882353 0.815686
0.898039 0.894118 0.823529
0.956863 0.909804 0.847059
0.282353 0.866667 0.741176
0.298039 0.866667 0.745098
0.356863 0.878431 0.756863
0.439216 0.886275 0.756863
0.564706 0.905882 0.776471
0.690196 0.921569 0.803922
0.831373 0.952941 0.831373
0.905882 0.956863 0.847059
0.964706 0.960784 0.843137
0.0980392 0.0941176 0.698039
0.117647 0.0980392 0.701961
0.180392 0.117647 0.709804
0.282353 0.14902 0.72549
0.435294 0.192157 0.760784
0.596078 0.25098 0.796078
0.756863 0.313725 0.831373
0.866667 0.360784 0.858824
0.92549 0.380392 0.878431
0.0980392 0.113725 0.698039
0.117647 0.117647 0.698039
0.188235 0.141176 0.721569
0.282353 0.164706 0.737255
0.431373 0.207843 0.760784
0.592157 0.262745 0.8
0.760784 0.32549 0.835294
0.862745 0.376471 0.862745
0.92549 0.392157 0.878431
0.105882 0.168627 0.705882
0.129412 0.176471 0.701961
0.188235 0.184314 0.717647
0.298039 0.219608 0.741176
0.439216 0.262745 0.768627
0.6 0.321569 0.8
0.772549 0.384314 0.843137
0.870588 0.423529 0.870588
0.92549 0.439216 0.878431
0.129412 0.266667 0.721569
0.14902 0.27451 0.717647
0.203922 0.282353 0.72549
0.301961 0.301961 0.741176
0.443137 0.341176 0.772549
0.611765 0.396078 0.803922
0.772549 0.458824 0.847059
0.87451 0.501961 0.870588
0.937255 0.517647 0.886275
0.156863 0.4 0.741176
0.184314 0.403922 0.737255
0.239216 0.415686 0.74902
0.329412 0.431373 0.764706
0.454902 0.458824 0.780392
0.619608 0.505882 0.819608
0.784314 0.564706 0.858824
0.882353 0.6 0.886275
0.941176 0.615686 0.890196
0.196078 0.552941 0.768627
0.215686 0.556863 0.764706
0.278431 0.564706 0.772549
0.364706 0.584314 0.784314
0.498039 0.607843 0.803922
0.635294 0.639216 0.827451
0.796078 0.682353 0.870588
0.894118 0.713725 0.894118
0.952941 0.729412 0.901961
0.239216 0.713725 0.788235
0.258824 0.717647 0.796078
0.309804 0.721569 0.803922
0.403922 0.737255 0.815686
0.533333 0.760784 0.839216
0.666667 0.780392 0.85098
0.807843 0.811765 0.882353
0.901961 0.835294 0.905882
0.972549 0.85098 0.921569
0.27451 0.807843 0.807843
0.294118 0.815686 0.811765
0.352941 0.823529 0.819608
0.443137 0.835294 0.835294
0.556863 0.847059 0.85098
0.690196 0.870588 0.870588
0.827451 0.898039 0.898039
0.913725 0.913725 0.913725
0.968627 0.921569 0.921569
0.298039 0.878431 0.823529
0.309804 0.878431 0.823529
0.368627 0.886275 0.835294
0.458824 0.898039 0.843137
0.576471 0.913725 0.862745
0.705882 0.933333 0.886275
0.839216 0.952941 0.905882
0.92549 0.972549 0.92549
0.984314 0.980392 0.933333
0.0980392 0.0980392 0.764706
0.121569 0.109804 0.764706
0.188235 0.121569 0.780392
0.298039 0.160784 0.796078
0.439216 0.2 0.819608
0.603922 0.254902 0.858824
0.768627 0.321569 0.894118
0.866667 0.364706 0.917647
0.937255 0.403922 0.937255
0.105882 0.121569 0.764706
0.129412 0.12549 0.768627
0.192157 0.145098 0.772549
0.298039 0.172549 0.796078
0.439216 0.219608 0.819608
0.603922 0.27451 0.854902
0.768627 0.337255 0.898039
0.870588 0.384314 0.921569
0.937255 0.411765 0.941176
0.117647 0.180392 0.768627
0.137255 0.180392 0.776471
0.203922 0.2 0.780392
0.301961 0.223529 0.796078
0.447059 0.270588 0.827451
0.611765 0.329412 0.854902
0.776471 0.388235 0.894118
0.878431 0.435294 0.929412
0.941176 0.462745 0.941176
0.141176 0.278431 0.788235
0.156863 0.278431 0.784314
0.219608 0.294118 0.796078
0.313725 0.309804 0.807843
0.454902 0.352941 0.835294
0.615686 0.407843 0.870588
0.776471 0.462745 0.898039
0.878431 0.509804 0.929412
0.94902 0.537255 0.94902
0.164706 0.407843 0.803922
0.188235 0.411765 0.803922
0.247059 0.419608 0.807843
0.345098 0.439216 0.823529
0.470588 0.466667 0.843137
0.627451 0.513725 0.87451
0.792157 0.572549 0.913725
0.894118 0.607843 0.937255
0.956863 0.635294 0.956863
0.203922 0.560784 0.823529
0.223529 0.564706 0.827451
0.278431 0.572549 0.835294
0.376471 0.592157 0.843137
0.498039 0.615686 0.866667
0.643137 0.639216 0.882353
0.8 0.690196 0.917647
0.898039 0.717647 0.941176
0.964706 0.737255 0.964706
0.25098 0.717647 0.85098
0.262745 0.717647 0.854902
0.329412 0.729412 0.858824
0.415686 0.741176 0.87451
0.541176 0.760784 0.890196
0.67451 0.784314 0.909804
0.815686 0.815686 0.937255
0.913725 0.839216 0.964706
0.976471 0.854902 0.980392
0.282353 0.815686 0.870588
0.298039 0.815686 0.866667
0.356863 0.823529 0.878431
0.443137 0.831373 0.890196
0.568627 0.854902 0.913725
0.690196 0.87451 0.929412
0.835294 0.898039 0.956863
0.92549 0.921569 0.972549
0.988235 0.933333 0.992157
0.301961 0.878431 0.882353
0.317647 0.878431 0.882353
0.380392 0.886275 0.886275
0.470588 0.901961 0.905882
0.584314 0.913725 0.913725
0.713725 0.937255 0.941176
0.843137 0.964706 0.960784
0.933333 0.980392 0.980392
0.988235 0.988235 0.988235
