assets/luts/cinematic/Bleach Bypass.cube
#Generated by Picture Instruments - Unlimited Filters
TITLE "Bleach Bypass"
LUT_3D_SIZE 5
0 0 0
0.0862745 0.0156863 0.0156863
0.317647 0.0666667 0.0666667
0.654902 0.152941 0.156863
0.823529 0.203922 0.207843
0.0156863 0.0823529 0.0117647
0.0901961 0.0941176 0.0313725
0.321569 0.133333 0.0784314
0.654902 0.223529 0.156863
0.827451 0.27451 0.207843
0.0705882 0.313725 0.0666667
0.141176 0.321569 0.0784314
0.345098 0.345098 0.101961
0.67451 0.423529 0.184314
0.843137 0.466667 0.231373
0.156863 0.65098 0.156863
0.223529 0.658824 0.156863
0.427451 0.670588 0.188235
0.698039 0.698039 0.227451
0.866667 0.737255 0.282353
0.203922 0.823529 0.207843
0.27451 0.827451 0.211765
0.470588 0.843137 0.239216
0.737255 0.866667 0.282353
0.882353 0.878431 0.298039
0.0156863 0.0117647 0.0745098
0.0980392 0.0313725 0.0941176
0.337255 0.0862745 0.14902
0.666667 0.168627 0.235294
0.835294 0.219608 0.286275
0.0313725 0.0941176 0.0941176
0.105882 0.105882 0.105882
0.337255 0.156863 0.156863
0.670588 0.239216 0.235294
0.839216 0.290196 0.286275
0.0784314 0.321569 0.137255
0.156863 0.345098 0.156863
0.364706 0.360784 0.188235
0.686275 0.435294 0.262745
0.858824 0.482353 0.317647
0.156863 0.65098 0.219608
0.239216 0.666667 0.239216
0.439216 0.686275 0.266667
0.709804 0.713725 0.305882
0.878431 0.745098 0.352941
0.211765 0.827451 0.27451
0.298039 0.839216 0.294118
0.486275 0.854902 0.313725
0.74902 0.878431 0.356863
0.886275 0.886275 0.376471
0.0313725 0.0313725 0.282353
0.12549 0.0627451 0.309804
0.384314 0.133333 0.372549
0.705882 0.219608 0.462745
0.866667 0.270588 0.501961
0.0509804 0.117647 0.298039
0.129412 0.133333 0.313725
0.384314 0.203922 0.384314
0.705882 0.286275 0.466667
0.866667 0.337255 0.505882
0.105882 0.345098 0.34902
0.188235 0.360784 0.364706
0.407843 0.407843 0.407843
0.721569 0.478431 0.482353
0.878431 0.52549 0.52549
0.184314 0.670588 0.423529
0.258824 0.686275 0.431373
0.486275 0.721569 0.486275
0.745098 0.741176 0.517647
0.905882 0.776471 0.564706
0.235294 0.843137 0.47451
0.309804 0.85098 0.478431
0.529412 0.882353 0.529412
0.776471 0.905882 0.556863
0.917647 0.913725 0.584314
0.0784314 0.0784314 0.596078
0.164706 0.105882 0.611765
0.411765 0.176471 0.662745
0.74902 0.301961 0.74902
0.909804 0.345098 0.788235
0.0980392 0.156863 0.615686
0.172549 0.172549 0.619608
0.427451 0.247059 0.67451
0.760784 0.368627 0.756863
0.917647 0.415686 0.796078
0.14902 0.388235 0.65098
0.223529 0.396078 0.65098
0.443137 0.443137 0.694118
0.772549 0.54902 0.764706
0.92549 0.592157 0.807843
0.223529 0.705882 0.698039
0.301961 0.717647 0.717647
0.513725 0.741176 0.745098
0.796078 0.796078 0.796078
0.94902 0.823529 0.827451
0.282353 0.866667 0.741176
0.356863 0.878431 0.756863
0.564706 0.905882 0.776471
0.831373 0.952941 0.831373
0.964706 0.960784 0.843137
0.0980392 0.0980392 0.764706
0.188235 0.121569 0.780392
0.439216 0.2 0.819608
0.768627 0.321569 0.894118
0.937255 0.403922 0.937255
0.117647 0.180392 0.768627
0.203922 0.2 0.780392
0.447059 0.270588 0.827451
0.776471 0.388235 0.894118
0.941176 0.462745 0.941176
0.164706 0.407843 0.803922
0.247059 0.419608 0.807843
0.470588 0.466667 0.843137
0.792157 0.572549 0.913725
0.956863 0.635294 0.956863
0.25098 0.717647 0.85098
0.329412 0.729412 0.858824
0.541176 0.760784 0.890196
0.815686 0.815686 0.937255
0.976471 0.854902 0.980392
0.301961 0.878431 0.882353
0.380392 0.886275 0.886275
0.584314 0.913725 0.913725
0.843137 0.964706 0.960784
0.988235 0.988235 0.988235
