assets/luts/cinematic/Bleach Bypass.cube
#Generated by Picture Instruments - Unlimited Filters
TITLE "Bleach Bypass"
LUT_3D_SIZE 17
0 0 0
0.00392157 0 0
0.0196078 0.00392157 0
0.0431373 0.00784314 0.0117647
0.0862745 0.0156863 0.0156863
0.121569 0.027451 0.027451
0.184314 0.0313725 0.0352941
0.247059 0.0509804 0.054902
0.317647 0.0666667 0.0666667
0.392157 0.0862745 0.0862745
0.47451 0.0980392 0.101961
0.568627 0.129412 0.12549
0.654902 0.152941 0.156863
0.717647 0.168627 0.172549
0.752941 0.180392 0.184314
0.796078 0.192157 0.192157
0.823529 0.203922 0.207843
0.00392157 0.00392157 0.00392157
0.00392157 0.00392157 0.00392157
0.0196078 0.00392157 0
0.0470588 0.0156863 0.00784314
0.0823529 0.0196078 0.0196078
0.12549 0.0313725 0.0313725
0.172549 0.0392157 0.0352941
0.243137 0.054902 0.0470588
0.309804 0.0705882 0.0666667
0.392157 0.0862745 0.0862745
0.47451 0.105882 0.105882
0.568627 0.129412 0.12549
0.654902 0.152941 0.156863
0.713725 0.172549 0.164706
0.74902 0.184314 0.184314
0.796078 0.2 0.196078
0.823529 0.203922 0.2
0 0.0196078 0.00392157
0 0.0196078 0.00392157
0.0196078 0.0235294 0.00392157
0.0470588 0.027451 0.0117647
0.0784314 0.0352941 0.0196078
0.129412 0.0470588 0.0352941
0.184314 0.054902 0.0352941
0.243137 0.0666667 0.0470588
0.317647 0.0862745 0.0705882
0.396078 0.101961 0.0823529
0.478431 0.121569 0.109804
0.568627 0.145098 0.133333
0.65098 0.168627 0.14902
0.717647 0.188235 0.172549
0.756863 0.2 0.184314
0.796078 0.211765 0.196078
0.823529 0.223529 0.203922
0.0117647 0.0392157 0.0117647
0.0196078 0.0470588 0.0156863
0.027451 0.0509804 0.0117647
0.0470588 0.0470588 0.0156863
0.0862745 0.0509804 0.0156863
0.133333 0.0666667 0.0352941
0.184314 0.0784314 0.0431373
0.243137 0.0862745 0.054902
0.317647 0.105882 0.0666667
0.396078 0.117647 0.0941176
0.47451 0.145098 0.105882
0.568627 0.164706 0.137255
0.654902 0.188235 0.156863
0.721569 0.207843 0.176471
0.756863 0.219608 0.188235
0.796078 0.239216 0.2
0.823529 0.239216 0.211765
0.0156863 0.0823529 0.0117647
0.0156863 0.0823529 0.0196078
0.0352941 0.0862745 0.0196078
0.054902 0.0901961 0.0235294
0.0901961 0.0941176 0.0313725
0.133333 0.0980392 0.0392157
0.180392 0.105882 0.0470588
0.247059 0.121569 0.0627451
0.321569 0.133333 0.0784314
0.403922 0.156863 0.0901961
0.478431 0.180392 0.117647
0.564706 0.2 0.133333
0.654902 0.223529 0.156863
0.721569 0.239216 0.180392
0.764706 0.254902 0.192157
0.8 0.266667 0.203922
0.827451 0.27451 0.207843
0.027451 0.121569 0.027451
0.0313725 0.117647 0.027451
0.0509804 0.129412 0.0313725
0.0666667 0.129412 0.027451
0.0980392 0.129412 0.0352941
0.145098 0.137255 0.0392157
0.192157 0.145098 0.0509804
0.258824 0.164706 0.0705882
0.321569 0.172549 0.0823529
0.411765 0.192157 0.101961
0.494118 0.211765 0.117647
0.580392 0.235294 0.141176
0.658824 0.258824 0.168627
0.72549 0.278431 0.184314
0.764706 0.294118 0.196078
0.807843 0.305882 0.207843
0.835294 0.305882 0.219608
0.0392157 0.180392 0.0392157
0.0392157 0.180392 0.0392157
0.054902 0.180392 0.0352941
0.0823529 0.184314 0.0392157
0.109804 0.188235 0.0431373
0.14902 0.188235 0.0509804
0.2 0.2 0.0588235
0.258824 0.207843 0.0705882
0.337255 0.223529 0.0901961
0.411765 0.239216 0.101961
0.494118 0.266667 0.121569
0.572549 0.282353 0.145098
0.670588 0.305882 0.176471
0.729412 0.32549 0.188235
0.764706 0.337255 0.207843
0.807843 0.34902 0.211765
0.831373 0.360784 0.223529
0.054902 0.243137 0.054902
0.0588235 0.247059 0.0509804
0.0705882 0.243137 0.0509804
0.0901961 0.247059 0.0509804
0.121569 0.247059 0.0627451
0.164706 0.258824 0.0705882
0.215686 0.262745 0.0745098
0.270588 0.266667 0.0784314
0.337255 0.282353 0.0980392
0.419608 0.298039 0.113725
0.498039 0.313725 0.133333
0.576471 0.337255 0.152941
0.666667 0.360784 0.172549
0.72549 0.380392 0.192157
0.768627 0.392157 0.203922
0.807843 0.407843 0.219608
0.835294 0.411765 0.231373
0.0705882 0.313725 0.0666667
0.0705882 0.313725 0.0666667
0.0862745 0.313725 0.0745098
0.105882 0.321569 0.0666667
0.141176 0.321569 0.0784314
0.172549 0.321569 0.0823529
0.223529 0.337255 0.0862745
0.282353 0.337255 0.0941176
0.345098 0.345098 0.101961
0.415686 0.360784 0.121569
0.501961 0.376471 0.137255
0.592157 0.396078 0.156863
0.67451 0.423529 0.184314
0.733333 0.443137 0.203922
0.772549 0.45098 0.215686
0.811765 0.462745 0.227451
0.843137 0.466667 0.231373
0.0862745 0.396078 0.0862745
0.0862745 0.388235 0.0823529
0.105882 0.396078 0.0862745
0.129412 0.396078 0.0941176
0.156863 0.403922 0.0941176
0.2 0.407843 0.101961
0.243137 0.411765 0.101961
0.294118 0.415686 0.117647
0.368627 0.423529 0.121569
0.431373 0.435294 0.129412
0.513725 0.443137 0.145098
0.596078 0.470588 0.168627
0.678431 0.486275 0.188235
0.74902 0.505882 0.211765
0.784314 0.517647 0.223529
0.819608 0.517647 0.235294
0.847059 0.537255 0.243137
0.101961 0.47451 0.105882
0.105882 0.47451 0.0980392
0.121569 0.478431 0.105882
0.145098 0.478431 0.109804
0.180392 0.482353 0.113725
0.211765 0.482353 0.117647
0.262745 0.494118 0.12549
0.321569 0.498039 0.133333
0.384314 0.505882 0.137255
0.447059 0.513725 0.145098
0.521569 0.517647 0.156863
0.603922 0.545098 0.180392
0.690196 0.556863 0.203922
0.745098 0.572549 0.223529
0.784314 0.584314 0.235294
0.819608 0.596078 0.247059
0.854902 0.596078 0.254902
0.133333 0.564706 0.12549
0.133333 0.564706 0.12549
0.145098 0.560784 0.129412
0.168627 0.568627 0.137255
0.2 0.580392 0.137255
0.235294 0.572549 0.137255
0.286275 0.572549 0.14902
0.341176 0.584314 0.156863
0.407843 0.596078 0.164706
0.462745 0.596078 0.164706
0.533333 0.603922 0.180392
0.615686 0.611765 0.188235
0.690196 0.635294 0.215686
0.756863 0.65098 0.239216
0.792157 0.654902 0.247059
0.827451 0.666667 0.254902
0.858824 0.666667 0.262745
0.156863 0.65098 0.156863
0.156863 0.65098 0.156863
0.164706 0.647059 0.156863
0.188235 0.654902 0.152941
0.223529 0.658824 0.156863
0.262745 0.654902 0.160784
0.305882 0.658824 0.172549
0.364706 0.662745 0.176471
0.427451 0.670588 0.188235
0.498039 0.678431 0.192157
0.560784 0.686275 0.203922
0.631373 0.694118 0.215686
0.698039 0.698039 0.227451
0.760784 0.713725 0.243137
0.803922 0.721569 0.262745
0.839216 0.737255 0.270588
0.866667 0.737255 0.282353
0.172549 0.713725 0.168627
0.172549 0.713725 0.168627
0.184314 0.713725 0.172549
0.215686 0.717647 0.172549
0.243137 0.721569 0.184314
0.282353 0.721569 0.188235
0.32549 0.72549 0.192157
0.384314 0.729412 0.188235
0.443137 0.729412 0.203922
0.505882 0.741176 0.215686
0.576471 0.745098 0.223529
0.647059 0.752941 0.239216
0.721569 0.768627 0.243137
0.768627 0.768627 0.258824
0.811765 0.776471 0.262745
0.843137 0.784314 0.278431
0.870588 0.788235 0.286275
0.184314 0.756863 0.188235
0.188235 0.74902 0.184314
0.2 0.756863 0.184314
0.219608 0.760784 0.192157
0.258824 0.764706 0.196078
0.286275 0.764706 0.196078
0.337255 0.764706 0.203922
0.396078 0.768627 0.211765
0.45098 0.776471 0.211765
0.517647 0.780392 0.227451
0.580392 0.788235 0.239216
0.658824 0.792157 0.247059
0.717647 0.8 0.254902
0.776471 0.807843 0.266667
0.807843 0.811765 0.278431
0.847059 0.815686 0.286275
0.87451 0.819608 0.298039
0.192157 0.792157 0.192157
0.2 0.792157 0.192157
0.211765 0.796078 0.2
0.235294 0.796078 0.2
0.266667 0.796078 0.2
0.301961 0.8 0.207843
0.34902 0.803922 0.211765
0.403922 0.807843 0.215686
0.470588 0.803922 0.227451
0.529412 0.819608 0.243137
0.596078 0.823529 0.247059
0.666667 0.831373 0.258824
0.72549 0.835294 0.266667
0.788235 0.843137 0.27451
0.819608 0.85098 0.282353
0.854902 0.85098 0.294118
0.882353 0.854902 0.298039
0.203922 0.823529 0.207843
0.203922 0.823529 0.207843
0.219608 0.823529 0.203922
0.239216 0.827451 0.203922
0.27451 0.827451 0.211765
0.305882 0.831373 0.215686
0.356863 0.831373 0.223529
0.411765 0.839216 0.231373
0.470588 0.843137 0.239216
0.537255 0.847059 0.243137
0.6 0.854902 0.258824
0.666667 0.862745 0.262745
0.737255 0.866667 0.282353
0.788235 0.878431 0.290196
0.823529 0.878431 0.294118
0.854902 0.878431 0.298039
0.882353 0.878431 0.298039
0 0 0.00784314
0 0 0
0.0196078 0.00392157 0
0.0470588 0.0117647 0.0156863
0.0823529 0.0196078 0.0196078
0.133333 0.0313725 0.0352941
0.188235 0.0352941 0.0392157
0.243137 0.054902 0.054902
0.309804 0.0666667 0.0705882
0.4 0.0862745 0.0901961
0.478431 0.101961 0.105882
0.572549 0.129412 0.137255
0.654902 0.152941 0.156863
0.713725 0.172549 0.172549
0.756863 0.184314 0.188235
0.8 0.203922 0.2
0.823529 0.203922 0.2
0.00392157 0.00392157 0.00392157
0.00392157 0.00392157 0.00392157
0.0196078 0.0117647 0.0156863
0.0470588 0.0117647 0.0156863
0.0823529 0.0196078 0.0196078
0.12549 0.0313725 0.0313725
0.180392 0.0392157 0.0392157
0.243137 0.054902 0.054902
0.321569 0.0705882 0.0705882
0.392157 0.0862745 0.0862745
0.478431 0.101961 0.105882
0.564706 0.133333 0.137255
0.654902 0.152941 0.156863
0.713725 0.172549 0.172549
0.752941 0.188235 0.188235
0.8 0.203922 0.2
0.827451 0.207843 0.211765
0 0.0196078 0.00392157
0.0117647 0.0196078 0.00784314
0.0196078 0.0196078 0.0117647
0.0470588 0.027451 0.0156863
0.0901961 0.0352941 0.0313725
0.129412 0.0470588 0.0352941
0.176471 0.054902 0.0431373
0.243137 0.0666667 0.054902
0.317647 0.0862745 0.0705882
0.396078 0.101961 0.0901961
0.478431 0.121569 0.117647
0.556863 0.145098 0.133333
0.65098 0.164706 0.156863
0.717647 0.188235 0.176471
0.756863 0.2 0.192157
0.792157 0.211765 0.203922
0.823529 0.219608 0.211765
0.00784314 0.0470588 0.0156863
0.0196078 0.0470588 0.0156863
0.027451 0.0470588 0.0196078
0.0470588 0.0470588 0.0156863
0.0901961 0.054902 0.027451
0.133333 0.0666667 0.0352941
0.192157 0.0784314 0.0470588
0.25098 0.0941176 0.0627451
0.317647 0.101961 0.0745098
0.403922 0.129412 0.0980392
0.486275 0.145098 0.117647
0.572549 0.168627 0.141176
0.654902 0.188235 0.156863
0.721569 0.203922 0.184314
0.760784 0.223529 0.192157
0.796078 0.235294 0.203922
0.827451 0.243137 0.215686
0.0156863 0.0823529 0.0196078
0.0156863 0.0823529 0.0196078
0.0352941 0.0823529 0.027451
0.054902 0.0862745 0.027451
0.0901961 0.0941176 0.0313725
0.133333 0.0980392 0.0392157
0.188235 0.113725 0.054902
0.254902 0.129412 0.0705882
0.321569 0.133333 0.0784314
0.403922 0.156863 0.0980392
0.482353 0.180392 0.117647
0.576471 0.2 0.137255
0.654902 0.223529 0.164706
0.721569 0.243137 0.184314
0.764706 0.254902 0.192157
0.8 0.266667 0.211765
0.831373 0.27451 0.219608
0.027451 0.121569 0.0352941
0.0352941 0.129412 0.0352941
0.0509804 0.129412 0.0313725
0.0705882 0.129412 0.0392157
0.101961 0.133333 0.0392157
0.137255 0.133333 0.0509804
0.192157 0.152941 0.054902
0.258824 0.164706 0.0705882
0.32549 0.176471 0.0862745
0.407843 0.196078 0.101961
0.486275 0.207843 0.121569
0.568627 0.239216 0.145098
0.654902 0.262745 0.172549
0.717647 0.278431 0.184314
0.764706 0.294118 0.2
0.8 0.305882 0.215686
0.831373 0.313725 0.223529
0.0392157 0.180392 0.0392157
0.0392157 0.180392 0.0392157
0.0509804 0.184314 0.0470588
0.0823529 0.184314 0.0470588
0.117647 0.184314 0.0509804
0.14902 0.188235 0.054902
0.2 0.2 0.0666667
0.262745 0.211765 0.0784314
0.341176 0.227451 0.0941176
0.411765 0.235294 0.105882
0.498039 0.262745 0.129412
0.580392 0.282353 0.14902
0.670588 0.305882 0.176471
0.72549 0.321569 0.192157
0.768627 0.341176 0.211765
0.807843 0.34902 0.219608
0.839216 0.356863 0.223529
0.0509804 0.247059 0.054902
0.054902 0.243137 0.054902
0.0745098 0.247059 0.054902
0.0941176 0.247059 0.0627451
0.129412 0.254902 0.0627451
0.168627 0.262745 0.0745098
0.207843 0.262745 0.0705882
0.270588 0.266667 0.0862745
0.337255 0.282353 0.0980392
0.423529 0.301961 0.117647
0.498039 0.313725 0.133333
0.584314 0.341176 0.156863
0.666667 0.364706 0.184314
0.729412 0.384314 0.203922
0.772549 0.392157 0.215686
0.807843 0.403922 0.227451
0.839216 0.415686 0.235294
0.0705882 0.309804 0.0745098
0.0705882 0.309804 0.0745098
0.0862745 0.321569 0.0784314
0.105882 0.317647 0.0823529
0.141176 0.321569 0.0784314
0.184314 0.32549 0.0862745
0.227451 0.337255 0.0980392
0.286275 0.341176 0.101961
0.345098 0.345098 0.109804
0.423529 0.360784 0.12549
0.505882 0.380392 0.14902
0.592157 0.403922 0.160784
0.670588 0.415686 0.188235
0.737255 0.439216 0.211765
0.772549 0.45098 0.223529
0.811765 0.462745 0.235294
0.843137 0.466667 0.239216
0.0862745 0.396078 0.0862745
0.0862745 0.396078 0.0862745
0.105882 0.396078 0.0941176
0.12549 0.403922 0.0980392
0.156863 0.411765 0.0980392
0.196078 0.407843 0.101961
0.239216 0.411765 0.101961
0.298039 0.419608 0.121569
0.364706 0.431373 0.117647
0.423529 0.435294 0.133333
0.509804 0.447059 0.145098
0.592157 0.466667 0.172549
0.67451 0.486275 0.196078
0.745098 0.509804 0.223529
0.780392 0.513725 0.227451
0.815686 0.52549 0.239216
0.847059 0.533333 0.247059
0.101961 0.47451 0.105882
0.105882 0.478431 0.109804
0.121569 0.470588 0.101961
0.145098 0.478431 0.113725
0.180392 0.478431 0.121569
0.223529 0.486275 0.121569
0.270588 0.494118 0.12549
0.321569 0.498039 0.133333
0.384314 0.505882 0.141176
0.454902 0.513725 0.156863
0.52549 0.521569 0.160784
0.6 0.541176 0.184314
0.682353 0.560784 0.207843
0.745098 0.572549 0.223529
0.788235 0.588235 0.239216
0.819608 0.596078 0.247059
0.858824 0.6 0.262745
0.133333 0.564706 0.12549
0.137255 0.564706 0.137255
0.14902 0.564706 0.133333
0.168627 0.568627 0.137255
0.203922 0.572549 0.141176
0.239216 0.576471 0.14902
0.282353 0.580392 0.152941
0.341176 0.584314 0.156863
0.403922 0.592157 0.164706
0.470588 0.596078 0.168627
0.541176 0.603922 0.184314
0.615686 0.611765 0.196078
0.690196 0.635294 0.223529
0.760784 0.647059 0.239216
0.8 0.654902 0.247059
0.831373 0.662745 0.254902
0.858824 0.662745 0.27451
0.14902 0.654902 0.156863
0.156863 0.65098 0.156863
0.168627 0.65098 0.160784
0.188235 0.654902 0.160784
0.223529 0.654902 0.164706
0.262745 0.662745 0.164706
0.301961 0.662745 0.172549
0.368627 0.666667 0.180392
0.419608 0.670588 0.188235
0.494118 0.686275 0.196078
0.560784 0.686275 0.203922
0.623529 0.694118 0.215686
0.701961 0.701961 0.231373
0.764706 0.72549 0.25098
0.8 0.72549 0.254902
0.839216 0.733333 0.27451
0.866667 0.737255 0.282353
0.172549 0.713725 0.176471
0.172549 0.713725 0.168627
0.188235 0.717647 0.176471
0.211765 0.713725 0.180392
0.243137 0.721569 0.184314
0.282353 0.721569 0.188235
0.32549 0.72549 0.192157
0.384314 0.72549 0.203922
0.435294 0.733333 0.207843
0.509804 0.745098 0.219608
0.576471 0.745098 0.223529
0.65098 0.756863 0.243137
0.717647 0.760784 0.25098
0.768627 0.768627 0.258824
0.807843 0.780392 0.262745
0.843137 0.784314 0.278431
0.870588 0.788235 0.290196
0.180392 0.752941 0.192157
0.192157 0.752941 0.188235
0.2 0.756863 0.192157
0.219608 0.760784 0.192157
0.254902 0.760784 0.192157
0.298039 0.764706 0.2
0.337255 0.764706 0.203922
0.392157 0.772549 0.215686
0.458824 0.776471 0.223529
0.517647 0.780392 0.227451
0.584314 0.792157 0.243137
0.65098 0.796078 0.247059
0.717647 0.8 0.254902
0.780392 0.807843 0.266667
0.807843 0.807843 0.282353
0.85098 0.819608 0.290196
0.878431 0.823529 0.294118
0.192157 0.792157 0.196078
0.196078 0.796078 0.2
0.211765 0.796078 0.2
0.235294 0.796078 0.207843
0.270588 0.796078 0.211765
0.301961 0.807843 0.211765
0.34902 0.803922 0.219608
0.403922 0.803922 0.223529
0.466667 0.811765 0.239216
0.529412 0.819608 0.243137
0.596078 0.823529 0.247059
0.658824 0.831373 0.254902
0.737255 0.835294 0.27451
0.784314 0.843137 0.282353
0.819608 0.847059 0.290196
0.85098 0.858824 0.298039
0.882353 0.858824 0.305882
0.203922 0.823529 0.207843
0.203922 0.823529 0.207843
0.219608 0.823529 0.211765
0.243137 0.831373 0.215686
0.278431 0.831373 0.219608
0.317647 0.831373 0.219608
0.360784 0.835294 0.227451
0.411765 0.839216 0.231373
0.470588 0.843137 0.239216
0.537255 0.847059 0.247059
0.6 0.854902 0.258824
0.666667 0.858824 0.266667
0.737255 0.866667 0.282353
0.788235 0.878431 0.290196
0.823529 0.878431 0.294118
0.858824 0.878431 0.305882
0.882353 0.878431 0.305882
0.00392157 0 0.0196078
0.00784314 0.00392157 0.0235294
0.0313725 0.0117647 0.027451
0.0470588 0.0117647 0.0313725
0.0862745 0.0235294 0.0352941
0.129412 0.0313725 0.0470588
0.180392 0.0392157 0.054902
0.247059 0.054902 0.0705882
0.313725 0.0705882 0.0823529
0.392157 0.0941176 0.109804
0.478431 0.105882 0.121569
0.560784 0.129412 0.141176
0.647059 0.152941 0.168627
0.717647 0.172549 0.192157
0.756863 0.188235 0.207843
0.8 0.2 0.211765
0.831373 0.207843 0.223529
0 0.00392157 0.0196078
0.00784314 0.00392157 0.0235294
0.0313725 0.0117647 0.027451
0.0509804 0.0156863 0.0352941
0.0862745 0.027451 0.0392157
0.133333 0.0352941 0.0509804
0.188235 0.0470588 0.054902
0.254902 0.0627451 0.0745098
0.317647 0.0823529 0.0901961
0.392157 0.0941176 0.109804
0.486275 0.113725 0.129412
0.572549 0.141176 0.152941
0.65098 0.156863 0.172549
0.713725 0.180392 0.188235
0.756863 0.188235 0.207843
0.796078 0.203922 0.223529
0.819608 0.207843 0.223529
0.00392157 0.0196078 0.0235294
0.0117647 0.0196078 0.0156863
0.027451 0.027451 0.027451
0.0470588 0.0313725 0.027451
0.0901961 0.0352941 0.0352941
0.133333 0.0509804 0.0470588
0.188235 0.054902 0.0509804
0.25098 0.0705882 0.0705882
0.321569 0.0862745 0.0862745
0.403922 0.105882 0.105882
0.482353 0.129412 0.129412
0.572549 0.14902 0.14902
0.658824 0.172549 0.172549
0.717647 0.184314 0.184314
0.764706 0.207843 0.203922
0.8 0.219608 0.219608
0.827451 0.223529 0.223529
0.0117647 0.0470588 0.027451
0.0156863 0.0509804 0.0313725
0.027451 0.0470588 0.0313725
0.0509804 0.054902 0.0352941
0.0980392 0.0627451 0.0431373
0.137255 0.0666667 0.0509804
0.192157 0.0823529 0.0666667
0.247059 0.0941176 0.0745098
0.317647 0.109804 0.0941176
0.403922 0.12549 0.101961
0.482353 0.14902 0.129412
0.572549 0.172549 0.152941
0.654902 0.188235 0.172549
0.72549 0.207843 0.192157
0.756863 0.227451 0.211765
0.796078 0.239216 0.223529
0.827451 0.243137 0.223529
0.0196078 0.0823529 0.0392157
0.0313725 0.0862745 0.0352941
0.0392157 0.0862745 0.0392157
0.0627451 0.0941176 0.0352941
0.0941176 0.0941176 0.0470588
0.137255 0.0980392 0.0588235
0.192157 0.117647 0.0627451
0.262745 0.129412 0.0823529
0.32549 0.145098 0.0941176
0.407843 0.156863 0.117647
0.494118 0.184314 0.133333
0.580392 0.203922 0.156863
0.666667 0.227451 0.180392
0.721569 0.243137 0.2
0.768627 0.258824 0.207843
0.807843 0.27451 0.227451
0.835294 0.278431 0.231373
0.0313725 0.129412 0.0470588
0.0313725 0.121569 0.0431373
0.0470588 0.133333 0.0509804
0.0666667 0.137255 0.0509804
0.101961 0.137255 0.054902
0.14902 0.145098 0.0627451
0.196078 0.152941 0.0745098
0.258824 0.172549 0.0901961
0.333333 0.184314 0.101961
0.407843 0.203922 0.121569
0.498039 0.219608 0.141176
0.576471 0.235294 0.156863
0.658824 0.262745 0.184314
0.72549 0.286275 0.207843
0.768627 0.294118 0.211765
0.803922 0.305882 0.231373
0.831373 0.309804 0.235294
0.0431373 0.180392 0.054902
0.0470588 0.184314 0.054902
0.0666667 0.188235 0.0627451
0.0823529 0.188235 0.0666667
0.117647 0.192157 0.0666667
0.156863 0.192157 0.0705882
0.203922 0.2 0.0784314
0.270588 0.219608 0.0941176
0.333333 0.227451 0.109804
0.415686 0.247059 0.121569
0.501961 0.262745 0.14902
0.580392 0.286275 0.164706
0.662745 0.305882 0.192157
0.729412 0.321569 0.207843
0.768627 0.341176 0.219608
0.811765 0.34902 0.239216
0.835294 0.360784 0.239216
0.0509804 0.243137 0.0666667
0.054902 0.247059 0.0705882
0.0666667 0.247059 0.0666667
0.101961 0.254902 0.0784314
0.129412 0.25098 0.0784314
0.164706 0.254902 0.0823529
0.219608 0.266667 0.0862745
0.278431 0.27451 0.101961
0.345098 0.286275 0.117647
0.427451 0.305882 0.133333
0.505882 0.321569 0.14902
0.592157 0.345098 0.172549
0.67451 0.364706 0.203922
0.741176 0.384314 0.211765
0.772549 0.392157 0.227451
0.811765 0.407843 0.239216
0.843137 0.415686 0.254902
0.0666667 0.317647 0.0823529
0.0666667 0.317647 0.0823529
0.0862745 0.321569 0.0862745
0.105882 0.321569 0.0941176
0.14902 0.32549 0.101961
0.184314 0.333333 0.0941176
0.231373 0.341176 0.109804
0.286275 0.337255 0.117647
0.34902 0.345098 0.121569
0.423529 0.364706 0.141176
0.509804 0.384314 0.160784
0.596078 0.403922 0.176471
0.678431 0.423529 0.203922
0.741176 0.439216 0.219608
0.784314 0.45098 0.235294
0.823529 0.466667 0.25098
0.843137 0.470588 0.258824
0.0901961 0.396078 0.101961
0.0941176 0.392157 0.101961
0.109804 0.396078 0.109804
0.12549 0.403922 0.105882
0.164706 0.407843 0.113725
0.203922 0.407843 0.117647
0.25098 0.415686 0.12549
0.305882 0.423529 0.133333
0.364706 0.427451 0.133333
0.435294 0.435294 0.152941
0.517647 0.45098 0.168627
0.6 0.47451 0.188235
0.682353 0.494118 0.203922
0.745098 0.509804 0.227451
0.780392 0.517647 0.243137
0.823529 0.529412 0.262745
0.854902 0.529412 0.262745
0.109804 0.482353 0.121569
0.113725 0.478431 0.121569
0.129412 0.47451 0.133333
0.14902 0.482353 0.12549
0.184314 0.494118 0.133333
0.219608 0.498039 0.137255
0.262745 0.498039 0.145098
0.321569 0.501961 0.14902
0.380392 0.509804 0.152941
0.454902 0.517647 0.168627
0.521569 0.521569 0.184314
0.603922 0.541176 0.2
0.686275 0.560784 0.219608
0.74902 0.572549 0.239216
0.788235 0.592157 0.258824
0.823529 0.596078 0.266667
0.858824 0.603922 0.27451
0.129412 0.568627 0.145098
0.137255 0.564706 0.145098
0.14902 0.568627 0.152941
0.168627 0.564706 0.14902
0.207843 0.572549 0.152941
0.239216 0.576471 0.156863
0.286275 0.580392 0.168627
0.345098 0.584314 0.176471
0.407843 0.592157 0.184314
0.470588 0.6 0.188235
0.545098 0.603922 0.2
0.627451 0.615686 0.211765
0.694118 0.635294 0.239216
0.756863 0.65098 0.247059
0.792157 0.654902 0.262745
0.839216 0.666667 0.278431
0.862745 0.666667 0.278431
0.156863 0.65098 0.168627
0.156863 0.65098 0.168627
0.172549 0.654902 0.168627
0.192157 0.654902 0.172549
0.227451 0.658824 0.184314
0.262745 0.658824 0.188235
0.313725 0.662745 0.192157
0.364706 0.670588 0.192157
0.423529 0.67451 0.203922
0.494118 0.682353 0.211765
0.560784 0.694118 0.223529
0.635294 0.694118 0.235294
0.705882 0.701961 0.247059
0.764706 0.721569 0.266667
0.803922 0.72549 0.27451
0.839216 0.733333 0.290196
0.866667 0.741176 0.298039
0.176471 0.717647 0.188235
0.184314 0.717647 0.192157
0.188235 0.713725 0.184314
0.211765 0.721569 0.196078
0.243137 0.721569 0.196078
0.282353 0.72549 0.207843
0.333333 0.729412 0.211765
0.380392 0.733333 0.215686
0.443137 0.741176 0.223529
0.509804 0.745098 0.227451
0.576471 0.756863 0.239216
0.643137 0.760784 0.25098
0.717647 0.764706 0.262745
0.772549 0.776471 0.278431
0.811765 0.780392 0.282353
0.847059 0.788235 0.298039
0.87451 0.792157 0.301961
0.184314 0.752941 0.2
0.188235 0.756863 0.203922
0.203922 0.756863 0.203922
0.227451 0.756863 0.211765
0.262745 0.760784 0.207843
0.298039 0.760784 0.211765
0.345098 0.772549 0.219608
0.396078 0.776471 0.231373
0.454902 0.776471 0.239216
0.517647 0.776471 0.243137
0.588235 0.784314 0.254902
0.662745 0.796078 0.262745
0.72549 0.803922 0.278431
0.780392 0.811765 0.282353
0.811765 0.811765 0.286275
0.85098 0.823529 0.301961
0.878431 0.823529 0.309804
0.2 0.8 0.211765
0.2 0.8 0.211765
0.219608 0.792157 0.215686
0.239216 0.796078 0.223529
0.266667 0.8 0.227451
0.317647 0.803922 0.231373
0.345098 0.807843 0.235294
0.407843 0.807843 0.243137
0.466667 0.815686 0.25098
0.537255 0.823529 0.262745
0.596078 0.819608 0.258824
0.666667 0.835294 0.278431
0.733333 0.839216 0.286275
0.792157 0.847059 0.301961
0.819608 0.847059 0.305882
0.847059 0.85098 0.309804
0.886275 0.854902 0.317647
0.203922 0.819608 0.219608
0.207843 0.823529 0.223529
0.223529 0.823529 0.223529
0.25098 0.827451 0.227451
0.278431 0.831373 0.227451
0.313725 0.831373 0.231373
0.364706 0.839216 0.239216
0.415686 0.843137 0.25098
0.47451 0.843137 0.254902
0.537255 0.843137 0.262745
0.603922 0.854902 0.27451
0.67451 0.862745 0.282353
0.741176 0.866667 0.294118
0.792157 0.87451 0.305882
0.823529 0.878431 0.309804
0.854902 0.886275 0.317647
0.886275 0.886275 0.317647
0.00392157 0.00392157 0.0431373
0.0117647 0.00784314 0.0392157
0.0235294 0.0117647 0.0470588
0.0470588 0.0196078 0.0509804
0.0941176 0.027451 0.0666667
0.12549 0.0352941 0.0666667
0.188235 0.0509804 0.0784314
0.258824 0.0627451 0.0980392
0.317647 0.0784314 0.105882
0.407843 0.0941176 0.137255
0.478431 0.113725 0.152941
0.568627 0.133333 0.168627
0.654902 0.156863 0.192157
0.717647 0.180392 0.211765
0.760784 0.188235 0.227451
0.796078 0.2 0.247059
0.823529 0.207843 0.247059
0 0.0117647 0.0392157
0.0117647 0.0117647 0.0431373
0.027451 0.0156863 0.0509804
