assets/luts/cinematic/Blue Kick.cube
#Generated by Picture Instruments - Unlimited Filters
TITLE "filter mobile test2"
LUT_3D_SIZE 17
0.188235 0.137255 0.176471
0.188235 0.137255 0.176471
0.188235 0.137255 0.176471
0.2 0.137255 0.180392
0.207843 0.137255 0.184314
0.235294 0.145098 0.184314
0.266667 0.141176 0.184314
0.309804 0.152941 0.184314
0.360784 0.160784 0.180392
0.423529 0.172549 0.176471
0.494118 0.180392 0.176471
0.580392 0.192157 0.168627
0.678431 0.203922 0.172549
0.776471 0.219608 0.172549
0.890196 0.231373 0.188235
0.984314 0.25098 0.192157
0.996078 0.278431 0.207843
0.188235 0.14902 0.184314
0.188235 0.14902 0.184314
0.188235 0.14902 0.184314
0.192157 0.145098 0.184314
0.2 0.14902 0.184314
0.231373 0.152941 0.188235
0.254902 0.156863 0.180392
0.301961 0.164706 0.188235
0.352941 0.172549 0.180392
0.419608 0.184314 0.184314
0.486275 0.192157 0.172549
0.580392 0.2 0.172549
0.67451 0.215686 0.176471
0.776471 0.227451 0.176471
0.878431 0.243137 0.184314
0.964706 0.25098 0.196078
0.996078 0.290196 0.215686
0.180392 0.172549 0.192157
0.180392 0.172549 0.192157
0.188235 0.168627 0.192157
0.184314 0.176471 0.196078
0.196078 0.172549 0.188235
0.219608 0.176471 0.192157
0.258824 0.184314 0.192157
0.286275 0.184314 0.188235
0.345098 0.188235 0.180392
0.419608 0.203922 0.184314
0.490196 0.215686 0.184314
0.572549 0.227451 0.180392
0.666667 0.235294 0.176471
0.780392 0.247059 0.184314
0.890196 0.266667 0.184314
0.992157 0.278431 0.196078
0.996078 0.309804 0.219608
0.164706 0.196078 0.203922
0.164706 0.196078 0.203922
0.164706 0.196078 0.203922
0.172549 0.192157 0.203922
0.192157 0.2 0.196078
0.211765 0.196078 0.192157
0.243137 0.2 0.192157
0.278431 0.207843 0.192157
0.337255 0.219608 0.188235
0.396078 0.223529 0.180392
0.470588 0.239216 0.184314
0.568627 0.25098 0.184314
0.670588 0.258824 0.176471
0.764706 0.270588 0.184314
0.87451 0.278431 0.188235
0.980392 0.290196 0.2
0.992157 0.321569 0.219608
0.152941 0.231373 0.196078
0.152941 0.227451 0.203922
0.152941 0.227451 0.203922
0.160784 0.227451 0.196078
0.180392 0.223529 0.192157
0.2 0.227451 0.2
0.223529 0.227451 0.196078
0.262745 0.231373 0.188235
0.317647 0.243137 0.188235
0.392157 0.25098 0.188235
0.462745 0.262745 0.188235
0.564706 0.270588 0.180392
0.654902 0.278431 0.180392
0.756863 0.294118 0.184314
0.878431 0.309804 0.188235
0.960784 0.313725 0.196078
0.996078 0.352941 0.215686
0.156863 0.270588 0.192157
0.156863 0.270588 0.192157
0.156863 0.270588 0.192157
0.164706 0.270588 0.203922
0.176471 0.266667 0.196078
0.192157 0.262745 0.2
0.223529 0.266667 0.2
0.254902 0.266667 0.192157
0.301961 0.278431 0.192157
0.380392 0.286275 0.184314
0.458824 0.298039 0.180392
0.533333 0.313725 0.176471
0.639216 0.313725 0.180392
0.756863 0.32549 0.180392
0.87451 0.341176 0.192157
0.976471 0.352941 0.196078
0.996078 0.380392 0.219608
0.168627 0.309804 0.2
0.168627 0.309804 0.2
0.168627 0.309804 0.2
0.168627 0.309804 0.2
0.180392 0.309804 0.203922
0.192157 0.309804 0.207843
0.215686 0.309804 0.207843
0.247059 0.309804 0.203922
0.286275 0.313725 0.192157
0.345098 0.321569 0.180392
0.419608 0.32549 0.184314
0.52549 0.337255 0.180392
0.639216 0.345098 0.180392
0.745098 0.360784 0.176471
0.858824 0.368627 0.180392
0.960784 0.380392 0.192157
0.996078 0.407843 0.211765
0.164706 0.364706 0.203922
0.164706 0.372549 0.207843
0.164706 0.364706 0.203922
0.172549 0.360784 0.203922
0.180392 0.356863 0.203922
0.196078 0.360784 0.211765
0.219608 0.360784 0.211765
0.247059 0.356863 0.207843
0.286275 0.356863 0.2
0.329412 0.356863 0.192157
0.4 0.368627 0.188235
0.501961 0.376471 0.176471
0.611765 0.388235 0.172549
0.717647 0.396078 0.176471
0.85098 0.407843 0.180392
0.952941 0.419608 0.184314
0.996078 0.435294 0.207843
0.168627 0.423529 0.203922
0.168627 0.423529 0.203922
0.164706 0.431373 0.207843
0.172549 0.427451 0.207843
0.188235 0.423529 0.211765
0.196078 0.419608 0.203922
0.227451 0.427451 0.207843
0.247059 0.423529 0.207843
0.282353 0.419608 0.207843
0.32549 0.415686 0.196078
0.384314 0.415686 0.184314
0.486275 0.423529 0.180392
0.588235 0.435294 0.172549
0.705882 0.435294 0.172549
0.835294 0.454902 0.176471
0.945098 0.458824 0.184314
0.996078 0.466667 0.2
0.168627 0.466667 0.211765
0.168627 0.466667 0.211765
0.168627 0.466667 0.211765
0.168627 0.466667 0.211765
0.184314 0.466667 0.207843
0.2 0.470588 0.215686
0.227451 0.470588 0.215686
0.247059 0.466667 0.211765
0.282353 0.462745 0.207843
0.337255 0.466667 0.196078
0.380392 0.466667 0.184314
0.470588 0.470588 0.180392
0.576471 0.470588 0.168627
0.701961 0.478431 0.168627
0.831373 0.490196 0.176471
0.94902 0.498039 0.184314
0.992157 0.509804 0.203922
0.168627 0.545098 0.203922
0.168627 0.545098 0.203922
0.168627 0.545098 0.203922
0.168627 0.541176 0.211765
0.180392 0.541176 0.207843
0.203922 0.537255 0.211765
0.227451 0.537255 0.219608
0.25098 0.537255 0.215686
0.290196 0.537255 0.219608
0.333333 0.537255 0.203922
0.384314 0.533333 0.192157
0.458824 0.533333 0.184314
0.556863 0.529412 0.172549
0.670588 0.533333 0.164706
0.803922 0.545098 0.168627
0.92549 0.556863 0.180392
0.992157 0.552941 0.2
0.180392 0.596078 0.203922
0.180392 0.596078 0.203922
0.180392 0.596078 0.203922
0.180392 0.596078 0.203922
0.192157 0.6 0.211765
0.211765 0.592157 0.211765
0.235294 0.592157 0.215686
0.258824 0.596078 0.215686
0.298039 0.596078 0.211765
0.333333 0.592157 0.207843
0.392157 0.592157 0.196078
0.462745 0.592157 0.180392
0.545098 0.588235 0.176471
0.662745 0.592157 0.160784
0.788235 0.588235 0.160784
0.901961 0.596078 0.168627
0.992157 0.603922 0.188235
0.188235 0.662745 0.207843
0.188235 0.662745 0.207843
0.176471 0.65098 0.207843
0.188235 0.662745 0.211765
0.203922 0.662745 0.211765
0.215686 0.662745 0.215686
0.235294 0.65098 0.215686
0.266667 0.65098 0.215686
0.309804 0.662745 0.215686
0.352941 0.662745 0.203922
0.407843 0.662745 0.192157
0.470588 0.647059 0.180392
0.545098 0.654902 0.172549
0.654902 0.65098 0.156863
0.788235 0.658824 0.152941
0.917647 0.662745 0.160784
0.992157 0.662745 0.184314
0.196078 0.729412 0.211765
0.196078 0.729412 0.211765
0.196078 0.729412 0.211765
0.2 0.72549 0.211765
0.211765 0.72549 0.215686
0.227451 0.72549 0.211765
0.25098 0.72549 0.211765
0.282353 0.72549 0.211765
0.313725 0.713725 0.211765
0.352941 0.729412 0.207843
0.403922 0.72549 0.192157
0.47451 0.717647 0.180392
0.552941 0.713725 0.164706
0.643137 0.717647 0.160784
0.768627 0.709804 0.14902
0.890196 0.713725 0.152941
0.992157 0.717647 0.168627
0.211765 0.8 0.215686
0.207843 0.796078 0.211765
0.207843 0.796078 0.211765
0.215686 0.796078 0.215686
0.223529 0.8 0.211765
0.235294 0.792157 0.211765
0.254902 0.796078 0.215686
0.286275 0.796078 0.215686
0.317647 0.796078 0.219608
0.364706 0.788235 0.207843
0.415686 0.792157 0.2
0.478431 0.788235 0.184314
0.552941 0.788235 0.168627
0.643137 0.784314 0.156863
0.760784 0.788235 0.141176
0.87451 0.776471 0.141176
0.988235 0.776471 0.14902
0.215686 0.862745 0.215686
0.215686 0.862745 0.215686
0.215686 0.862745 0.215686
0.219608 0.870588 0.211765
0.227451 0.866667 0.211765
0.239216 0.862745 0.215686
0.266667 0.866667 0.215686
0.290196 0.858824 0.211765
0.32549 0.862745 0.211765
0.376471 0.870588 0.207843
0.423529 0.866667 0.2
0.482353 0.858824 0.184314
0.556863 0.858824 0.168627
0.654902 0.854902 0.14902
0.756863 0.858824 0.141176
0.890196 0.85098 0.133333
0.992157 0.85098 0.145098
0.219608 0.929412 0.215686
0.219608 0.929412 0.215686
0.219608 0.929412 0.215686
0.227451 0.933333 0.215686
0.235294 0.929412 0.211765
0.25098 0.929412 0.215686
0.266667 0.929412 0.215686
0.290196 0.929412 0.215686
0.333333 0.929412 0.207843
0.376471 0.933333 0.215686
0.423529 0.929412 0.2
0.482353 0.929412 0.184314
0.556863 0.929412 0.168627
0.643137 0.92549 0.156863
0.756863 0.921569 0.137255
0.87451 0.917647 0.12549
0.992157 0.913725 0.12549
0.188235 0.137255 0.176471
0.188235 0.137255 0.176471
0.188235 0.137255 0.176471
0.2 0.137255 0.180392
0.207843 0.137255 0.184314
0.235294 0.145098 0.184314
0.27451 0.152941 0.184314
0.305882 0.14902 0.180392
0.360784 0.160784 0.180392
0.427451 0.168627 0.176471
0.498039 0.180392 0.168627
0.580392 0.192157 0.168627
0.678431 0.203922 0.172549
0.776471 0.219608 0.172549
0.890196 0.231373 0.188235
0.996078 0.25098 0.196078
0.996078 0.278431 0.207843
0.188235 0.14902 0.184314
0.188235 0.14902 0.184314
0.188235 0.14902 0.184314
0.192157 0.145098 0.184314
0.2 0.14902 0.184314
0.231373 0.152941 0.188235
0.262745 0.156863 0.184314
0.301961 0.164706 0.188235
0.352941 0.172549 0.180392
0.419608 0.184314 0.184314
0.486275 0.192157 0.172549
0.580392 0.2 0.172549
0.67451 0.215686 0.176471
0.776471 0.227451 0.176471
0.882353 0.247059 0.188235
0.988235 0.262745 0.192157
0.996078 0.290196 0.215686
0.180392 0.172549 0.192157
0.180392 0.172549 0.192157
0.180392 0.172549 0.192157
0.184314 0.176471 0.196078
0.196078 0.172549 0.188235
0.219608 0.176471 0.192157
0.243137 0.180392 0.184314
0.286275 0.184314 0.188235
0.345098 0.188235 0.180392
0.411765 0.203922 0.180392
0.47451 0.211765 0.180392
0.568627 0.231373 0.180392
0.666667 0.235294 0.176471
0.768627 0.247059 0.180392
0.886275 0.262745 0.188235
0.964706 0.270588 0.192157
0.996078 0.309804 0.219608
0.164706 0.196078 0.203922
0.164706 0.196078 0.203922
0.164706 0.196078 0.203922
0.172549 0.192157 0.203922
0.192157 0.2 0.196078
0.211765 0.196078 0.192157
0.243137 0.2 0.192157
0.282353 0.207843 0.184314
0.337255 0.219608 0.188235
0.407843 0.223529 0.184314
0.478431 0.235294 0.184314
0.568627 0.25098 0.184314
0.666667 0.254902 0.180392
0.764706 0.270588 0.184314
0.882353 0.27451 0.188235
0.984314 0.294118 0.2
0.996078 0.32549 0.215686
0.152941 0.227451 0.203922
0.152941 0.227451 0.203922
0.152941 0.227451 0.203922
0.160784 0.227451 0.196078
0.180392 0.223529 0.192157
0.203922 0.223529 0.2
0.227451 0.227451 0.196078
0.262745 0.231373 0.188235
0.317647 0.243137 0.188235
0.392157 0.254902 0.180392
0.462745 0.262745 0.188235
0.564706 0.270588 0.180392
0.654902 0.278431 0.180392
0.768627 0.294118 0.188235
0.87451 0.305882 0.192157
0.976471 0.321569 0.196078
0.996078 0.352941 0.215686
0.156863 0.270588 0.192157
0.160784 0.27451 0.203922
0.156863 0.270588 0.192157
0.164706 0.270588 0.203922
0.176471 0.266667 0.196078
0.192157 0.262745 0.2
0.219608 0.270588 0.2
0.247059 0.262745 0.196078
0.301961 0.278431 0.192157
0.372549 0.290196 0.184314
0.439216 0.301961 0.184314
0.529412 0.309804 0.180392
0.639216 0.313725 0.180392
0.74902 0.32549 0.176471
0.870588 0.337255 0.188235
0.968627 0.34902 0.196078
0.996078 0.380392 0.219608
0.168627 0.309804 0.2
0.168627 0.309804 0.2
0.168627 0.309804 0.2
0.168627 0.309804 0.2
0.180392 0.309804 0.203922
0.192157 0.309804 0.207843
0.219608 0.309804 0.2
0.247059 0.309804 0.203922
0.286275 0.313725 0.192157
0.345098 0.321569 0.180392
0.431373 0.337255 0.188235
0.52549 0.337255 0.180392
0.639216 0.345098 0.180392
0.741176 0.360784 0.184314
0.862745 0.368627 0.180392
0.972549 0.380392 0.196078
0.996078 0.407843 0.211765
0.164706 0.364706 0.203922
0.164706 0.364706 0.203922
0.164706 0.364706 0.203922
0.172549 0.360784 0.203922
0.180392 0.356863 0.203922
0.196078 0.360784 0.211765
0.215686 0.34902 0.203922
0.247059 0.356863 0.207843
0.286275 0.356863 0.2
0.337255 0.360784 0.188235
0.403922 0.360784 0.184314
0.505882 0.376471 0.176471
0.611765 0.388235 0.172549
0.737255 0.4 0.176471
0.854902 0.403922 0.180392
0.960784 0.415686 0.192157
0.996078 0.435294 0.207843
0.168627 0.423529 0.203922
0.168627 0.423529 0.203922
0.164706 0.431373 0.207843
0.176471 0.423529 0.207843
0.188235 0.423529 0.211765
0.196078 0.419608 0.203922
0.227451 0.427451 0.207843
0.247059 0.423529 0.207843
0.282353 0.419608 0.2
0.329412 0.423529 0.196078
0.384314 0.415686 0.184314
0.486275 0.423529 0.180392
0.584314 0.431373 0.176471
0.705882 0.435294 0.172549
0.835294 0.447059 0.180392
0.945098 0.458824 0.184314
0.996078 0.466667 0.2
0.168627 0.466667 0.211765
0.168627 0.466667 0.211765
0.168627 0.466667 0.211765
0.168627 0.482353 0.211765
0.180392 0.47451 0.203922
0.2 0.470588 0.215686
0.215686 0.470588 0.211765
0.247059 0.478431 0.211765
0.282353 0.478431 0.207843
0.32549 0.462745 0.196078
0.380392 0.466667 0.184314
0.462745 0.462745 0.172549
0.576471 0.470588 0.168627
0.690196 0.482353 0.168627
0.819608 0.494118 0.180392
0.92549 0.498039 0.176471
0.988235 0.509804 0.203922
0.168627 0.545098 0.203922
0.168627 0.545098 0.203922
0.164706 0.533333 0.203922
0.168627 0.541176 0.211765
0.180392 0.541176 0.207843
0.203922 0.537255 0.211765
0.227451 0.537255 0.211765
0.25098 0.537255 0.215686
0.290196 0.537255 0.219608
0.341176 0.537255 0.203922
0.392157 0.533333 0.192157
0.458824 0.533333 0.184314
0.556863 0.529412 0.172549
0.670588 0.533333 0.164706
0.811765 0.541176 0.168627
0.933333 0.552941 0.180392
0.996078 0.560784 0.2
0.180392 0.596078 0.203922
0.180392 0.596078 0.203922
0.180392 0.596078 0.203922
0.180392 0.596078 0.203922
0.196078 0.596078 0.207843
0.211765 0.592157 0.211765
0.235294 0.592157 0.215686
0.258824 0.596078 0.215686
0.294118 0.592157 0.207843
0.341176 0.596078 0.203922
0.392157 0.592157 0.196078
0.462745 0.592157 0.180392
0.545098 0.588235 0.176471
0.658824 0.588235 0.164706
0.8 0.596078 0.164706
0.917647 0.6 0.176471
0.992157 0.6 0.192157
0.188235 0.662745 0.207843
0.188235 0.662745 0.207843
0.188235 0.662745 0.207843
0.188235 0.662745 0.211765
0.203922 0.662745 0.211765
0.215686 0.662745 0.215686
0.235294 0.662745 0.211765
0.258824 0.662745 0.211765
0.309804 0.662745 0.215686
0.34902 0.662745 0.211765
0.396078 0.662745 0.196078
0.458824 0.658824 0.184314
0.545098 0.654902 0.172549
0.647059 0.654902 0.164706
0.776471 0.654902 0.156863
0.894118 0.654902 0.164706
0.992157 0.658824 0.184314
0.196078 0.729412 0.211765
0.196078 0.729412 0.211765
0.196078 0.729412 0.211765
0.196078 0.717647 0.215686
0.211765 0.72549 0.215686
0.227451 0.72549 0.211765
0.25098 0.72549 0.211765
0.278431 0.717647 0.215686
0.313725 0.713725 0.211765
0.360784 0.72549 0.207843
0.407843 0.721569 0.192157
0.47451 0.717647 0.180392
0.545098 0.709804 0.168627
0.643137 0.717647 0.160784
0.776471 0.709804 0.152941
0.901961 0.713725 0.14902
0.992157 0.713725 0.168627
0.207843 0.796078 0.211765
0.207843 0.796078 0.211765
0.207843 0.796078 0.211765
0.215686 0.796078 0.215686
0.223529 0.796078 0.219608
0.235294 0.792157 0.211765
0.254902 0.796078 0.215686
0.286275 0.796078 0.215686
0.317647 0.796078 0.219608
0.364706 0.788235 0.207843
0.415686 0.792157 0.2
0.478431 0.788235 0.184314
0.552941 0.788235 0.168627
0.65098 0.788235 0.152941
0.760784 0.784314 0.14902
0.890196 0.780392 0.145098
0.992157 0.780392 0.152941
0.215686 0.862745 0.215686
0.215686 0.870588 0.211765
0.215686 0.862745 0.215686
0.219608 0.870588 0.211765
0.227451 0.866667 0.211765
0.239216 0.870588 0.211765
0.258824 0.866667 0.215686
0.290196 0.866667 0.215686
0.329412 0.866667 0.215686
0.372549 0.866667 0.203922
0.411765 0.866667 0.196078
0.478431 0.862745 0.184314
0.556863 0.866667 0.172549
0.643137 0.858824 0.156863
0.756863 0.858824 0.141176
0.878431 0.854902 0.12549
0.992157 0.85098 0.145098
0.219608 0.929412 0.215686
0.219608 0.933333 0.215686
0.219608 0.929412 0.215686
0.227451 0.933333 0.215686
0.235294 0.929412 0.211765
0.25098 0.933333 0.215686
0.266667 0.929412 0.215686
0.290196 0.929412 0.215686
0.333333 0.929412 0.207843
0.388235 0.933333 0.211765
0.423529 0.92549 0.2
0.494118 0.929412 0.188235
0.556863 0.929412 0.172549
0.643137 0.92549 0.156863
0.756863 0.921569 0.141176
0.87451 0.917647 0.12549
0.992157 0.913725 0.12549
0.188235 0.133333 0.184314
0.188235 0.133333 0.184314
0.188235 0.133333 0.184314
0.192157 0.137255 0.188235
0.207843 0.137255 0.192157
0.231373 0.137255 0.188235
0.258824 0.141176 0.188235
0.301961 0.145098 0.180392
0.360784 0.160784 0.180392
0.423529 0.168627 0.184314
0.486275 0.180392 0.180392
0.568627 0.196078 0.172549
0.666667 0.2 0.176471
0.776471 0.219608 0.180392
0.882353 0.231373 0.184314
0.976471 0.247059 0.196078
0.996078 0.286275 0.219608
0.188235 0.14902 0.192157
0.188235 0.14902 0.192157
0.188235 0.14902 0.192157
0.188235 0.14902 0.192157
0.203922 0.152941 0.188235
0.219608 0.152941 0.192157
0.262745 0.156863 0.184314
0.305882 0.160784 0.188235
0.352941 0.172549 0.184314
0.419608 0.184314 0.184314
0.498039 0.192157 0.184314
0.576471 0.203922 0.180392
0.682353 0.219608 0.180392
0.776471 0.223529 0.184314
0.882353 0.239216 0.192157
0.992157 0.258824 0.2
0.996078 0.290196 0.215686
0.180392 0.168627 0.196078
0.180392 0.168627 0.196078
0.180392 0.168627 0.196078
0.184314 0.172549 0.2
0.2 0.172549 0.2
0.219608 0.176471 0.192157
0.247059 0.184314 0.196078
0.286275 0.192157 0.192157
0.341176 0.188235 0.192157
0.411765 0.203922 0.188235
0.47451 0.211765 0.180392
0.572549 0.227451 0.188235
0.666667 0.235294 0.184314
0.768627 0.247059 0.188235
0.886275 0.258824 0.196078
0.980392 0.278431 0.2
0.996078 0.313725 0.219608
0.172549 0.192157 0.207843
0.164706 0.196078 0.207843
0.172549 0.192157 0.207843
0.172549 0.192157 0.207843
0.192157 0.196078 0.203922
0.207843 0.2 0.203922
0.235294 0.203922 0.196078
0.27451 0.203922 0.196078
0.32549 0.215686 0.2
0.4 0.227451 0.192157
0.466667 0.239216 0.192157
0.560784 0.25098 0.192157
0.658824 0.254902 0.188235
0.764706 0.266667 0.192157
0.878431 0.282353 0.192157
0.972549 0.290196 0.196078
0.996078 0.32549 0.223529
0.156863 0.231373 0.215686
0.156863 0.231373 0.215686
0.156863 0.231373 0.215686
0.152941 0.227451 0.211765
0.176471 0.227451 0.2
0.207843 0.227451 0.203922
0.227451 0.223529 0.203922
0.266667 0.231373 0.196078
0.313725 0.243137 0.196078
0.388235 0.258824 0.2
0.470588 0.266667 0.184314
0.552941 0.27451 0.188235
0.670588 0.282353 0.192157
0.756863 0.294118 0.192157
0.87451 0.305882 0.192157
0.980392 0.317647 0.196078
0.996078 0.34902 0.223529
0.152941 0.27451 0.211765
0.152941 0.27451 0.211765
0.152941 0.27451 0.211765
0.164706 0.270588 0.203922
0.176471 0.270588 0.207843
0.196078 0.266667 0.203922
0.219608 0.266667 0.211765
0.25098 0.266667 0.2
0.301961 0.27451 0.2
0.364706 0.286275 0.192157
0.443137 0.298039 0.192157
0.537255 0.313725 0.196078
0.643137 0.317647 0.184314
0.74902 0.32549 0.184314
0.878431 0.341176 0.2
0.968627 0.34902 0.196078
0.996078 0.376471 0.223529
0.160784 0.313725 0.207843
0.160784 0.313725 0.207843
0.160784 0.313725 0.207843
0.172549 0.313725 0.203922
0.180392 0.309804 0.203922
0.192157 0.309804 0.207843
0.215686 0.309804 0.215686
0.239216 0.309804 0.215686
0.278431 0.313725 0.2
0.345098 0.321569 0.188235
0.423529 0.329412 0.196078
0.517647 0.341176 0.188235
0.615686 0.352941 0.188235
0.741176 0.360784 0.192157
0.858824 0.368627 0.188235
0.960784 0.380392 0.2
0.996078 0.403922 0.219608
0.164706 0.360784 0.211765
0.164706 0.360784 0.211765
0.164706 0.360784 0.211765
0.172549 0.360784 0.211765
0.180392 0.352941 0.211765
0.196078 0.352941 0.215686
0.219608 0.352941 0.215686
0.25098 0.356863 0.219608
0.278431 0.356863 0.211765
0.337255 0.364706 0.203922
0.407843 0.364706 0.188235
0.501961 0.376471 0.184314
0.627451 0.392157 0.188235
0.733333 0.4 0.188235
0.85098 0.4 0.184314
0.964706 0.419608 0.196078
0.996078 0.439216 0.219608
0.160784 0.423529 0.215686
0.160784 0.423529 0.215686
0.168627 0.423529 0.211765
0.172549 0.423529 0.219608
0.176471 0.423529 0.215686
0.196078 0.427451 0.215686
0.227451 0.423529 0.215686
0.247059 0.411765 0.215686
0.282353 0.415686 0.215686
0.32549 0.415686 0.203922
0.388235 0.419608 0.188235
0.482353 0.419608 0.184314
0.592157 0.439216 0.184314
0.705882 0.439216 0.184314
0.839216 0.45098 0.188235
0.960784 0.454902 0.196078
0.996078 0.47451 0.219608
0.160784 0.470588 0.211765
0.160784 0.470588 0.211765
0.160784 0.470588 0.211765
0.168627 0.478431 0.219608
0.180392 0.47451 0.219608
0.196078 0.47451 0.215686
0.227451 0.470588 0.223529
0.25098 0.482353 0.223529
0.282353 0.482353 0.219608
0.32549 0.462745 0.203922
0.380392 0.462745 0.2
0.470588 0.470588 0.188235
0.576471 0.47451 0.180392
0.690196 0.482353 0.176471
0.815686 0.490196 0.184314
0.941176 0.498039 0.184314
0.996078 0.505882 0.207843
0.168627 0.541176 0.211765
0.168627 0.541176 0.211765
0.168627 0.541176 0.211765
0.168627 0.541176 0.211765
0.180392 0.541176 0.215686
0.203922 0.537255 0.219608
0.227451 0.537255 0.227451
0.25098 0.537255 0.219608
0.290196 0.537255 0.219608
0.333333 0.537255 0.211765
0.384314 0.541176 0.203922
0.454902 0.533333 0.184314
0.54902 0.52549 0.180392
0.666667 0.533333 0.180392
0.811765 0.541176 0.184314
0.921569 0.54902 0.188235
0.988235 0.556863 0.203922
0.176471 0.596078 0.219608
0.180392 0.596078 0.211765
0.180392 0.596078 0.211765
0.176471 0.592157 0.207843
0.188235 0.596078 0.215686
0.203922 0.596078 0.211765
0.235294 0.592157 0.219608
0.258824 0.592157 0.223529
0.298039 0.592157 0.219608
0.337255 0.588235 0.207843
0.396078 0.592157 0.203922
0.462745 0.588235 0.192157
0.545098 0.588235 0.176471
0.658824 0.584314 0.180392
0.796078 0.596078 0.168627
0.937255 0.603922 0.176471
0.996078 0.603922 0.203922
0.188235 0.662745 0.211765
0.188235 0.662745 0.211765
0.188235 0.662745 0.211765
0.188235 0.662745 0.211765
0.2 0.662745 0.215686
0.215686 0.662745 0.219608
0.239216 0.662745 0.223529
0.262745 0.662745 0.223529
0.301961 0.666667 0.219608
0.352941 0.666667 0.215686
0.396078 0.658824 0.203922
0.466667 0.658824 0.196078
0.541176 0.658824 0.180392
0.65098 0.658824 0.168627
0.776471 0.654902 0.164706
0.905882 0.654902 0.168627
0.992157 0.658824 0.192157
0.192157 0.729412 0.219608
0.192157 0.729412 0.219608
0.196078 0.72549 0.219608
0.196078 0.72549 0.219608
0.211765 0.72549 0.223529
0.227451 0.72549 0.219608
0.247059 0.733333 0.223529
0.27451 0.72549 0.219608
0.309804 0.729412 0.223529
0.34902 0.721569 0.219608
0.403922 0.729412 0.203922
0.470588 0.721569 0.188235
0.541176 0.72549 0.184314
0.635294 0.717647 0.164706
0.772549 0.713725 0.160784
0.898039 0.721569 0.168627
0.992157 0.717647 0.172549
0.207843 0.796078 0.219608
0.207843 0.796078 0.219608
0.207843 0.796078 0.219608
0.207843 0.796078 0.219608
0.215686 0.796078 0.223529
0.239216 0.796078 0.223529
0.254902 0.796078 0.219608
0.290196 0.796078 0.227451
0.32549 0.796078 0.219608
0.364706 0.788235 0.215686
0.423529 0.792157 0.211765
0.478431 0.788235 0.188235
0.564706 0.788235 0.180392
0.639216 0.784314 0.164706
0.760784 0.784314 0.156863
0.894118 0.776471 0.14902
0.988235 0.776471 0.156863
0.211765 0.866667 0.219608
0.211765 0.866667 0.219608
0.211765 0.866667 0.219608
0.219608 0.866667 0.219608
0.231373 0.866667 0.227451
0.243137 0.866667 0.227451
0.266667 0.866667 0.215686
0.290196 0.862745 0.223529
0.321569 0.866667 0.219608
0.372549 0.862745 0.211765
0.419608 0.862745 0.211765
0.482353 0.866667 0.196078
0.556863 0.862745 0.180392
0.643137 0.854902 0.164706
0.764706 0.854902 0.152941
0.87451 0.85098 0.137255
0.992157 0.847059 0.152941
0.223529 0.92549 0.223529
0.219608 0.929412 0.223529
0.219608 0.929412 0.223529
0.219608 0.929412 0.223529
0.231373 0.929412 0.227451
0.247059 0.92549 0.223529
0.270588 0.933333 0.215686
0.294118 0.933333 0.223529
0.329412 0.929412 0.219608
0.376471 0.921569 0.211765
0.419608 0.92549 0.215686
0.486275 0.933333 0.196078
0.568627 0.929412 0.180392
0.65098 0.929412 0.168627
0.756863 0.913725 0.141176
0.87451 0.917647 0.133333
0.988235 0.913725 0.133333
0.192157 0.160784 0.254902
0.188235 0.156863 0.25098
0.192157 0.160784 0.254902
0.192157 0.160784 0.254902
0.2 0.14902 0.258824
0.211765 0.14902 0.25098
0.247059 0.145098 0.25098
0.286275 0.152941 0.25098
0.337255 0.160784 0.243137
0.403922 0.172549 0.25098
0.466667 0.176471 0.243137
0.568627 0.192157 0.235294
0.662745 0.207843 0.243137
0.760784 0.215686 0.243137
0.87451 0.235294 0.239216
0.972549 0.25098 0.243137
0.996078 0.286275 0.270588
0.184314 0.172549 0.254902
0.184314 0.172549 0.254902
0.184314 0.172549 0.254902
0.184314 0.172549 0.254902
0.2 0.168627 0.258824
0.215686 0.168627 0.254902
0.239216 0.160784 0.258824
0.27451 0.164706 0.25098
0.32549 0.172549 0.254902
0.403922 0.180392 0.247059
0.470588 0.184314 0.25098
0.564706 0.203922 0.247059
0.65098 0.215686 0.239216
0.760784 0.223529 0.25098
0.87451 0.247059 0.247059
0.972549 0.258824 0.247059
