assets/luts/cinematic/Blue Kick.cube
#Generated by Picture Instruments - Unlimited Filters
TITLE "filter mobile test2"
LUT_3D_SIZE 9
0.188235 0.137255 0.176471
0.188235 0.137255 0.176471
0.207843 0.137255 0.184314
0.266667 0.141176 0.184314
0.360784 0.160784 0.180392
0.494118 0.180392 0.176471
0.678431 0.203922 0.172549
0.890196 0.231373 0.188235
0.996078 0.278431 0.207843
0.180392 0.172549 0.192157
0.188235 0.168627 0.192157
0.196078 0.172549 0.188235
0.258824 0.184314 0.192157
0.345098 0.188235 0.180392
0.490196 0.215686 0.184314
0.666667 0.235294 0.176471
0.890196 0.266667 0.184314
0.996078 0.309804 0.219608
0.152941 0.231373 0.196078
0.152941 0.227451 0.203922
0.180392 0.223529 0.192157
0.223529 0.227451 0.196078
0.317647 0.243137 0.188235
0.462745 0.262745 0.188235
0.654902 0.278431 0.180392
0.878431 0.309804 0.188235
0.996078 0.352941 0.215686
0.168627 0.309804 0.2
0.168627 0.309804 0.2
0.180392 0.309804 0.203922
0.215686 0.309804 0.207843
0.286275 0.313725 0.192157
0.419608 0.32549 0.184314
0.639216 0.345098 0.180392
0.858824 0.368627 0.180392
0.996078 0.407843 0.211765
0.168627 0.423529 0.203922
0.164706 0.431373 0.207843
0.188235 0.423529 0.211765
0.227451 0.427451 0.207843
0.282353 0.419608 0.207843
0.384314 0.415686 0.184314
0.588235 0.435294 0.172549
0.835294 0.454902 0.176471
0.996078 0.466667 0.2
0.168627 0.545098 0.203922
0.168627 0.545098 0.203922
0.180392 0.541176 0.207843
0.227451 0.537255 0.219608
0.290196 0.537255 0.219608
0.384314 0.533333 0.192157
0.556863 0.529412 0.172549
0.803922 0.545098 0.168627
0.992157 0.552941 0.2
0.188235 0.662745 0.207843
0.176471 0.65098 0.207843
0.203922 0.662745 0.211765
0.235294 0.65098 0.215686
0.309804 0.662745 0.215686
0.407843 0.662745 0.192157
0.545098 0.654902 0.172549
0.788235 0.658824 0.152941
0.992157 0.662745 0.184314
0.211765 0.8 0.215686
0.207843 0.796078 0.211765
0.223529 0.8 0.211765
0.254902 0.796078 0.215686
0.317647 0.796078 0.219608
0.415686 0.792157 0.2
0.552941 0.788235 0.168627
0.760784 0.788235 0.141176
0.988235 0.776471 0.14902
0.219608 0.929412 0.215686
0.219608 0.929412 0.215686
0.235294 0.929412 0.211765
0.266667 0.929412 0.215686
0.333333 0.929412 0.207843
0.423529 0.929412 0.2
0.556863 0.929412 0.168627
0.756863 0.921569 0.137255
0.992157 0.913725 0.12549
0.188235 0.133333 0.184314
0.188235 0.133333 0.184314
0.207843 0.137255 0.192157
0.258824 0.141176 0.188235
0.360784 0.160784 0.180392
0.486275 0.180392 0.180392
0.666667 0.2 0.176471
0.882353 0.231373 0.184314
0.996078 0.286275 0.219608
0.180392 0.168627 0.196078
0.180392 0.168627 0.196078
0.2 0.172549 0.2
0.247059 0.184314 0.196078
0.341176 0.188235 0.192157
0.47451 0.211765 0.180392
0.666667 0.235294 0.184314
0.886275 0.258824 0.196078
0.996078 0.313725 0.219608
0.156863 0.231373 0.215686
0.156863 0.231373 0.215686
0.176471 0.227451 0.2
0.227451 0.223529 0.203922
0.313725 0.243137 0.196078
0.470588 0.266667 0.184314
0.670588 0.282353 0.192157
0.87451 0.305882 0.192157
0.996078 0.34902 0.223529
0.160784 0.313725 0.207843
0.160784 0.313725 0.207843
0.180392 0.309804 0.203922
0.215686 0.309804 0.215686
0.278431 0.313725 0.2
0.423529 0.329412 0.196078
0.615686 0.352941 0.188235
0.858824 0.368627 0.188235
0.996078 0.403922 0.219608
0.160784 0.423529 0.215686
0.168627 0.423529 0.211765
0.176471 0.423529 0.215686
0.227451 0.423529 0.215686
0.282353 0.415686 0.215686
0.388235 0.419608 0.188235
0.592157 0.439216 0.184314
0.839216 0.45098 0.188235
0.996078 0.47451 0.219608
0.168627 0.541176 0.211765
0.168627 0.541176 0.211765
0.180392 0.541176 0.215686
0.227451 0.537255 0.227451
0.290196 0.537255 0.219608
0.384314 0.541176 0.203922
0.54902 0.52549 0.180392
0.811765 0.541176 0.184314
0.988235 0.556863 0.203922
0.188235 0.662745 0.211765
0.188235 0.662745 0.211765
0.2 0.662745 0.215686
0.239216 0.662745 0.223529
0.301961 0.666667 0.219608
0.396078 0.658824 0.203922
0.541176 0.658824 0.180392
0.776471 0.654902 0.164706
0.992157 0.658824 0.192157
0.207843 0.796078 0.219608
0.207843 0.796078 0.219608
0.215686 0.796078 0.223529
0.254902 0.796078 0.219608
0.32549 0.796078 0.219608
0.423529 0.792157 0.211765
0.564706 0.788235 0.180392
0.760784 0.784314 0.156863
0.988235 0.776471 0.156863
0.223529 0.92549 0.223529
0.219608 0.929412 0.223529
0.231373 0.929412 0.227451
0.270588 0.933333 0.215686
0.329412 0.929412 0.219608
0.419608 0.92549 0.215686
0.568627 0.929412 0.180392
0.756863 0.913725 0.141176
0.988235 0.913725 0.133333
0.188235 0.176471 0.290196
0.180392 0.180392 0.290196
0.196078 0.172549 0.282353
0.239216 0.164706 0.290196
0.321569 0.160784 0.294118
0.462745 0.176471 0.290196
0.670588 0.211765 0.286275
0.878431 0.235294 0.278431
0.996078 0.294118 0.309804
0.172549 0.203922 0.294118
0.168627 0.207843 0.305882
0.188235 0.207843 0.294118
0.235294 0.203922 0.294118
0.305882 0.192157 0.301961
0.447059 0.215686 0.294118
0.647059 0.235294 0.294118
0.866667 0.262745 0.294118
0.996078 0.321569 0.313725
0.12549 0.262745 0.337255
0.12549 0.262745 0.337255
0.152941 0.254902 0.321569
0.219608 0.247059 0.309804
0.294118 0.243137 0.309804
0.431373 0.266667 0.313725
0.627451 0.290196 0.301961
0.85098 0.309804 0.298039
0.996078 0.364706 0.32549
0.109804 0.368627 0.352941
0.109804 0.368627 0.352941
0.12549 0.356863 0.341176
0.180392 0.345098 0.341176
0.278431 0.321569 0.337255
0.411765 0.337255 0.321569
0.623529 0.360784 0.32549
0.85098 0.380392 0.313725
0.996078 0.423529 0.333333
0.109804 0.466667 0.329412
0.109804 0.466667 0.329412
0.121569 0.47451 0.337255
0.180392 0.45098 0.337255
0.270588 0.419608 0.329412
0.380392 0.415686 0.333333
0.576471 0.439216 0.321569
0.823529 0.462745 0.317647
0.996078 0.498039 0.352941
0.109804 0.576471 0.317647
0.109804 0.576471 0.32549
0.137255 0.568627 0.321569
0.192157 0.560784 0.32549
0.282353 0.533333 0.337255
0.380392 0.529412 0.345098
0.552941 0.529412 0.32549
0.807843 0.556863 0.313725
0.992157 0.572549 0.341176
0.145098 0.686275 0.313725
0.145098 0.686275 0.313725
0.160784 0.682353 0.32549
0.223529 0.670588 0.329412
0.294118 0.658824 0.341176
0.403922 0.654902 0.34902
0.52549 0.65098 0.32549
0.764706 0.658824 0.317647
0.992157 0.670588 0.317647
0.180392 0.8 0.32549
0.180392 0.8 0.32549
0.196078 0.8 0.329412
0.239216 0.792157 0.341176
0.32549 0.788235 0.356863
0.419608 0.784314 0.364706
0.54902 0.776471 0.333333
0.74902 0.780392 0.313725
0.992157 0.784314 0.305882
0.196078 0.933333 0.32549
0.196078 0.937255 0.321569
0.211765 0.933333 0.32549
0.262745 0.929412 0.341176
0.337255 0.929412 0.356863
0.431373 0.929412 0.364706
0.564706 0.929412 0.337255
0.74902 0.917647 0.309804
0.988235 0.913725 0.301961
0.176471 0.203922 0.368627
0.176471 0.203922 0.368627
0.188235 0.2 0.360784
0.235294 0.203922 0.364706
0.309804 0.180392 0.356863
0.443137 0.184314 0.364706
0.635294 0.207843 0.368627
0.866667 0.235294 0.356863
0.996078 0.294118 0.376471
0.145098 0.231373 0.384314
0.145098 0.231373 0.384314
0.172549 0.235294 0.376471
0.219608 0.231373 0.360784
0.301961 0.219608 0.372549
0.439216 0.215686 0.376471
0.631373 0.239216 0.372549
0.866667 0.262745 0.364706
0.996078 0.329412 0.380392
0.109804 0.286275 0.415686
0.109804 0.286275 0.407843
0.133333 0.286275 0.415686
0.192157 0.27451 0.396078
0.294118 0.278431 0.384314
0.407843 0.266667 0.376471
0.615686 0.294118 0.380392
0.85098 0.313725 0.384314
0.996078 0.368627 0.4
0.0862745 0.384314 0.435294
0.0862745 0.384314 0.435294
0.105882 0.376471 0.435294
0.156863 0.364706 0.435294
0.266667 0.341176 0.407843
0.392157 0.337255 0.396078
0.596078 0.360784 0.4
0.835294 0.388235 0.388235
0.996078 0.435294 0.419608
0.0745098 0.498039 0.439216
0.0784314 0.501961 0.439216
0.0901961 0.482353 0.435294
0.141176 0.478431 0.435294
0.231373 0.45098 0.439216
0.384314 0.431373 0.415686
0.588235 0.443137 0.411765
0.827451 0.466667 0.407843
0.996078 0.509804 0.431373
0.0745098 0.615686 0.415686
0.0745098 0.615686 0.415686
0.0941176 0.611765 0.419608
0.141176 0.596078 0.419608
0.235294 0.568627 0.407843
0.380392 0.533333 0.419608
0.521569 0.521569 0.411765
0.8 0.552941 0.415686
0.992157 0.588235 0.435294
0.105882 0.72549 0.396078
0.105882 0.72549 0.396078
0.121569 0.713725 0.403922
0.168627 0.705882 0.4
0.262745 0.682353 0.415686
0.407843 0.654902 0.439216
0.533333 0.647059 0.427451
0.772549 0.654902 0.411765
0.992157 0.678431 0.419608
0.141176 0.831373 0.396078
0.137255 0.831373 0.384314
0.156863 0.831373 0.392157
0.2 0.815686 0.403922
0.298039 0.8 0.427451
0.415686 0.784314 0.439216
0.556863 0.788235 0.435294
0.737255 0.772549 0.415686
0.992157 0.788235 0.4
0.172549 0.952941 0.392157
0.172549 0.952941 0.392157
0.192157 0.94902 0.396078
0.231373 0.941176 0.4
0.309804 0.933333 0.423529
0.439216 0.929412 0.443137
0.560784 0.929412 0.439216
0.760784 0.921569 0.407843
0.988235 0.917647 0.392157
0.168627 0.231373 0.435294
0.168627 0.231373 0.435294
0.184314 0.231373 0.435294
0.227451 0.227451 0.439216
0.305882 0.215686 0.435294
0.427451 0.192157 0.435294
0.635294 0.211765 0.439216
0.854902 0.235294 0.435294
0.996078 0.294118 0.439216
0.145098 0.254902 0.443137
0.141176 0.258824 0.454902
0.164706 0.254902 0.45098
0.219608 0.262745 0.439216
0.301961 0.254902 0.443137
0.415686 0.227451 0.431373
0.615686 0.247059 0.443137
0.843137 0.266667 0.439216
0.992157 0.321569 0.447059
0.105882 0.305882 0.482353
0.105882 0.305882 0.482353
0.121569 0.305882 0.470588
0.188235 0.294118 0.462745
0.290196 0.298039 0.447059
0.4 0.278431 0.443137
0.615686 0.290196 0.454902
0.843137 0.313725 0.443137
0.996078 0.364706 0.458824
0.0784314 0.396078 0.509804
0.0784314 0.396078 0.509804
0.0941176 0.396078 0.498039
0.133333 0.384314 0.494118
0.235294 0.368627 0.478431
0.392157 0.356863 0.462745
0.568627 0.360784 0.470588
0.835294 0.380392 0.454902
0.996078 0.443137 0.478431
0.0509804 0.521569 0.517647
0.0509804 0.521569 0.513725
0.0627451 0.509804 0.513725
0.113725 0.494118 0.517647
0.203922 0.470588 0.505882
0.364706 0.435294 0.482353
0.560784 0.443137 0.47451
0.807843 0.470588 0.482353
0.996078 0.517647 0.498039
0.0470588 0.639216 0.509804
0.0470588 0.631373 0.513725
0.0666667 0.635294 0.505882
0.105882 0.615686 0.513725
0.188235 0.607843 0.505882
0.345098 0.54902 0.498039
0.545098 0.537255 0.478431
0.8 0.568627 0.498039
0.992157 0.603922 0.513725
0.0784314 0.74902 0.47451
0.0823529 0.752941 0.486275
0.0941176 0.74902 0.478431
0.129412 0.733333 0.482353
0.211765 0.713725 0.482353
0.384314 0.670588 0.494118
0.541176 0.65098 0.494118
0.756863 0.662745 0.490196
0.992157 0.690196 0.501961
0.109804 0.854902 0.462745
0.109804 0.854902 0.462745
0.117647 0.858824 0.466667
0.156863 0.843137 0.470588
0.243137 0.827451 0.47451
0.407843 0.792157 0.505882
0.576471 0.784314 0.517647
0.745098 0.776471 0.490196
0.992157 0.788235 0.486275
0.141176 0.968627 0.458824
0.137255 0.976471 0.454902
0.145098 0.964706 0.458824
0.2 0.964706 0.462745
0.27451 0.94902 0.478431
0.419608 0.933333 0.505882
0.588235 0.92549 0.517647
0.752941 0.921569 0.486275
0.992157 0.917647 0.482353
0.172549 0.25098 0.498039
0.172549 0.25098 0.498039
0.188235 0.25098 0.494118
0.231373 0.254902 0.498039
0.309804 0.25098 0.505882
0.415686 0.211765 0.494118
0.611765 0.211765 0.501961
0.843137 0.235294 0.494118
0.996078 0.298039 0.501961
0.152941 0.27451 0.52549
0.145098 0.278431 0.52549
0.172549 0.27451 0.513725
0.223529 0.282353 0.505882
0.294118 0.270588 0.505882
0.411765 0.247059 0.498039
0.603922 0.239216 0.513725
0.843137 0.270588 0.513725
0.996078 0.321569 0.509804
0.117647 0.321569 0.54902
0.117647 0.321569 0.54902
0.129412 0.321569 0.54902
0.180392 0.317647 0.529412
0.286275 0.32549 0.517647
0.4 0.305882 0.509804
0.588235 0.294118 0.513725
0.835294 0.313725 0.521569
0.996078 0.364706 0.52549
0.0862745 0.403922 0.572549
0.0862745 0.403922 0.572549
0.105882 0.407843 0.572549
0.137255 0.4 0.568627
0.235294 0.380392 0.545098
0.396078 0.380392 0.509804
0.568627 0.360784 0.52549
0.831373 0.384314 0.52549
0.996078 0.439216 0.541176
0.054902 0.52549 0.588235
0.054902 0.52549 0.588235
0.0705882 0.521569 0.592157
0.109804 0.513725 0.588235
0.184314 0.490196 0.580392
0.356863 0.45098 0.545098
0.545098 0.447059 0.529412
0.8 0.466667 0.541176
0.992157 0.517647 0.560784
0.0352941 0.643137 0.588235
0.0352941 0.643137 0.588235
0.0392157 0.647059 0.592157
0.0862745 0.643137 0.596078
0.164706 0.619608 0.584314
0.32549 0.576471 0.572549
0.529412 0.545098 0.54902
0.780392 0.572549 0.556863
0.992157 0.611765 0.576471
0.0588235 0.768627 0.560784
0.0588235 0.768627 0.560784
0.0588235 0.768627 0.568627
0.0980392 0.764706 0.572549
0.168627 0.737255 0.576471
0.341176 0.698039 0.560784
0.529412 0.647059 0.552941
0.760784 0.670588 0.545098
0.992157 0.705882 0.568627
0.0862745 0.882353 0.533333
0.0862745 0.882353 0.533333
0.0941176 0.878431 0.541176
0.121569 0.87451 0.541176
0.196078 0.854902 0.54902
0.360784 0.819608 0.552941
0.556863 0.788235 0.560784
0.737255 0.780392 0.545098
0.992157 0.8 0.552941
0.113725 0.996078 0.529412
0.113725 0.996078 0.529412
0.121569 0.996078 0.52549
0.156863 0.988235 0.521569
0.227451 0.976471 0.537255
0.396078 0.941176 0.556863
0.564706 0.92549 0.572549
0.74902 0.92549 0.552941
0.988235 0.917647 0.545098
0.184314 0.27451 0.580392
0.184314 0.27451 0.580392
0.196078 0.270588 0.572549
0.239216 0.27451 0.568627
0.305882 0.262745 0.560784
0.419608 0.243137 0.568627
0.588235 0.211765 0.564706
0.835294 0.239216 0.572549
0.996078 0.290196 0.572549
0.160784 0.301961 0.592157
0.160784 0.301961 0.592157
0.176471 0.301961 0.588235
0.223529 0.301961 0.572549
0.301961 0.301961 0.576471
0.419608 0.278431 0.568627
0.592157 0.247059 0.576471
0.831373 0.270588 0.584314
0.996078 0.321569 0.576471
0.129412 0.333333 0.619608
0.129412 0.337255 0.611765
0.145098 0.341176 0.611765
0.188235 0.341176 0.603922
0.286275 0.341176 0.580392
0.411765 0.333333 0.580392
0.596078 0.301961 0.572549
0.819608 0.321569 0.584314
0.996078 0.364706 0.588235
0.101961 0.419608 0.635294
0.109804 0.419608 0.643137
0.113725 0.415686 0.627451
0.137255 0.407843 0.631373
0.239216 0.4 0.603922
0.396078 0.4 0.580392
0.564706 0.364706 0.584314
0.811765 0.388235 0.584314
0.996078 0.435294 0.603922
0.0862745 0.517647 0.647059
0.0862745 0.517647 0.647059
0.0901961 0.521569 0.658824
0.117647 0.505882 0.658824
0.184314 0.490196 0.643137
0.364706 0.466667 0.603922
0.545098 0.443137 0.580392
0.803922 0.47451 0.607843
0.996078 0.517647 0.615686
0.0509804 0.635294 0.65098
0.0509804 0.635294 0.65098
0.0470588 0.643137 0.662745
0.0823529 0.635294 0.670588
0.145098 0.619608 0.654902
0.309804 0.580392 0.643137
0.52549 0.556863 0.6
0.776471 0.568627 0.607843
0.992157 0.619608 0.635294
0.054902 0.756863 0.631373
0.054902 0.756863 0.631373
0.0588235 0.768627 0.647059
0.0784314 0.776471 0.643137
0.141176 0.764706 0.654902
0.301961 0.729412 0.639216
0.501961 0.686275 0.607843
0.745098 0.678431 0.6
0.992157 0.721569 0.623529
0.0784314 0.890196 0.623529
0.0784314 0.890196 0.615686
0.0745098 0.901961 0.631373
0.0980392 0.898039 0.627451
0.156863 0.886275 0.631373
0.317647 0.839216 0.615686
0.545098 0.792157 0.615686
0.72549 0.788235 0.603922
0.992157 0.807843 0.615686
0.105882 0.992157 0.596078
0.105882 0.992157 0.596078
0.109804 0.996078 0.6
0.133333 0.992157 0.588235
0.188235 0.996078 0.603922
0.341176 0.964706 0.607843
0.560784 0.92549 0.623529
0.74902 0.917647 0.611765
0.988235 0.929412 0.603922
0.188235 0.290196 0.631373
0.192157 0.290196 0.643137
0.203922 0.298039 0.635294
0.235294 0.290196 0.635294
0.309804 0.286275 0.631373
0.423529 0.262745 0.631373
0.588235 0.227451 0.623529
0.835294 0.247059 0.635294
0.996078 0.294118 0.627451
0.172549 0.317647 0.662745
0.172549 0.317647 0.662745
0.180392 0.313725 0.662745
0.219608 0.317647 0.647059
0.305882 0.32549 0.643137
0.427451 0.301961 0.635294
0.588235 0.258824 0.627451
0.811765 0.27451 0.635294
0.992157 0.317647 0.635294
0.14902 0.352941 0.678431
0.14902 0.352941 0.678431
0.152941 0.360784 0.67451
0.188235 0.34902 0.662745
0.290196 0.356863 0.639216
0.419608 0.34902 0.639216
0.584314 0.313725 0.631373
0.815686 0.321569 0.643137
0.992157 0.364706 0.643137
0.12549 0.427451 0.701961
0.12549 0.427451 0.709804
0.12549 0.427451 0.694118
0.164706 0.415686 0.694118
0.247059 0.415686 0.682353
0.411765 0.419608 0.643137
0.560784 0.388235 0.635294
0.807843 0.396078 0.654902
0.996078 0.435294 0.658824
0.109804 0.509804 0.698039
0.101961 0.513725 0.698039
0.109804 0.521569 0.709804
0.12549 0.517647 0.721569
0.188235 0.501961 0.709804
0.364706 0.486275 0.670588
0.54902 0.47451 0.65098
0.788235 0.478431 0.662745
0.992157 0.517647 0.670588
0.0784314 0.623529 0.698039
0.0784314 0.623529 0.698039
0.0784314 0.631373 0.709804
0.0980392 0.647059 0.737255
0.152941 0.623529 0.721569
0.301961 0.592157 0.705882
0.541176 0.572549 0.662745
0.776471 0.564706 0.666667
0.992157 0.619608 0.686275
0.054902 0.752941 0.698039
0.054902 0.752941 0.698039
0.054902 0.764706 0.705882
0.0588235 0.784314 0.729412
0.121569 0.772549 0.733333
0.278431 0.737255 0.713725
0.482353 0.705882 0.670588
0.72549 0.686275 0.647059
0.988235 0.733333 0.682353
0.0705882 0.878431 0.686275
0.0705882 0.882353 0.678431
0.0745098 0.890196 0.694118
0.0784314 0.917647 0.713725
0.12549 0.901961 0.709804
0.278431 0.870588 0.694118
0.501961 0.823529 0.666667
0.729412 0.796078 0.654902
0.988235 0.819608 0.666667
0.101961 0.996078 0.666667
0.101961 0.996078 0.658824
0.101961 0.996078 0.666667
0.12549 0.996078 0.67451
0.168627 0.996078 0.67451
0.298039 0.992157 0.678431
0.52549 0.945098 0.666667
0.741176 0.929412 0.67451
0.988235 0.92549 0.658824
0.2 0.309804 0.701961
0.196078 0.309804 0.701961
0.211765 0.309804 0.701961
0.239216 0.305882 0.698039
0.313725 0.305882 0.694118
0.435294 0.286275 0.698039
0.592157 0.243137 0.686275
0.811765 0.247059 0.690196
0.992157 0.290196 0.682353
0.176471 0.32549 0.713725
0.188235 0.32549 0.717647
0.188235 0.329412 0.709804
0.231373 0.333333 0.705882
0.301961 0.333333 0.698039
0.427451 0.321569 0.694118
0.584314 0.270588 0.682353
0.811765 0.278431 0.698039
0.996078 0.309804 0.698039
0.156863 0.372549 0.737255
0.156863 0.372549 0.737255
0.168627 0.364706 0.737255
0.203922 0.360784 0.721569
0.294118 0.372549 0.705882
0.431373 0.372549 0.705882
0.588235 0.32549 0.698039
0.811765 0.32549 0.698039
0.992157 0.360784 0.698039
0.141176 0.435294 0.760784
0.137255 0.439216 0.760784
0.141176 0.435294 0.760784
0.160784 0.431373 0.752941
0.247059 0.427451 0.733333
0.407843 0.431373 0.705882
0.564706 0.407843 0.694118
0.792157 0.392157 0.698039
0.992157 0.435294 0.705882
0.12549 0.521569 0.752941
0.12549 0.521569 0.752941
0.129412 0.521569 0.764706
0.137255 0.521569 0.776471
0.196078 0.505882 0.768627
0.372549 0.498039 0.721569
0.572549 0.490196 0.709804
0.776471 0.482353 0.701961
0.992157 0.521569 0.721569
0.0980392 0.619608 0.74902
0.0980392 0.623529 0.74902
0.101961 0.623529 0.760784
0.105882 0.643137 0.788235
0.152941 0.627451 0.788235
0.309804 0.592157 0.760784
0.533333 0.580392 0.705882
0.756863 0.576471 0.705882
0.988235 0.611765 0.729412
0.054902 0.745098 0.752941
0.0666667 0.733333 0.74902
0.0627451 0.752941 0.760784
0.0666667 0.784314 0.796078
0.117647 0.768627 0.788235
0.27451 0.737255 0.772549
0.47451 0.709804 0.729412
0.733333 0.690196 0.694118
0.992157 0.737255 0.729412
0.0705882 0.870588 0.737255
0.0705882 0.870588 0.737255
0.0745098 0.878431 0.752941
0.0784314 0.905882 0.776471
0.109804 0.909804 0.788235
0.254902 0.882353 0.760784
0.478431 0.839216 0.733333
0.72549 0.8 0.701961
0.988235 0.831373 0.721569
0.0941176 0.996078 0.733333
0.0823529 0.996078 0.733333
0.0980392 0.996078 0.733333
0.117647 0.992157 0.729412
0.156863 0.992157 0.729412
0.290196 0.996078 0.741176
0.505882 0.956863 0.717647
0.741176 0.933333 0.717647
0.988235 0.929412 0.705882
