assets/luts/cinematic/Blue Kick.cube
#Generated by Picture Instruments - Unlimited Filters
TITLE "filter mobile test2"
LUT_3D_SIZE 5
0.188235 0.137255 0.176471
0.207843 0.137255 0.184314
0.360784 0.160784 0.180392
0.678431 0.203922 0.172549
0.996078 0.278431 0.207843
0.152941 0.231373 0.196078
0.180392 0.223529 0.192157
0.317647 0.243137 0.188235
0.654902 0.278431 0.180392
0.996078 0.352941 0.215686
0.168627 0.423529 0.203922
0.188235 0.423529 0.211765
0.282353 0.419608 0.207843
0.588235 0.435294 0.172549
0.996078 0.466667 0.2
0.188235 0.662745 0.207843
0.203922 0.662745 0.211765
0.309804 0.662745 0.215686
0.545098 0.654902 0.172549
0.992157 0.662745 0.184314
0.219608 0.929412 0.215686
0.235294 0.929412 0.211765
0.333333 0.929412 0.207843
0.556863 0.929412 0.168627
0.992157 0.913725 0.12549
0.188235 0.176471 0.290196
0.196078 0.172549 0.282353
0.321569 0.160784 0.294118
0.670588 0.211765 0.286275
0.996078 0.294118 0.309804
0.12549 0.262745 0.337255
0.152941 0.254902 0.321569
0.294118 0.243137 0.309804
0.627451 0.290196 0.301961
0.996078 0.364706 0.32549
0.109804 0.466667 0.329412
0.121569 0.47451 0.337255
0.270588 0.419608 0.329412
0.576471 0.439216 0.321569
0.996078 0.498039 0.352941
0.145098 0.686275 0.313725
0.160784 0.682353 0.32549
0.294118 0.658824 0.341176
0.52549 0.65098 0.32549
0.992157 0.670588 0.317647
0.196078 0.933333 0.32549
0.211765 0.933333 0.32549
0.337255 0.929412 0.356863
0.564706 0.929412 0.337255
0.988235 0.913725 0.301961
0.168627 0.231373 0.435294
0.184314 0.231373 0.435294
0.305882 0.215686 0.435294
0.635294 0.211765 0.439216
0.996078 0.294118 0.439216
0.105882 0.305882 0.482353
0.121569 0.305882 0.470588
0.290196 0.298039 0.447059
0.615686 0.290196 0.454902
0.996078 0.364706 0.458824
0.0509804 0.521569 0.517647
0.0627451 0.509804 0.513725
0.203922 0.470588 0.505882
0.560784 0.443137 0.47451
0.996078 0.517647 0.498039
0.0784314 0.74902 0.47451
0.0941176 0.74902 0.478431
0.211765 0.713725 0.482353
0.541176 0.65098 0.494118
0.992157 0.690196 0.501961
0.141176 0.968627 0.458824
0.145098 0.964706 0.458824
0.27451 0.94902 0.478431
0.588235 0.92549 0.517647
0.992157 0.917647 0.482353
0.184314 0.27451 0.580392
0.196078 0.270588 0.572549
0.305882 0.262745 0.560784
0.588235 0.211765 0.564706
0.996078 0.290196 0.572549
0.129412 0.333333 0.619608
0.145098 0.341176 0.611765
0.286275 0.341176 0.580392
0.596078 0.301961 0.572549
0.996078 0.364706 0.588235
0.0862745 0.517647 0.647059
0.0901961 0.521569 0.658824
0.184314 0.490196 0.643137
0.545098 0.443137 0.580392
0.996078 0.517647 0.615686
0.054902 0.756863 0.631373
0.0588235 0.768627 0.647059
0.141176 0.764706 0.654902
0.501961 0.686275 0.607843
0.992157 0.721569 0.623529
0.105882 0.992157 0.596078
0.109804 0.996078 0.6
0.188235 0.996078 0.603922
0.560784 0.92549 0.623529
0.988235 0.929412 0.603922
0.2 0.309804 0.701961
0.211765 0.309804 0.701961
0.313725 0.305882 0.694118
0.592157 0.243137 0.686275
0.992157 0.290196 0.682353
0.156863 0.372549 0.737255
0.168627 0.364706 0.737255
0.294118 0.372549 0.705882
0.588235 0.32549 0.698039
0.992157 0.360784 0.698039
0.12549 0.521569 0.752941
0.129412 0.521569 0.764706
0.196078 0.505882 0.768627
0.572549 0.490196 0.709804
0.992157 0.521569 0.721569
0.054902 0.745098 0.752941
0.0627451 0.752941 0.760784
0.117647 0.768627 0.788235
0.47451 0.709804 0.729412
0.992157 0.737255 0.729412
0.0941176 0.996078 0.733333
0.0980392 0.996078 0.733333
0.156863 0.992157 0.729412
0.505882 0.956863 0.717647
0.988235 0.929412 0.705882
