assets/luts/cinematic/Bright .cube
#Generated by Picture Instruments - Unlimited Filters
TITLE "Bright "
LUT_3D_SIZE 17
0.054902 0.0196078 0.0235294
0.117647 0.0235294 0.0235294
0.203922 0.0235294 0.0235294
0.266667 0.0235294 0.027451
0.317647 0.0196078 0.0196078
0.376471 0.0235294 0.0235294
0.454902 0.0235294 0.027451
0.529412 0.0235294 0.0431373
0.584314 0.0235294 0.0470588
0.654902 0.0196078 0.0627451
0.713725 0.0235294 0.0666667
0.768627 0.0196078 0.0784314
0.811765 0.0235294 0.0862745
0.858824 0.0235294 0.0941176
0.913725 0.0235294 0.0980392
0.937255 0.0235294 0.109804
0.937255 0.0235294 0.109804
0.054902 0.0196078 0.0235294
0.117647 0.0235294 0.0235294
0.211765 0.0235294 0.0235294
0.27451 0.0235294 0.0235294
0.329412 0.0235294 0.0235294
0.384314 0.0235294 0.027451
0.454902 0.0235294 0.027451
0.529412 0.027451 0.0313725
0.584314 0.0431373 0.0431373
0.654902 0.0431373 0.0470588
0.709804 0.0313725 0.0470588
0.764706 0.0313725 0.0666667
0.815686 0.0431373 0.0705882
0.858824 0.027451 0.0745098
0.913725 0.0313725 0.0862745
0.937255 0.0313725 0.101961
0.937255 0.0313725 0.101961
0.0666667 0.113725 0.0196078
0.121569 0.113725 0.0235294
0.207843 0.0823529 0.0235294
0.282353 0.0980392 0.027451
0.337255 0.117647 0.027451
0.388235 0.12549 0.0235294
0.462745 0.133333 0.0235294
0.52549 0.137255 0.0235294
0.6 0.156863 0.0313725
0.666667 0.160784 0.0470588
0.709804 0.156863 0.0470588
0.768627 0.145098 0.0627451
0.819608 0.156863 0.0745098
0.858824 0.14902 0.0823529
0.913725 0.145098 0.0980392
0.937255 0.12549 0.101961
0.937255 0.12549 0.101961
0.0941176 0.227451 0.027451
0.137255 0.215686 0.0235294
0.207843 0.203922 0.0235294
0.286275 0.188235 0.027451
0.32549 0.196078 0.0196078
0.388235 0.203922 0.0235294
0.462745 0.211765 0.0235294
0.52549 0.219608 0.027451
0.592157 0.231373 0.0392157
0.658824 0.219608 0.0313725
0.713725 0.215686 0.0470588
0.768627 0.215686 0.0470588
0.815686 0.211765 0.0627451
0.854902 0.211765 0.0745098
0.905882 0.203922 0.0784314
0.937255 0.2 0.0941176
0.937255 0.184314 0.0941176
0.113725 0.32549 0.0313725
0.141176 0.309804 0.0313725
0.207843 0.290196 0.027451
0.258824 0.278431 0.0196078
0.333333 0.247059 0.0235294
0.388235 0.262745 0.0235294
0.458824 0.262745 0.0235294
0.529412 0.27451 0.0235294
0.588235 0.278431 0.0470588
0.666667 0.278431 0.0470588
0.709804 0.266667 0.0470588
0.764706 0.270588 0.0705882
0.811765 0.262745 0.0627451
0.858824 0.247059 0.0862745
0.905882 0.25098 0.0784314
0.937255 0.247059 0.0941176
0.933333 0.235294 0.0941176
0.12549 0.4 0.0509804
0.164706 0.380392 0.0509804
0.219608 0.356863 0.0431373
0.258824 0.345098 0.0235294
0.313725 0.313725 0.0235294
0.396078 0.301961 0.027451
0.458824 0.301961 0.027451
0.533333 0.313725 0.0235294
0.584314 0.309804 0.0352941
0.662745 0.317647 0.0392157
0.713725 0.309804 0.0470588
0.768627 0.301961 0.0431373
0.811765 0.301961 0.0666667
0.858824 0.298039 0.0705882
0.905882 0.290196 0.0823529
0.933333 0.282353 0.0941176
0.933333 0.266667 0.0862745
0.137255 0.470588 0.0745098
0.180392 0.454902 0.0705882
0.223529 0.431373 0.0784314
0.266667 0.411765 0.0470588
0.301961 0.4 0.0313725
0.380392 0.376471 0.0235294
0.458824 0.356863 0.0235294
0.52549 0.360784 0.0235294
0.588235 0.364706 0.0235294
0.658824 0.352941 0.0313725
0.705882 0.345098 0.0431373
0.764706 0.329412 0.0470588
0.811765 0.329412 0.0666667
0.858824 0.317647 0.0745098
0.901961 0.313725 0.0823529
0.933333 0.301961 0.0901961
0.933333 0.301961 0.0901961
0.160784 0.529412 0.0980392
0.203922 0.513725 0.0941176
0.227451 0.494118 0.0980392
0.266667 0.470588 0.0784314
0.294118 0.458824 0.0745098
0.376471 0.45098 0.0313725
0.462745 0.415686 0.0235294
0.52549 0.415686 0.027451
0.584314 0.411765 0.0313725
0.666667 0.392157 0.0470588
0.709804 0.388235 0.0509804
0.752941 0.376471 0.0470588
0.807843 0.368627 0.0705882
0.847059 0.345098 0.0666667
0.905882 0.345098 0.0705882
0.933333 0.34902 0.0823529
0.933333 0.333333 0.0823529
0.168627 0.580392 0.113725
0.2 0.572549 0.117647
0.231373 0.552941 0.117647
0.266667 0.537255 0.117647
0.294118 0.517647 0.113725
0.356863 0.498039 0.0666667
0.447059 0.490196 0.0196078
0.529412 0.458824 0.0196078
0.584314 0.45098 0.0313725
0.654902 0.447059 0.0392157
0.705882 0.431373 0.0470588
0.760784 0.419608 0.0470588
0.811765 0.423529 0.0666667
0.85098 0.411765 0.0745098
0.909804 0.403922 0.0745098
0.933333 0.403922 0.0823529
0.933333 0.388235 0.0901961
0.184314 0.623529 0.121569
0.215686 0.607843 0.129412
0.247059 0.596078 0.133333
0.278431 0.588235 0.129412
0.309804 0.568627 0.137255
0.372549 0.556863 0.109804
0.443137 0.545098 0.0627451
0.52549 0.537255 0.0313725
0.596078 0.517647 0.0431373
0.670588 0.509804 0.0470588
0.713725 0.509804 0.0470588
0.768627 0.501961 0.0666667
0.815686 0.501961 0.0666667
0.858824 0.494118 0.0784314
0.905882 0.494118 0.0823529
0.929412 0.486275 0.0784314
0.929412 0.486275 0.0784314
0.2 0.666667 0.156863
0.231373 0.666667 0.164706
0.266667 0.65098 0.168627
0.301961 0.639216 0.156863
0.345098 0.623529 0.160784
0.396078 0.615686 0.133333
0.466667 0.611765 0.0980392
0.541176 0.6 0.0470588
0.6 0.588235 0.0431373
0.67451 0.580392 0.0470588
0.721569 0.580392 0.0470588
0.768627 0.584314 0.0666667
0.811765 0.580392 0.0784314
0.847059 0.576471 0.0705882
0.905882 0.576471 0.0862745
0.92549 0.572549 0.0941176
0.929412 0.568627 0.0941176
0.207843 0.709804 0.176471
0.247059 0.705882 0.188235
0.282353 0.694118 0.188235
0.329412 0.682353 0.196078
0.364706 0.670588 0.192157
0.423529 0.666667 0.176471
0.494118 0.666667 0.121569
0.552941 0.670588 0.0980392
0.623529 0.662745 0.0470588
0.67451 0.647059 0.0470588
0.721569 0.647059 0.0431373
0.768627 0.643137 0.0666667
0.807843 0.643137 0.0627451
0.847059 0.65098 0.0745098
0.890196 0.647059 0.0784314
0.933333 0.647059 0.0941176
0.933333 0.647059 0.0941176
0.215686 0.741176 0.211765
0.266667 0.745098 0.219608
0.301961 0.733333 0.219608
0.360784 0.72549 0.215686
0.396078 0.717647 0.215686
0.45098 0.713725 0.2
0.509804 0.713725 0.14902
0.572549 0.713725 0.117647
0.635294 0.717647 0.0627451
0.686275 0.709804 0.0509804
0.721569 0.705882 0.0431373
0.764706 0.698039 0.0470588
0.8 0.705882 0.0470588
0.843137 0.705882 0.0627451
0.901961 0.705882 0.0823529
0.92549 0.705882 0.0980392
0.92549 0.705882 0.0980392
0.239216 0.780392 0.211765
0.282353 0.780392 0.235294
0.333333 0.772549 0.231373
0.372549 0.768627 0.227451
0.419608 0.760784 0.215686
0.478431 0.764706 0.203922
0.529412 0.764706 0.152941
0.588235 0.772549 0.113725
0.639216 0.772549 0.0901961
0.690196 0.776471 0.0431373
0.733333 0.772549 0.0470588
0.768627 0.768627 0.0470588
0.807843 0.760784 0.0392157
0.843137 0.760784 0.0666667
0.894118 0.764706 0.0784314
0.92549 0.768627 0.0901961
0.92549 0.768627 0.0901961
0.247059 0.815686 0.215686
0.286275 0.807843 0.215686
0.352941 0.807843 0.207843
0.4 0.803922 0.211765
0.45098 0.8 0.211765
0.498039 0.8 0.188235
0.54902 0.803922 0.152941
0.603922 0.815686 0.12549
0.654902 0.819608 0.0941176
0.698039 0.827451 0.0705882
0.737255 0.831373 0.0470588
0.776471 0.823529 0.0470588
0.811765 0.819608 0.0470588
0.85098 0.819608 0.0470588
0.894118 0.819608 0.0745098
0.917647 0.819608 0.0823529
0.917647 0.819608 0.0823529
0.25098 0.85098 0.2
0.301961 0.847059 0.2
0.364706 0.843137 0.203922
0.427451 0.843137 0.207843
0.478431 0.839216 0.2
0.521569 0.843137 0.176471
0.568627 0.854902 0.156863
0.611765 0.85098 0.133333
0.666667 0.858824 0.113725
0.701961 0.87451 0.0941176
0.745098 0.882353 0.0666667
0.780392 0.882353 0.0470588
0.811765 0.87451 0.0431373
0.85098 0.87451 0.0509804
0.901961 0.870588 0.0666667
0.921569 0.870588 0.0745098
0.921569 0.870588 0.0745098
0.25098 0.882353 0.2
0.305882 0.882353 0.196078
0.376471 0.878431 0.207843
0.439216 0.878431 0.207843
0.490196 0.878431 0.207843
0.533333 0.886275 0.196078
0.572549 0.890196 0.172549
0.623529 0.901961 0.156863
0.666667 0.905882 0.133333
0.705882 0.913725 0.113725
0.745098 0.913725 0.0941176
0.780392 0.917647 0.0705882
0.815686 0.917647 0.0431373
0.85098 0.917647 0.0627451
0.894118 0.917647 0.0666667
0.917647 0.917647 0.0666667
0.917647 0.917647 0.0666667
0.0588235 0.0196078 0.0509804
0.121569 0.0235294 0.0470588
0.203922 0.0235294 0.0666667
0.270588 0.027451 0.0862745
0.32549 0.0235294 0.0941176
0.388235 0.0235294 0.0980392
0.466667 0.0235294 0.101961
0.529412 0.0235294 0.101961
0.584314 0.0235294 0.0941176
0.658824 0.0235294 0.113725
0.713725 0.0235294 0.113725
0.768627 0.0235294 0.12549
0.819608 0.0235294 0.137255
0.858824 0.0235294 0.133333
0.913725 0.0235294 0.133333
0.937255 0.0235294 0.137255
0.937255 0.0235294 0.137255
0.054902 0.0705882 0.0666667
0.113725 0.0235294 0.0470588
0.203922 0.0235294 0.0666667
0.266667 0.0235294 0.0823529
0.313725 0.0235294 0.0745098
0.376471 0.0235294 0.0705882
0.45098 0.0235294 0.0980392
0.521569 0.0235294 0.0980392
0.588235 0.0313725 0.117647
0.65098 0.0313725 0.0901961
0.705882 0.0313725 0.117647
0.764706 0.0313725 0.113725
0.815686 0.0431373 0.113725
0.858824 0.0196078 0.113725
0.909804 0.0313725 0.12549
0.933333 0.0313725 0.133333
0.933333 0.0313725 0.133333
0.0862745 0.176471 0.0745098
0.117647 0.117647 0.0705882
0.2 0.0980392 0.0470588
0.282353 0.0980392 0.0666667
0.313725 0.117647 0.0745098
0.388235 0.141176 0.0823529
0.454902 0.133333 0.0784314
0.521569 0.156863 0.0980392
0.588235 0.156863 0.0980392
0.658824 0.168627 0.0980392
0.713725 0.164706 0.113725
0.760784 0.156863 0.117647
0.811765 0.160784 0.113725
0.862745 0.145098 0.113725
0.909804 0.137255 0.113725
0.937255 0.133333 0.113725
0.937255 0.12549 0.113725
0.0980392 0.266667 0.0862745
0.141176 0.227451 0.0784314
0.207843 0.211765 0.0784314
0.278431 0.188235 0.0666667
0.321569 0.203922 0.0627451
0.388235 0.211765 0.0823529
0.454902 0.219608 0.0784314
0.533333 0.227451 0.0862745
0.584314 0.231373 0.0980392
0.658824 0.227451 0.0901961
0.721569 0.223529 0.0980392
0.768627 0.215686 0.0980392
0.811765 0.219608 0.113725
0.858824 0.215686 0.109804
0.913725 0.211765 0.121569
0.941176 0.2 0.121569
0.937255 0.188235 0.113725
0.117647 0.34902 0.0980392
0.145098 0.313725 0.101961
0.215686 0.294118 0.0941176
0.266667 0.282353 0.0823529
0.333333 0.262745 0.0666667
0.384314 0.266667 0.0627451
0.45098 0.270588 0.0784314
0.52549 0.278431 0.0784314
0.580392 0.282353 0.0901961
0.666667 0.290196 0.101961
0.701961 0.278431 0.0980392
0.764706 0.282353 0.117647
0.811765 0.266667 0.0980392
0.858824 0.262745 0.109804
0.905882 0.25098 0.109804
0.933333 0.25098 0.117647
0.933333 0.231373 0.101961
0.137255 0.427451 0.12549
0.164706 0.4 0.117647
0.215686 0.376471 0.109804
0.266667 0.352941 0.109804
0.309804 0.333333 0.0980392
0.388235 0.309804 0.0705882
0.45098 0.313725 0.0862745
0.517647 0.32549 0.0941176
0.584314 0.32549 0.0980392
0.654902 0.317647 0.0941176
0.705882 0.317647 0.0941176
0.764706 0.317647 0.113725
0.811765 0.313725 0.113725
0.854902 0.298039 0.101961
0.905882 0.290196 0.113725
0.933333 0.270588 0.117647
0.933333 0.262745 0.0941176
0.141176 0.490196 0.129412
0.180392 0.462745 0.141176
0.223529 0.447059 0.129412
0.266667 0.415686 0.121569
0.298039 0.403922 0.0941176
0.372549 0.384314 0.0745098
0.458824 0.372549 0.0745098
0.52549 0.376471 0.0823529
0.584314 0.372549 0.0901961
0.65098 0.364706 0.0980392
0.717647 0.34902 0.0980392
0.768627 0.345098 0.101961
0.815686 0.333333 0.0980392
0.854902 0.317647 0.101961
0.909804 0.317647 0.101961
0.929412 0.313725 0.113725
0.929412 0.301961 0.0980392
0.160784 0.541176 0.160784
0.203922 0.521569 0.14902
0.235294 0.509804 0.160784
0.270588 0.486275 0.160784
0.294118 0.458824 0.137255
0.360784 0.447059 0.113725
0.454902 0.427451 0.0745098
0.517647 0.419608 0.0901961
0.580392 0.415686 0.0784314
0.662745 0.407843 0.0941176
0.713725 0.392157 0.0941176
0.760784 0.384314 0.0941176
0.811765 0.368627 0.101961
0.847059 0.356863 0.0980392
0.913725 0.34902 0.101961
0.933333 0.356863 0.0941176
0.933333 0.345098 0.0941176
0.176471 0.596078 0.180392
0.203922 0.576471 0.176471
0.239216 0.572549 0.176471
0.262745 0.541176 0.172549
0.294118 0.52549 0.172549
0.356863 0.501961 0.129412
0.435294 0.501961 0.0941176
0.521569 0.47451 0.0823529
0.580392 0.458824 0.0941176
0.662745 0.45098 0.0980392
0.705882 0.443137 0.101961
0.764706 0.431373 0.113725
0.807843 0.419608 0.0941176
0.85098 0.415686 0.0980392
0.909804 0.415686 0.113725
0.933333 0.411765 0.117647
0.933333 0.392157 0.0980392
0.188235 0.639216 0.180392
0.219608 0.623529 0.211765
0.254902 0.611765 0.2
0.282353 0.6 0.2
0.313725 0.592157 0.192157
0.364706 0.568627 0.172549
0.427451 0.552941 0.12549
0.517647 0.545098 0.0980392
0.584314 0.533333 0.0941176
0.666667 0.517647 0.0980392
0.713725 0.513725 0.101961
0.764706 0.517647 0.113725
0.815686 0.505882 0.101961
0.85098 0.513725 0.117647
0.905882 0.505882 0.113725
0.92549 0.494118 0.113725
0.929412 0.494118 0.101961
0.2 0.682353 0.227451
0.235294 0.666667 0.227451
0.266667 0.654902 0.227451
0.298039 0.647059 0.231373
0.333333 0.627451 0.215686
0.403922 0.619608 0.211765
0.47451 0.611765 0.14902
0.541176 0.603922 0.113725
0.596078 0.596078 0.0784314
0.682353 0.584314 0.0901961
0.721569 0.580392 0.0980392
0.772549 0.584314 0.0980392
0.815686 0.584314 0.113725
0.843137 0.584314 0.113725
0.905882 0.580392 0.117647
0.929412 0.580392 0.117647
0.929412 0.580392 0.101961
0.203922 0.721569 0.25098
0.247059 0.705882 0.258824
0.282353 0.701961 0.254902
0.333333 0.698039 0.25098
0.360784 0.682353 0.247059
0.423529 0.666667 0.231373
0.490196 0.670588 0.192157
0.54902 0.67451 0.152941
0.619608 0.666667 0.0941176
0.67451 0.654902 0.0823529
0.717647 0.65098 0.0941176
0.760784 0.647059 0.0980392
0.811765 0.65098 0.101961
0.847059 0.647059 0.0941176
0.898039 0.65098 0.0980392
0.92549 0.654902 0.109804
0.92549 0.647059 0.109804
0.227451 0.752941 0.270588
0.262745 0.74902 0.278431
0.305882 0.741176 0.278431
0.352941 0.733333 0.278431
0.392157 0.72549 0.266667
0.45098 0.721569 0.262745
0.501961 0.717647 0.215686
0.560784 0.721569 0.172549
0.623529 0.721569 0.117647
0.690196 0.717647 0.0980392
0.717647 0.709804 0.0823529
0.752941 0.705882 0.0784314
0.8 0.705882 0.0862745
0.847059 0.713725 0.0901961
0.890196 0.709804 0.0980392
0.92549 0.709804 0.113725
0.92549 0.709804 0.101961
0.235294 0.788235 0.278431
0.278431 0.784314 0.290196
0.337255 0.776471 0.290196
0.372549 0.772549 0.27451
0.415686 0.764706 0.262745
0.486275 0.764706 0.254902
0.529412 0.768627 0.223529
0.576471 0.768627 0.164706
0.627451 0.772549 0.12549
0.686275 0.772549 0.0941176
0.721569 0.772549 0.0823529
0.768627 0.768627 0.0784314
0.8 0.752941 0.0705882
0.85098 0.764706 0.0901961
0.894118 0.768627 0.0980392
0.921569 0.772549 0.101961
0.921569 0.772549 0.101961
0.247059 0.815686 0.270588
0.294118 0.811765 0.27451
0.352941 0.815686 0.27451
0.396078 0.815686 0.266667
0.447059 0.803922 0.254902
0.505882 0.803922 0.223529
0.545098 0.803922 0.207843
0.6 0.815686 0.172549
0.654902 0.823529 0.137255
0.690196 0.823529 0.109804
0.741176 0.831373 0.0784314
0.772549 0.823529 0.0745098
0.811765 0.819608 0.0784314
0.847059 0.819608 0.0666667
0.894118 0.819608 0.0745098
0.921569 0.819608 0.0941176
0.921569 0.819608 0.0941176
0.25098 0.85098 0.25098
0.305882 0.854902 0.262745
0.360784 0.843137 0.25098
0.415686 0.843137 0.243137
0.470588 0.839216 0.25098
0.529412 0.847059 0.231373
0.556863 0.85098 0.203922
0.611765 0.862745 0.176471
0.658824 0.858824 0.141176
0.694118 0.87451 0.113725
0.737255 0.882353 0.0941176
0.772549 0.882353 0.0745098
0.811765 0.882353 0.0745098
0.843137 0.87451 0.0627451
0.901961 0.87451 0.0745098
0.92549 0.882353 0.0745098
0.921569 0.878431 0.0784314
0.25098 0.882353 0.235294
0.309804 0.886275 0.231373
0.372549 0.882353 0.227451
0.435294 0.878431 0.231373
0.486275 0.882353 0.243137
0.537255 0.886275 0.223529
0.576471 0.890196 0.203922
0.619608 0.901961 0.172549
0.666667 0.905882 0.156863
0.701961 0.913725 0.129412
0.737255 0.913725 0.109804
0.776471 0.917647 0.0941176
0.811765 0.917647 0.0705882
0.85098 0.917647 0.0705882
0.894118 0.917647 0.0705882
0.917647 0.917647 0.0666667
0.917647 0.917647 0.0666667
0.0666667 0.0235294 0.156863
0.117647 0.0235294 0.156863
0.203922 0.0235294 0.164706
0.25098 0.0235294 0.172549
0.317647 0.0235294 0.176471
0.380392 0.0235294 0.192157
0.458824 0.0235294 0.192157
0.529412 0.0196078 0.192157
0.584314 0.0235294 0.192157
0.65098 0.0235294 0.211765
0.713725 0.0235294 0.207843
0.764706 0.0196078 0.192157
0.815686 0.0235294 0.211765
0.858824 0.0235294 0.211765
0.909804 0.027451 0.2
0.937255 0.0235294 0.192157
0.933333 0.0235294 0.180392
0.0588235 0.137255 0.172549
0.133333 0.0313725 0.176471
0.203922 0.0235294 0.164706
0.25098 0.027451 0.164706
0.294118 0.027451 0.172549
0.364706 0.0235294 0.188235
0.458824 0.0235294 0.192157
0.521569 0.0235294 0.192157
0.580392 0.0235294 0.180392
0.654902 0.0313725 0.188235
0.721569 0.0235294 0.211765
0.772549 0.0235294 0.192157
0.819608 0.0313725 0.196078
0.858824 0.0235294 0.196078
0.909804 0.0235294 0.172549
0.937255 0.0352941 0.188235
0.937255 0.0352941 0.188235
0.0588235 0.25098 0.164706
0.0980392 0.203922 0.184314
0.203922 0.117647 0.164706
0.266667 0.12549 0.172549
0.313725 0.12549 0.180392
0.376471 0.137255 0.168627
0.447059 0.133333 0.176471
0.513725 0.156863 0.184314
0.576471 0.156863 0.180392
0.658824 0.164706 0.180392
0.705882 0.156863 0.168627
0.760784 0.145098 0.180392
0.807843 0.156863 0.172549
0.854902 0.145098 0.172549
0.909804 0.137255 0.172549
0.941176 0.133333 0.180392
0.937255 0.121569 0.172549
0.0862745 0.333333 0.164706
0.12549 0.294118 0.176471
0.203922 0.227451 0.172549
0.262745 0.207843 0.156863
0.309804 0.215686 0.168627
0.372549 0.227451 0.164706
0.443137 0.243137 0.176471
0.501961 0.239216 0.172549
0.580392 0.235294 0.180392
0.643137 0.239216 0.180392
0.705882 0.247059 0.180392
0.764706 0.231373 0.184314
0.815686 0.227451 0.172549
0.858824 0.215686 0.176471
0.913725 0.215686 0.168627
0.933333 0.211765 0.172549
0.933333 0.188235 0.156863
0.121569 0.4 0.180392
0.145098 0.352941 0.180392
0.215686 0.317647 0.180392
0.258824 0.294118 0.172549
0.313725 0.278431 0.14902
0.380392 0.290196 0.156863
0.45098 0.290196 0.164706
0.52549 0.294118 0.176471
0.588235 0.301961 0.176471
0.658824 0.290196 0.180392
0.713725 0.290196 0.176471
0.768627 0.282353 0.180392
0.811765 0.270588 0.160784
0.854902 0.258824 0.164706
0.905882 0.262745 0.164706
0.937255 0.247059 0.152941
0.937255 0.239216 0.156863
0.141176 0.462745 0.211765
0.176471 0.423529 0.207843
0.219608 0.392157 0.2
0.262745 0.372549 0.184314
0.301961 0.352941 0.180392
0.384314 0.329412 0.137255
0.447059 0.333333 0.160784
0.517647 0.345098 0.160784
0.576471 0.34902 0.168627
0.654902 0.345098 0.176471
0.709804 0.345098 0.176471
0.760784 0.337255 0.156863
0.807843 0.32549 0.160784
0.858824 0.301961 0.152941
0.905882 0.294118 0.145098
0.937255 0.282353 0.14902
0.933333 0.270588 0.141176
0.156863 0.517647 0.215686
0.184314 0.498039 0.227451
0.219608 0.462745 0.215686
0.262745 0.439216 0.207843
0.301961 0.415686 0.196078
0.360784 0.403922 0.176471
0.443137 0.388235 0.141176
0.513725 0.388235 0.14902
0.568627 0.384314 0.164706
0.654902 0.380392 0.176471
0.709804 0.364706 0.168627
0.760784 0.360784 0.168627
0.807843 0.345098 0.14902
0.854902 0.345098 0.14902
0.905882 0.321569 0.152941
0.933333 0.317647 0.14902
0.933333 0.317647 0.141176
0.164706 0.564706 0.227451
0.2 0.541176 0.231373
0.235294 0.521569 0.243137
0.266667 0.501961 0.227451
0.294118 0.478431 0.211765
0.356863 0.454902 0.188235
0.45098 0.443137 0.14902
0.517647 0.427451 0.152941
0.584314 0.427451 0.152941
0.65098 0.415686 0.168627
0.701961 0.407843 0.152941
0.768627 0.4 0.14902
0.811765 0.380392 0.133333
0.858824 0.368627 0.14902
0.905882 0.352941 0.133333
0.933333 0.368627 0.133333
0.933333 0.360784 0.133333
0.184314 0.619608 0.25098
0.207843 0.592157 0.25098
0.235294 0.568627 0.25098
0.262745 0.552941 0.25098
0.290196 0.533333 0.231373
0.364706 0.513725 0.219608
0.447059 0.505882 0.172549
0.509804 0.478431 0.152941
0.576471 0.470588 0.152941
0.65098 0.458824 0.14902
0.709804 0.45098 0.152941
0.764706 0.435294 0.152941
0.811765 0.427451 0.133333
0.854902 0.435294 0.160784
0.905882 0.419608 0.129412
0.933333 0.419608 0.145098
0.933333 0.415686 0.14902
0.188235 0.654902 0.262745
0.223529 0.643137 0.266667
0.254902 0.623529 0.278431
0.278431 0.607843 0.270588
0.301961 0.592157 0.25098
0.376471 0.572549 0.231373
0.439216 0.560784 0.196078
0.517647 0.552941 0.141176
0.584314 0.537255 0.137255
0.662745 0.529412 0.137255
0.713725 0.52549 0.133333
0.772549 0.52549 0.152941
0.815686 0.521569 0.156863
0.847059 0.521569 0.152941
0.901961 0.513725 0.14902
0.933333 0.505882 0.133333
0.929412 0.494118 0.133333
0.203922 0.698039 0.278431
0.231373 0.682353 0.278431
0.258824 0.666667 0.294118
0.298039 0.654902 0.282353
0.333333 0.647059 0.27451
0.392157 0.631373 0.258824
0.45098 0.615686 0.223529
0.529412 0.619608 0.172549
0.6 0.603922 0.133333
0.670588 0.596078 0.133333
0.717647 0.596078 0.137255
0.752941 0.592157 0.137255
0.8 0.592157 0.137255
0.847059 0.584314 0.141176
0.901961 0.588235 0.137255
0.92549 0.584314 0.133333
0.929412 0.584314 0.129412
0.215686 0.733333 0.305882
0.243137 0.709804 0.301961
0.282353 0.705882 0.309804
0.317647 0.694118 0.301961
0.356863 0.690196 0.294118
0.431373 0.67451 0.278431
0.494118 0.67451 0.25098
0.545098 0.678431 0.207843
0.607843 0.670588 0.14902
0.670588 0.654902 0.129412
0.717647 0.654902 0.12549
0.760784 0.65098 0.121569
0.803922 0.654902 0.133333
0.843137 0.654902 0.129412
0.898039 0.654902 0.12549
0.929412 0.654902 0.129412
0.92549 0.654902 0.117647
0.223529 0.768627 0.317647
0.270588 0.756863 0.32549
0.301961 0.745098 0.329412
0.352941 0.741176 0.317647
0.376471 0.737255 0.317647
0.45098 0.721569 0.301961
0.513725 0.721569 0.266667
0.560784 0.721569 0.219608
0.615686 0.721569 0.168627
0.682353 0.721569 0.137255
0.717647 0.713725 0.117647
0.760784 0.705882 0.113725
0.803922 0.709804 0.121569
0.85098 0.717647 0.12549
0.894118 0.709804 0.121569
0.92549 0.713725 0.12549
0.92549 0.709804 0.113725
0.231373 0.796078 0.321569
0.27451 0.788235 0.333333
0.321569 0.780392 0.333333
0.368627 0.776471 0.32549
0.415686 0.772549 0.313725
0.478431 0.772549 0.305882
0.529412 0.772549 0.282353
0.572549 0.772549 0.227451
0.623529 0.772549 0.192157
0.686275 0.784314 0.14902
0.721569 0.784314 0.121569
0.760784 0.772549 0.117647
0.8 0.764706 0.109804
0.847059 0.776471 0.117647
0.894118 0.772549 0.113725
0.921569 0.776471 0.121569
0.921569 0.768627 0.117647
0.247059 0.819608 0.321569
0.294118 0.815686 0.317647
0.34902 0.815686 0.321569
0.388235 0.815686 0.317647
0.435294 0.807843 0.305882
0.501961 0.803922 0.294118
0.545098 0.807843 0.262745
0.603922 0.815686 0.227451
0.639216 0.815686 0.176471
0.690196 0.819608 0.156863
0.733333 0.835294 0.117647
0.772549 0.827451 0.109804
0.815686 0.823529 0.0980392
0.847059 0.811765 0.0941176
0.890196 0.819608 0.0980392
0.921569 0.823529 0.113725
0.921569 0.815686 0.113725
0.247059 0.854902 0.305882
0.301961 0.854902 0.305882
0.364706 0.854902 0.313725
0.415686 0.85098 0.305882
0.462745 0.85098 0.294118
0.52549 0.843137 0.298039
0.564706 0.858824 0.258824
0.607843 0.858824 0.235294
0.658824 0.866667 0.207843
0.686275 0.870588 0.172549
0.737255 0.87451 0.129412
0.772549 0.882353 0.113725
0.819608 0.882353 0.117647
0.847059 0.870588 0.0941176
0.898039 0.87451 0.0980392
0.921569 0.87451 0.0980392
0.917647 0.878431 0.0941176
0.25098 0.878431 0.294118
0.313725 0.890196 0.294118
0.384314 0.890196 0.294118
0.439216 0.890196 0.294118
0.482353 0.886275 0.290196
0.533333 0.882353 0.290196
0.572549 0.886275 0.258824
0.619608 0.898039 0.247059
0.666667 0.901961 0.211765
0.694118 0.909804 0.172549
0.737255 0.913725 0.14902
0.780392 0.917647 0.117647
0.819608 0.917647 0.101961
0.847059 0.913725 0.0941176
0.894118 0.913725 0.0941176
0.917647 0.917647 0.0784314
0.917647 0.917647 0.0784314
0.0823529 0.0235294 0.247059
0.121569 0.0235294 0.247059
0.203922 0.027451 0.258824
0.270588 0.0235294 0.239216
0.313725 0.027451 0.247059
0.356863 0.0235294 0.254902
0.454902 0.0235294 0.270588
0.52549 0.0235294 0.262745
0.588235 0.0235294 0.266667
0.662745 0.0235294 0.278431
0.709804 0.0196078 0.270588
0.768627 0.0235294 0.266667
0.819608 0.0235294 0.270588
0.862745 0.0235294 0.266667
