assets/luts/cinematic/Bright .cube
#Generated by Picture Instruments - Unlimited Filters
TITLE "Bright "
LUT_3D_SIZE 5
0.054902 0.0196078 0.0235294
0.317647 0.0196078 0.0196078
0.584314 0.0235294 0.0470588
0.811765 0.0235294 0.0862745
0.937255 0.0235294 0.109804
0.113725 0.32549 0.0313725
0.333333 0.247059 0.0235294
0.588235 0.278431 0.0470588
0.811765 0.262745 0.0627451
0.933333 0.235294 0.0941176
0.168627 0.580392 0.113725
0.294118 0.517647 0.113725
0.584314 0.45098 0.0313725
0.811765 0.423529 0.0666667
0.933333 0.388235 0.0901961
0.215686 0.741176 0.211765
0.396078 0.717647 0.215686
0.635294 0.717647 0.0627451
0.8 0.705882 0.0470588
0.92549 0.705882 0.0980392
0.25098 0.882353 0.2
0.490196 0.878431 0.207843
0.666667 0.905882 0.133333
0.815686 0.917647 0.0431373
0.917647 0.917647 0.0666667
0.0941176 0.0235294 0.321569
0.321569 0.0235294 0.305882
0.584314 0.0235294 0.337255
0.815686 0.0235294 0.313725
0.941176 0.0235294 0.294118
0.0509804 0.521569 0.333333
0.282353 0.313725 0.321569
0.572549 0.317647 0.309804
0.807843 0.290196 0.27451
0.937255 0.239216 0.254902
0.145098 0.662745 0.364706
0.25098 0.568627 0.341176
0.568627 0.490196 0.258824
0.811765 0.458824 0.25098
0.933333 0.435294 0.231373
0.219608 0.788235 0.415686
0.360784 0.745098 0.419608
0.611765 0.72549 0.294118
0.8 0.721569 0.2
0.92549 0.717647 0.2
0.247059 0.882353 0.396078
0.466667 0.894118 0.4
0.654902 0.901961 0.309804
0.811765 0.921569 0.184314
0.917647 0.913725 0.160784
0.12549 0.0470588 0.560784
0.239216 0.0470588 0.541176
0.560784 0.0745098 0.521569
0.8 0.0470588 0.521569
0.933333 0.0235294 0.454902
0.0509804 0.568627 0.584314
0.12549 0.360784 0.556863
0.537255 0.356863 0.509804
0.807843 0.294118 0.458824
0.937255 0.25098 0.403922
0.0588235 0.780392 0.584314
0.054902 0.686275 0.556863
0.537255 0.52549 0.498039
0.807843 0.505882 0.466667
0.937255 0.486275 0.454902
0.0862745 0.858824 0.580392
0.219608 0.807843 0.560784
0.6 0.74902 0.54902
0.784314 0.741176 0.482353
0.933333 0.745098 0.486275
0.137255 0.917647 0.576471
0.380392 0.905882 0.576471
0.647059 0.913725 0.588235
0.8 0.917647 0.533333
0.92549 0.921569 0.52549
0.164706 0.0980392 0.741176
0.239216 0.0980392 0.733333
0.52549 0.113725 0.721569
0.768627 0.145098 0.709804
0.909804 0.133333 0.701961
0.0588235 0.576471 0.768627
0.12549 0.388235 0.737255
0.498039 0.380392 0.717647
0.768627 0.368627 0.694118
0.917647 0.333333 0.698039
0.054902 0.796078 0.768627
0.054902 0.694118 0.752941
0.462745 0.552941 0.72549
0.772549 0.54902 0.709804
0.92549 0.537255 0.721569
0.054902 0.913725 0.764706
0.054902 0.866667 0.756863
0.407843 0.835294 0.760784
0.796078 0.760784 0.741176
0.937255 0.760784 0.741176
0.054902 0.933333 0.764706
0.196078 0.937255 0.760784
0.498039 0.937255 0.74902
0.831373 0.917647 0.768627
0.929412 0.92549 0.752941
0.196078 0.129412 0.882353
0.25098 0.129412 0.890196
0.447059 0.129412 0.886275
0.760784 0.180392 0.870588
0.901961 0.184314 0.870588
0.0862745 0.584314 0.913725
0.192157 0.423529 0.886275
0.411765 0.403922 0.890196
0.752941 0.388235 0.886275
0.909804 0.380392 0.882353
0.054902 0.8 0.913725
0.054902 0.690196 0.913725
0.34902 0.568627 0.898039
0.768627 0.580392 0.894118
0.913725 0.584314 0.890196
0.054902 0.909804 0.913725
0.054902 0.866667 0.913725
0.286275 0.823529 0.913725
0.792157 0.772549 0.909804
0.921569 0.784314 0.905882
0.054902 0.933333 0.917647
0.054902 0.933333 0.913725
0.309804 0.933333 0.909804
0.788235 0.929412 0.913725
0.933333 0.929412 0.913725
