assets/luts/cinematic/Bright .cube
#Generated by Picture Instruments - Unlimited Filters
TITLE "Bright "
LUT_3D_SIZE 9
0.054902 0.0196078 0.0235294
0.203922 0.0235294 0.0235294
0.317647 0.0196078 0.0196078
0.454902 0.0235294 0.027451
0.584314 0.0235294 0.0470588
0.713725 0.0235294 0.0666667
0.811765 0.0235294 0.0862745
0.913725 0.0235294 0.0980392
0.937255 0.0235294 0.109804
0.0666667 0.113725 0.0196078
0.207843 0.0823529 0.0235294
0.337255 0.117647 0.027451
0.462745 0.133333 0.0235294
0.6 0.156863 0.0313725
0.709804 0.156863 0.0470588
0.819608 0.156863 0.0745098
0.913725 0.145098 0.0980392
0.937255 0.12549 0.101961
0.113725 0.32549 0.0313725
0.207843 0.290196 0.027451
0.333333 0.247059 0.0235294
0.458824 0.262745 0.0235294
0.588235 0.278431 0.0470588
0.709804 0.266667 0.0470588
0.811765 0.262745 0.0627451
0.905882 0.25098 0.0784314
0.933333 0.235294 0.0941176
0.137255 0.470588 0.0745098
0.223529 0.431373 0.0784314
0.301961 0.4 0.0313725
0.458824 0.356863 0.0235294
0.588235 0.364706 0.0235294
0.705882 0.345098 0.0431373
0.811765 0.329412 0.0666667
0.901961 0.313725 0.0823529
0.933333 0.301961 0.0901961
0.168627 0.580392 0.113725
0.231373 0.552941 0.117647
0.294118 0.517647 0.113725
0.447059 0.490196 0.0196078
0.584314 0.45098 0.0313725
0.705882 0.431373 0.0470588
0.811765 0.423529 0.0666667
0.909804 0.403922 0.0745098
0.933333 0.388235 0.0901961
0.2 0.666667 0.156863
0.266667 0.65098 0.168627
0.345098 0.623529 0.160784
0.466667 0.611765 0.0980392
0.6 0.588235 0.0431373
0.721569 0.580392 0.0470588
0.811765 0.580392 0.0784314
0.905882 0.576471 0.0862745
0.929412 0.568627 0.0941176
0.215686 0.741176 0.211765
0.301961 0.733333 0.219608
0.396078 0.717647 0.215686
0.509804 0.713725 0.14902
0.635294 0.717647 0.0627451
0.721569 0.705882 0.0431373
0.8 0.705882 0.0470588
0.901961 0.705882 0.0823529
0.92549 0.705882 0.0980392
0.247059 0.815686 0.215686
0.352941 0.807843 0.207843
0.45098 0.8 0.211765
0.54902 0.803922 0.152941
0.654902 0.819608 0.0941176
0.737255 0.831373 0.0470588
0.811765 0.819608 0.0470588
0.894118 0.819608 0.0745098
0.917647 0.819608 0.0823529
0.25098 0.882353 0.2
0.376471 0.878431 0.207843
0.490196 0.878431 0.207843
0.572549 0.890196 0.172549
0.666667 0.905882 0.133333
0.745098 0.913725 0.0941176
0.815686 0.917647 0.0431373
0.894118 0.917647 0.0666667
0.917647 0.917647 0.0666667
0.0666667 0.0235294 0.156863
0.203922 0.0235294 0.164706
0.317647 0.0235294 0.176471
0.458824 0.0235294 0.192157
0.584314 0.0235294 0.192157
0.713725 0.0235294 0.207843
0.815686 0.0235294 0.211765
0.909804 0.027451 0.2
0.933333 0.0235294 0.180392
0.0588235 0.25098 0.164706
0.203922 0.117647 0.164706
0.313725 0.12549 0.180392
0.447059 0.133333 0.176471
0.576471 0.156863 0.180392
0.705882 0.156863 0.168627
0.807843 0.156863 0.172549
0.909804 0.137255 0.172549
0.937255 0.121569 0.172549
0.121569 0.4 0.180392
0.215686 0.317647 0.180392
0.313725 0.278431 0.14902
0.45098 0.290196 0.164706
0.588235 0.301961 0.176471
0.713725 0.290196 0.176471
0.811765 0.270588 0.160784
0.905882 0.262745 0.164706
0.937255 0.239216 0.156863
0.156863 0.517647 0.215686
0.219608 0.462745 0.215686
0.301961 0.415686 0.196078
0.443137 0.388235 0.141176
0.568627 0.384314 0.164706
0.709804 0.364706 0.168627
0.807843 0.345098 0.14902
0.905882 0.321569 0.152941
0.933333 0.317647 0.141176
0.184314 0.619608 0.25098
0.235294 0.568627 0.25098
0.290196 0.533333 0.231373
0.447059 0.505882 0.172549
0.576471 0.470588 0.152941
0.709804 0.45098 0.152941
0.811765 0.427451 0.133333
0.905882 0.419608 0.129412
0.933333 0.415686 0.14902
0.203922 0.698039 0.278431
0.258824 0.666667 0.294118
0.333333 0.647059 0.27451
0.45098 0.615686 0.223529
0.6 0.603922 0.133333
0.717647 0.596078 0.137255
0.8 0.592157 0.137255
0.901961 0.588235 0.137255
0.929412 0.584314 0.129412
0.223529 0.768627 0.317647
0.301961 0.745098 0.329412
0.376471 0.737255 0.317647
0.513725 0.721569 0.266667
0.615686 0.721569 0.168627
0.717647 0.713725 0.117647
0.803922 0.709804 0.121569
0.894118 0.709804 0.121569
0.92549 0.709804 0.113725
0.247059 0.819608 0.321569
0.34902 0.815686 0.321569
0.435294 0.807843 0.305882
0.545098 0.807843 0.262745
0.639216 0.815686 0.176471
0.733333 0.835294 0.117647
0.815686 0.823529 0.0980392
0.890196 0.819608 0.0980392
0.921569 0.815686 0.113725
0.25098 0.878431 0.294118
0.384314 0.890196 0.294118
0.482353 0.886275 0.290196
0.572549 0.886275 0.258824
0.666667 0.901961 0.211765
0.737255 0.913725 0.14902
0.819608 0.917647 0.101961
0.894118 0.913725 0.0941176
0.917647 0.917647 0.0784314
0.0941176 0.0235294 0.321569
0.196078 0.0235294 0.32549
0.321569 0.0235294 0.305882
0.443137 0.0470588 0.321569
0.584314 0.0235294 0.337255
0.717647 0.027451 0.321569
0.815686 0.0235294 0.313725
0.909804 0.0235294 0.305882
0.941176 0.0235294 0.294118
0.0588235 0.313725 0.337255
0.188235 0.188235 0.321569
0.298039 0.145098 0.317647
0.435294 0.184314 0.317647
0.560784 0.176471 0.32549
0.713725 0.164706 0.309804
0.815686 0.156863 0.298039
0.901961 0.137255 0.294118
0.941176 0.133333 0.282353
0.0509804 0.521569 0.333333
0.156863 0.427451 0.317647
0.282353 0.313725 0.321569
0.431373 0.317647 0.32549
0.572549 0.317647 0.309804
0.701961 0.313725 0.294118
0.807843 0.290196 0.27451
0.909804 0.266667 0.262745
0.937255 0.239216 0.254902
0.113725 0.596078 0.333333
0.172549 0.533333 0.333333
0.270588 0.454902 0.321569
0.435294 0.415686 0.290196
0.568627 0.411765 0.27451
0.705882 0.388235 0.27451
0.815686 0.368627 0.262745
0.901961 0.34902 0.243137
0.933333 0.333333 0.231373
0.145098 0.662745 0.364706
0.203922 0.623529 0.356863
0.25098 0.568627 0.341176
0.431373 0.513725 0.294118
0.568627 0.490196 0.258824
0.701961 0.470588 0.25098
0.811765 0.458824 0.25098
0.901961 0.443137 0.231373
0.933333 0.435294 0.231373
0.172549 0.737255 0.392157
0.231373 0.705882 0.392157
0.298039 0.65098 0.376471
0.458824 0.623529 0.341176
0.603922 0.627451 0.25098
0.705882 0.603922 0.231373
0.807843 0.6 0.231373
0.894118 0.596078 0.227451
0.929412 0.596078 0.223529
0.219608 0.788235 0.415686
0.294118 0.764706 0.415686
0.360784 0.745098 0.419608
0.513725 0.733333 0.384314
0.611765 0.72549 0.294118
0.709804 0.721569 0.215686
0.8 0.721569 0.2
0.894118 0.717647 0.211765
0.92549 0.717647 0.2
0.243137 0.827451 0.419608
0.337255 0.827451 0.419608
0.423529 0.819608 0.411765
0.541176 0.811765 0.384314
0.635294 0.819608 0.309804
0.72549 0.827451 0.227451
0.807843 0.831373 0.172549
0.894118 0.823529 0.164706
0.921569 0.831373 0.180392
0.247059 0.882353 0.396078
0.360784 0.886275 0.4
0.466667 0.894118 0.4
0.572549 0.890196 0.380392
0.654902 0.901961 0.309804
0.729412 0.913725 0.254902
0.811765 0.921569 0.184314
0.894118 0.917647 0.168627
0.917647 0.913725 0.160784
0.117647 0.0313725 0.454902
0.184314 0.0313725 0.45098
0.298039 0.0431373 0.443137
0.447059 0.0470588 0.435294
0.556863 0.0745098 0.427451
0.701961 0.0313725 0.439216
0.803922 0.0235294 0.419608
0.909804 0.0235294 0.415686
0.937255 0.0235294 0.384314
0.0588235 0.333333 0.47451
0.164706 0.211765 0.447059
0.270588 0.180392 0.447059
0.427451 0.188235 0.423529
0.556863 0.215686 0.431373
0.705882 0.188235 0.423529
0.807843 0.156863 0.4
0.909804 0.133333 0.376471
0.937255 0.12549 0.360784
0.054902 0.564706 0.470588
0.0862745 0.498039 0.482353
0.215686 0.364706 0.454902
0.423529 0.34902 0.435294
0.54902 0.34902 0.423529
0.690196 0.313725 0.419608
0.8 0.301961 0.384314
0.901961 0.278431 0.364706
0.941176 0.25098 0.333333
0.054902 0.670588 0.462745
0.0941176 0.623529 0.462745
0.172549 0.537255 0.454902
0.396078 0.454902 0.427451
0.54902 0.435294 0.419608
0.690196 0.411765 0.388235
0.807843 0.388235 0.364706
0.905882 0.368627 0.337255
0.937255 0.364706 0.333333
0.0862745 0.733333 0.47451
0.117647 0.686275 0.462745
0.152941 0.623529 0.443137
0.423529 0.537255 0.419608
0.560784 0.509804 0.384314
0.701961 0.494118 0.372549
0.815686 0.482353 0.360784
0.913725 0.470588 0.337255
0.933333 0.458824 0.333333
0.113725 0.784314 0.478431
0.184314 0.74902 0.466667
0.231373 0.701961 0.458824
0.45098 0.658824 0.454902
0.576471 0.631373 0.4
0.701961 0.623529 0.376471
0.8 0.623529 0.360784
0.894118 0.615686 0.356863
0.929412 0.607843 0.341176
0.145098 0.815686 0.505882
0.223529 0.8 0.486275
0.298039 0.776471 0.490196
0.501961 0.745098 0.482353
0.603922 0.737255 0.439216
0.705882 0.741176 0.376471
0.8 0.72549 0.352941
0.901961 0.733333 0.360784
0.929412 0.733333 0.345098
0.192157 0.862745 0.501961
0.298039 0.843137 0.494118
0.392157 0.831373 0.501961
0.52549 0.831373 0.501961
0.631373 0.823529 0.462745
0.713725 0.827451 0.396078
0.8 0.839216 0.360784
0.894118 0.831373 0.356863
0.921569 0.835294 0.364706
0.219608 0.898039 0.490196
0.345098 0.890196 0.501961
0.443137 0.890196 0.505882
0.556863 0.901961 0.498039
0.65098 0.898039 0.478431
0.721569 0.913725 0.439216
0.803922 0.917647 0.392157
0.894118 0.92549 0.372549
0.921569 0.921569 0.372549
0.12549 0.0470588 0.560784
0.152941 0.0470588 0.560784
0.239216 0.0470588 0.541176
0.431373 0.0745098 0.541176
0.560784 0.0745098 0.521569
0.690196 0.0941176 0.521569
0.8 0.0470588 0.521569
0.898039 0.0235294 0.482353
0.933333 0.0235294 0.454902
0.054902 0.352941 0.580392
0.137255 0.243137 0.560784
0.219608 0.211765 0.541176
0.419608 0.215686 0.537255
0.54902 0.227451 0.517647
0.690196 0.219608 0.501961
0.8 0.184314 0.501961
0.901961 0.145098 0.462745
0.937255 0.133333 0.435294
0.0509804 0.568627 0.584314
0.054902 0.494118 0.572549
0.12549 0.360784 0.556863
0.407843 0.356863 0.537255
0.537255 0.356863 0.509804
0.690196 0.333333 0.501961
0.807843 0.294118 0.458824
0.913725 0.266667 0.431373
0.937255 0.25098 0.403922
0.054902 0.701961 0.568627
0.054902 0.654902 0.572549
0.0666667 0.588235 0.568627
0.356863 0.470588 0.533333
0.529412 0.458824 0.505882
0.686275 0.427451 0.482353
0.796078 0.403922 0.45098
0.905882 0.388235 0.431373
0.937255 0.384314 0.431373
0.0588235 0.780392 0.584314
0.0588235 0.737255 0.560784
0.054902 0.686275 0.556863
0.345098 0.588235 0.537255
0.537255 0.52549 0.498039
0.682353 0.52549 0.486275
0.807843 0.505882 0.466667
0.905882 0.498039 0.462745
0.937255 0.486275 0.454902
0.054902 0.819608 0.584314
0.0666667 0.792157 0.568627
0.133333 0.74902 0.541176
0.372549 0.686275 0.541176
0.576471 0.643137 0.517647
0.690196 0.635294 0.482353
0.803922 0.639216 0.482353
0.901961 0.631373 0.466667
0.933333 0.627451 0.466667
0.0862745 0.858824 0.580392
0.141176 0.831373 0.576471
0.219608 0.807843 0.560784
0.443137 0.768627 0.556863
0.6 0.74902 0.54902
0.690196 0.745098 0.505882
0.784314 0.741176 0.482353
0.894118 0.745098 0.490196
0.933333 0.745098 0.486275
0.117647 0.894118 0.584314
0.211765 0.882353 0.572549
0.317647 0.858824 0.564706
0.501961 0.835294 0.580392
0.631373 0.831373 0.568627
0.709804 0.827451 0.537255
0.803922 0.843137 0.501961
0.898039 0.839216 0.505882
0.92549 0.839216 0.509804
0.137255 0.917647 0.576471
0.270588 0.913725 0.572549
0.380392 0.905882 0.576471
0.537255 0.901961 0.584314
0.647059 0.913725 0.588235
0.717647 0.913725 0.580392
0.8 0.917647 0.533333
0.894118 0.92549 0.529412
0.92549 0.921569 0.52549
0.137255 0.0745098 0.662745
0.164706 0.0745098 0.662745
0.223529 0.0745098 0.65098
0.388235 0.0862745 0.643137
0.556863 0.113725 0.627451
0.678431 0.117647 0.611765
0.776471 0.133333 0.623529
0.87451 0.0901961 0.607843
0.921569 0.0666667 0.6
0.101961 0.364706 0.670588
0.137255 0.25098 0.65098
0.188235 0.231373 0.647059
0.364706 0.239216 0.635294
0.541176 0.235294 0.623529
0.67451 0.247059 0.603922
0.780392 0.239216 0.611765
0.890196 0.203922 0.6
0.929412 0.164706 0.572549
0.0588235 0.572549 0.682353
0.0588235 0.501961 0.666667
0.0901961 0.380392 0.658824
0.333333 0.368627 0.631373
0.537255 0.372549 0.619608
0.670588 0.364706 0.607843
0.788235 0.333333 0.588235
0.890196 0.294118 0.580392
0.929412 0.270588 0.572549
0.0588235 0.705882 0.678431
0.054902 0.65098 0.670588
0.054902 0.556863 0.654902
0.266667 0.47451 0.647059
0.541176 0.458824 0.619608
0.670588 0.45098 0.596078
0.788235 0.423529 0.596078
0.905882 0.407843 0.584314
0.937255 0.392157 0.584314
0.054902 0.788235 0.67451
0.054902 0.752941 0.666667
0.0509804 0.694118 0.658824
0.207843 0.635294 0.662745
0.521569 0.54902 0.619608
0.666667 0.537255 0.603922
0.796078 0.533333 0.603922
0.901961 0.513725 0.596078
0.937255 0.517647 0.607843
0.054902 0.85098 0.666667
0.054902 0.823529 0.666667
0.0509804 0.788235 0.65098
0.235294 0.760784 0.662745
0.501961 0.701961 0.643137
0.67451 0.662745 0.627451
0.792157 0.662745 0.635294
0.905882 0.658824 0.623529
0.941176 0.654902 0.627451
0.054902 0.882353 0.67451
0.0588235 0.87451 0.670588
0.0509804 0.858824 0.670588
0.313725 0.823529 0.65098
0.529412 0.780392 0.647059
0.701961 0.752941 0.65098
0.792157 0.74902 0.631373
0.901961 0.756863 0.643137
0.933333 0.756863 0.627451
0.0588235 0.917647 0.690196
0.0823529 0.917647 0.666667
0.188235 0.909804 0.666667
0.376471 0.882353 0.658824
0.584314 0.843137 0.662745
0.717647 0.839216 0.666667
0.792157 0.839216 0.643137
0.894118 0.843137 0.639216
0.929412 0.847059 0.65098
0.054902 0.933333 0.678431
0.152941 0.933333 0.666667
0.258824 0.929412 0.666667
0.423529 0.921569 0.662745
0.603922 0.909804 0.67451
0.737255 0.913725 0.690196
0.8 0.913725 0.662745
0.898039 0.92549 0.65098
0.929412 0.921569 0.662745
0.164706 0.0980392 0.741176
0.192157 0.113725 0.741176
0.239216 0.0980392 0.733333
0.364706 0.0980392 0.729412
0.52549 0.113725 0.721569
0.67451 0.133333 0.709804
0.768627 0.145098 0.709804
0.85098 0.164706 0.709804
0.909804 0.133333 0.701961
0.133333 0.380392 0.745098
0.164706 0.278431 0.737255
0.203922 0.25098 0.729412
0.345098 0.25098 0.721569
0.517647 0.25098 0.717647
0.67451 0.266667 0.709804
0.768627 0.266667 0.701961
0.858824 0.266667 0.709804
0.917647 0.239216 0.694118
0.0588235 0.576471 0.768627
0.054902 0.494118 0.752941
0.12549 0.388235 0.737255
0.313725 0.380392 0.72549
0.498039 0.380392 0.717647
0.666667 0.376471 0.709804
0.768627 0.368627 0.694118
0.870588 0.34902 0.698039
0.917647 0.333333 0.698039
0.054902 0.705882 0.760784
0.0509804 0.654902 0.756863
0.054902 0.576471 0.752941
0.243137 0.47451 0.733333
0.482353 0.47451 0.721569
0.662745 0.458824 0.709804
0.768627 0.462745 0.705882
0.87451 0.447059 0.709804
0.921569 0.435294 0.717647
0.054902 0.796078 0.768627
0.0509804 0.74902 0.74902
0.054902 0.694118 0.752941
0.164706 0.623529 0.760784
0.462745 0.552941 0.72549
0.666667 0.560784 0.721569
0.772549 0.54902 0.709804
0.890196 0.54902 0.72549
0.92549 0.537255 0.721569
0.054902 0.866667 0.764706
0.0588235 0.831373 0.752941
0.0588235 0.792157 0.74902
0.137255 0.784314 0.768627
0.396078 0.717647 0.764706
0.678431 0.670588 0.72549
0.780392 0.670588 0.729412
0.905882 0.666667 0.737255
0.937255 0.658824 0.737255
0.054902 0.913725 0.764706
0.054902 0.894118 0.760784
0.054902 0.866667 0.756863
0.137255 0.866667 0.772549
0.407843 0.835294 0.760784
0.666667 0.792157 0.741176
0.796078 0.760784 0.741176
0.909804 0.764706 0.741176
0.937255 0.760784 0.741176
0.054902 0.921569 0.760784
0.054902 0.921569 0.760784
0.054902 0.921569 0.760784
0.2 0.921569 0.772549
0.439216 0.905882 0.756863
0.686275 0.862745 0.74902
0.815686 0.847059 0.752941
0.909804 0.847059 0.74902
0.937255 0.858824 0.752941
0.054902 0.933333 0.764706
0.117647 0.937255 0.756863
0.196078 0.937255 0.760784
0.321569 0.937255 0.74902
0.498039 0.937255 0.74902
0.713725 0.913725 0.760784
0.831373 0.917647 0.768627
0.905882 0.929412 0.756863
0.929412 0.92549 0.752941
0.184314 0.117647 0.811765
0.2 0.117647 0.819608
0.254902 0.117647 0.815686
0.352941 0.117647 0.807843
0.482353 0.121569 0.8
0.647059 0.137255 0.796078
0.768627 0.156863 0.792157
0.847059 0.176471 0.788235
0.901961 0.180392 0.788235
0.164706 0.403922 0.819608
0.184314 0.298039 0.807843
0.207843 0.270588 0.815686
0.32549 0.278431 0.819608
0.462745 0.278431 0.819608
0.643137 0.278431 0.796078
0.768627 0.282353 0.792157
0.847059 0.278431 0.792157
0.901961 0.282353 0.788235
0.0588235 0.580392 0.843137
0.0980392 0.498039 0.831373
0.164706 0.411765 0.815686
0.298039 0.392157 0.807843
0.454902 0.396078 0.807843
0.643137 0.384314 0.8
0.768627 0.380392 0.796078
0.858824 0.376471 0.792157
0.909804 0.376471 0.788235
0.0509804 0.705882 0.847059
0.054902 0.65098 0.843137
0.054902 0.568627 0.835294
0.243137 0.486275 0.819608
0.435294 0.482353 0.811765
0.627451 0.47451 0.8
0.768627 0.47451 0.796078
0.870588 0.470588 0.796078
0.909804 0.482353 0.8
0.0588235 0.796078 0.843137
0.0588235 0.74902 0.843137
0.054902 0.690196 0.843137
0.137255 0.619608 0.843137
0.392157 0.568627 0.823529
0.627451 0.572549 0.815686
0.772549 0.572549 0.803922
0.866667 0.568627 0.811765
0.913725 0.576471 0.811765
0.054902 0.862745 0.847059
0.054902 0.831373 0.843137
0.054902 0.792157 0.839216
0.054902 0.776471 0.870588
0.321569 0.709804 0.862745
0.647059 0.678431 0.819608
0.784314 0.682353 0.827451
0.878431 0.682353 0.819608
0.921569 0.686275 0.827451
0.0588235 0.913725 0.847059
0.054902 0.894118 0.847059
0.0588235 0.870588 0.839216
0.0588235 0.882353 0.878431
0.290196 0.843137 0.870588
0.607843 0.796078 0.85098
0.8 0.776471 0.831373
0.894118 0.772549 0.835294
0.929412 0.776471 0.839216
0.054902 0.929412 0.847059
0.054902 0.92549 0.843137
0.0588235 0.913725 0.847059
0.0509804 0.933333 0.870588
0.301961 0.921569 0.866667
0.619608 0.901961 0.858824
0.792157 0.870588 0.835294
0.909804 0.858824 0.835294
0.933333 0.854902 0.839216
0.0509804 0.933333 0.847059
0.0941176 0.933333 0.839216
0.129412 0.933333 0.847059
0.231373 0.937255 0.843137
0.392157 0.937255 0.847059
0.658824 0.933333 0.843137
0.811765 0.92549 0.843137
0.905882 0.92549 0.843137
0.933333 0.92549 0.843137
0.196078 0.129412 0.882353
0.203922 0.133333 0.886275
0.25098 0.129412 0.890196
0.333333 0.133333 0.890196
0.447059 0.129412 0.886275
0.627451 0.152941 0.878431
0.760784 0.180392 0.870588
0.85098 0.180392 0.870588
0.901961 0.184314 0.870588
0.196078 0.415686 0.890196
0.2 0.309804 0.890196
0.223529 0.286275 0.894118
0.317647 0.286275 0.894118
0.431373 0.282353 0.890196
0.607843 0.286275 0.890196
0.74902 0.294118 0.87451
0.847059 0.294118 0.878431
0.905882 0.286275 0.870588
0.0862745 0.584314 0.913725
0.133333 0.505882 0.894118
0.192157 0.423529 0.886275
0.282353 0.403922 0.886275
0.411765 0.403922 0.890196
0.607843 0.392157 0.890196
0.752941 0.388235 0.886275
0.858824 0.392157 0.87451
0.909804 0.380392 0.882353
0.054902 0.709804 0.913725
0.054902 0.654902 0.913725
0.0901961 0.580392 0.909804
0.219608 0.490196 0.894118
0.376471 0.486275 0.886275
0.596078 0.482353 0.894118
0.756863 0.486275 0.890196
0.862745 0.486275 0.886275
0.909804 0.486275 0.882353
0.054902 0.8 0.913725
0.054902 0.74902 0.909804
0.054902 0.690196 0.913725
0.137255 0.615686 0.913725
0.34902 0.568627 0.898039
0.596078 0.580392 0.898039
0.768627 0.580392 0.894118
0.870588 0.580392 0.890196
0.913725 0.584314 0.890196
0.054902 0.858824 0.913725
0.054902 0.831373 0.913725
0.0509804 0.792157 0.909804
0.129412 0.760784 0.913725
0.278431 0.713725 0.917647
0.607843 0.678431 0.898039
0.776471 0.682353 0.901961
0.878431 0.694118 0.898039
0.917647 0.686275 0.901961
0.054902 0.909804 0.913725
0.054902 0.894118 0.913725
0.054902 0.866667 0.913725
0.129412 0.839216 0.913725
0.286275 0.823529 0.913725
0.592157 0.788235 0.917647
0.792157 0.772549 0.909804
0.894118 0.780392 0.901961
0.921569 0.784314 0.905882
0.0509804 0.929412 0.913725
0.054902 0.921569 0.917647
0.054902 0.913725 0.913725
0.12549 0.909804 0.909804
0.301961 0.901961 0.917647
0.603922 0.882353 0.913725
0.788235 0.866667 0.917647
0.909804 0.862745 0.909804
0.929412 0.862745 0.905882
0.054902 0.933333 0.917647
0.054902 0.933333 0.913725
0.054902 0.933333 0.913725
0.152941 0.929412 0.909804
0.309804 0.933333 0.909804
0.619608 0.929412 0.909804
0.788235 0.929412 0.913725
0.909804 0.929412 0.913725
0.933333 0.929412 0.913725
