assets/luts/cinematic/CineMagic NT N30P.cube
#Generated by Picture Instruments - Unlimited Filters
TITLE "CineMagic NT N30P"
LUT_3D_SIZE 17
0.00392157 0 0
0.0235294 0 0
0.054902 0.00784314 0.00784314
0.0980392 0.00392157 0.00392157
0.14902 0.00784314 0.00784314
0.215686 0.0156863 0.0117647
0.305882 0.0156863 0.0117647
0.435294 0.027451 0.0235294
0.537255 0.0313725 0.0313725
0.643137 0.0392157 0.0392157
0.717647 0.0431373 0.0431373
0.788235 0.0509804 0.0470588
0.835294 0.0509804 0.0509804
0.870588 0.0666667 0.054902
0.901961 0.0705882 0.054902
0.92549 0.0823529 0.0627451
0.945098 0.0784314 0.0588235
0.00392157 0.00392157 0.00392157
0.0196078 0.00392157 0
0.054902 0.0117647 0.00392157
0.0901961 0.0117647 0.00784314
0.145098 0.0117647 0.00392157
0.207843 0.0196078 0.00392157
0.286275 0.0313725 0.0156863
0.407843 0.0431373 0.0235294
0.537255 0.0627451 0.0313725
0.647059 0.0705882 0.0431373
0.709804 0.0705882 0.0431373
0.792157 0.0823529 0.0470588
0.843137 0.0941176 0.054902
0.87451 0.0980392 0.054902
0.901961 0.109804 0.054902
0.92549 0.109804 0.0588235
0.937255 0.109804 0.0588235
0.00784314 0.0156863 0.00392157
0.0313725 0.0156863 0.00392157
0.054902 0.0196078 0
0.0901961 0.0196078 0.00392157
0.152941 0.0313725 0.0117647
0.227451 0.0431373 0.0117647
0.321569 0.054902 0.0117647
0.411765 0.0666667 0.0196078
0.564706 0.0941176 0.0313725
0.654902 0.0980392 0.0431373
0.741176 0.105882 0.0470588
0.788235 0.109804 0.0470588
0.835294 0.12549 0.0509804
0.878431 0.137255 0.054902
0.901961 0.152941 0.0509804
0.929412 0.160784 0.0588235
0.941176 0.160784 0.0509804
0.00392157 0.0509804 0.00392157
0.0313725 0.0431373 0.00784314
0.054902 0.0431373 0.00784314
0.0941176 0.0431373 0.00784314
0.141176 0.054902 0.00392157
0.215686 0.0705882 0.00784314
0.305882 0.0901961 0.0117647
0.415686 0.109804 0.0196078
0.572549 0.141176 0.0431373
0.65098 0.14902 0.0431373
0.733333 0.152941 0.0431373
0.788235 0.164706 0.0509804
0.843137 0.172549 0.0627451
0.87451 0.180392 0.0509804
0.901961 0.184314 0.0509804
0.929412 0.207843 0.054902
0.941176 0.207843 0.054902
0.00784314 0.109804 0.00392157
0.027451 0.0980392 0.0117647
0.0588235 0.0941176 0.0117647
0.0901961 0.0980392 0.0117647
0.141176 0.0941176 0.00784314
0.219608 0.109804 0.00392157
0.305882 0.129412 0.0156863
0.439216 0.164706 0.027451
0.560784 0.192157 0.0313725
0.658824 0.203922 0.0431373
0.729412 0.215686 0.0431373
0.796078 0.227451 0.0431373
0.843137 0.235294 0.0470588
0.878431 0.25098 0.054902
0.905882 0.27451 0.0588235
0.921569 0.266667 0.0588235
0.945098 0.266667 0.0588235
0.0117647 0.172549 0.00784314
0.0352941 0.160784 0
0.0666667 0.164706 0.00784314
0.0980392 0.160784 0.00784314
0.152941 0.152941 0.00392157
0.239216 0.164706 0.00784314
0.352941 0.203922 0.0196078
0.466667 0.239216 0.027451
0.568627 0.25098 0.0352941
0.682353 0.270588 0.0431373
0.756863 0.294118 0.0509804
0.811765 0.305882 0.0509804
0.843137 0.301961 0.0470588
0.886275 0.333333 0.0509804
0.905882 0.34902 0.0588235
0.929412 0.352941 0.0509804
0.941176 0.34902 0.0509804
0.0117647 0.266667 0.00784314
0.0313725 0.262745 0.0117647
0.0588235 0.247059 0.00392157
0.105882 0.262745 0.00784314
0.168627 0.290196 0.0156863
0.231373 0.254902 0.0196078
0.32549 0.266667 0.0117647
0.462745 0.301961 0.027451
0.6 0.333333 0.0392157
0.678431 0.337255 0.0352941
0.752941 0.364706 0.0470588
0.807843 0.380392 0.054902
0.854902 0.403922 0.054902
0.882353 0.415686 0.0470588
0.901961 0.419608 0.0509804
0.929412 0.431373 0.0588235
0.941176 0.431373 0.0588235
0.0156863 0.368627 0.00784314
0.0431373 0.384314 0.0117647
0.0705882 0.360784 0.0117647
0.105882 0.356863 0.0156863
0.156863 0.380392 0.0117647
0.239216 0.423529 0.0235294
0.34902 0.419608 0.027451
0.47451 0.380392 0.027451
0.588235 0.407843 0.0352941
0.678431 0.419608 0.0431373
0.756863 0.439216 0.0509804
0.8 0.458824 0.0431373
0.847059 0.47451 0.0509804
0.878431 0.498039 0.054902
0.901961 0.505882 0.0509804
0.92549 0.513725 0.0509804
0.945098 0.501961 0.0509804
0.0196078 0.486275 0.0156863
0.0470588 0.482353 0.0156863
0.0745098 0.498039 0.0196078
0.109804 0.501961 0.0156863
0.160784 0.498039 0.0196078
0.235294 0.517647 0.027451
0.356863 0.552941 0.0235294
0.478431 0.537255 0.0313725
0.584314 0.498039 0.0313725
0.670588 0.505882 0.0352941
0.752941 0.521569 0.0509804
0.811765 0.545098 0.0470588
0.85098 0.564706 0.0509804
0.870588 0.568627 0.0588235
0.898039 0.576471 0.0470588
0.929412 0.572549 0.0509804
0.941176 0.564706 0.0431373
0.0235294 0.592157 0.0156863
0.0431373 0.584314 0.0156863
0.0823529 0.588235 0.0196078
0.12549 0.592157 0.027451
0.180392 0.611765 0.027451
0.262745 0.627451 0.0352941
0.368627 0.639216 0.0313725
0.494118 0.639216 0.0313725
0.611765 0.603922 0.0352941
0.698039 0.6 0.0431373
0.752941 0.603922 0.0431373
0.815686 0.615686 0.054902
0.847059 0.635294 0.0470588
0.878431 0.643137 0.0509804
0.905882 0.65098 0.054902
0.929412 0.639216 0.0470588
0.941176 0.639216 0.0431373
0.0235294 0.686275 0.027451
0.054902 0.686275 0.027451
0.0823529 0.682353 0.0235294
0.129412 0.67451 0.027451
0.176471 0.694118 0.0235294
0.25098 0.705882 0.027451
0.368627 0.721569 0.0352941
0.498039 0.729412 0.0392157
0.611765 0.729412 0.0470588
0.686275 0.698039 0.0431373
0.760784 0.686275 0.0431373
0.807843 0.701961 0.0470588
0.847059 0.701961 0.0509804
0.878431 0.713725 0.0470588
0.898039 0.709804 0.0431373
0.933333 0.709804 0.054902
0.945098 0.705882 0.0470588
0.0313725 0.760784 0.027451
0.0509804 0.756863 0.0235294
0.0823529 0.760784 0.0235294
0.121569 0.760784 0.0352941
0.180392 0.772549 0.0313725
0.258824 0.772549 0.027451
0.368627 0.788235 0.0431373
0.494118 0.788235 0.0470588
0.607843 0.792157 0.0470588
0.682353 0.788235 0.0470588
0.745098 0.768627 0.0392157
0.807843 0.760784 0.0392157
0.85098 0.772549 0.0470588
0.878431 0.776471 0.0509804
0.901961 0.768627 0.0509804
0.92549 0.768627 0.0509804
0.937255 0.768627 0.0509804
0.0392157 0.815686 0.027451
0.0588235 0.815686 0.027451
0.0862745 0.811765 0.027451
0.129412 0.815686 0.027451
0.2 0.819608 0.0313725
0.290196 0.827451 0.0352941
0.376471 0.823529 0.0313725
0.501961 0.831373 0.0470588
0.623529 0.835294 0.0509804
0.705882 0.839216 0.0509804
0.768627 0.839216 0.054902
0.811765 0.811765 0.0431373
0.847059 0.815686 0.0509804
0.882353 0.819608 0.0470588
0.905882 0.811765 0.0509804
0.929412 0.811765 0.0431373
0.937255 0.811765 0.0431373
0.0352941 0.858824 0.0235294
0.0627451 0.862745 0.027451
0.0901961 0.862745 0.0313725
0.145098 0.866667 0.0352941
0.188235 0.866667 0.027451
0.282353 0.870588 0.0352941
0.380392 0.87451 0.0352941
0.505882 0.878431 0.0392157
0.603922 0.870588 0.0509804
0.698039 0.878431 0.054902
0.760784 0.878431 0.0627451
0.819608 0.878431 0.0666667
0.85098 0.866667 0.0470588
0.882353 0.866667 0.0470588
0.905882 0.858824 0.0509804
0.929412 0.858824 0.0588235
0.937255 0.85098 0.0509804
0.0392157 0.901961 0.0313725
0.0666667 0.894118 0.0352941
0.0941176 0.894118 0.0235294
0.14902 0.901961 0.0352941
0.203922 0.905882 0.0313725
0.27451 0.901961 0.0313725
0.384314 0.905882 0.0392157
0.501961 0.909804 0.0431373
0.607843 0.909804 0.0470588
0.694118 0.909804 0.0627451
0.752941 0.913725 0.0588235
0.811765 0.901961 0.0627451
0.854902 0.905882 0.0745098
0.882353 0.901961 0.054902
0.905882 0.901961 0.0588235
0.929412 0.894118 0.0509804
0.941176 0.894118 0.0470588
0.0392157 0.92549 0.0352941
0.0784314 0.929412 0.0392157
0.105882 0.929412 0.0313725
0.145098 0.929412 0.027451
0.227451 0.929412 0.0431373
0.317647 0.933333 0.0431373
0.411765 0.933333 0.0431373
0.505882 0.929412 0.0431373
0.623529 0.929412 0.054902
0.698039 0.937255 0.054902
0.760784 0.937255 0.0627451
0.823529 0.933333 0.0627451
0.85098 0.929412 0.0705882
0.886275 0.933333 0.0705882
0.909804 0.933333 0.0705882
0.933333 0.92549 0.054902
0.941176 0.92549 0.054902
0.0352941 0.941176 0.0352941
0.0666667 0.937255 0.0352941
0.101961 0.945098 0.0313725
0.145098 0.945098 0.027451
0.219608 0.945098 0.0352941
0.305882 0.941176 0.0392157
0.376471 0.945098 0.0352941
0.490196 0.945098 0.0470588
0.6 0.945098 0.0470588
0.678431 0.945098 0.054902
0.74902 0.945098 0.0627451
0.8 0.94902 0.0588235
0.85098 0.945098 0.0705882
0.886275 0.945098 0.0705882
0.905882 0.945098 0.0627451
0.929412 0.945098 0.0666667
0.941176 0.945098 0.0666667
0.00392157 0.00392157 0.0117647
0.027451 0.00392157 0.00392157
0.0509804 0.00392157 0.00392157
0.0941176 0.00784314 0.0156863
0.14902 0.00784314 0.0156863
0.223529 0.00784314 0.0196078
0.313725 0.0156863 0.0313725
0.411765 0.0235294 0.0431373
0.533333 0.0352941 0.0509804
0.65098 0.0431373 0.0745098
0.729412 0.0431373 0.0705882
0.792157 0.0509804 0.0784314
0.839216 0.0588235 0.0784314
0.87451 0.0666667 0.0823529
0.905882 0.0705882 0.0862745
0.929412 0.0823529 0.0941176
0.941176 0.0823529 0.0901961
0.00784314 0.00784314 0.00784314
0.0235294 0.00784314 0.00392157
0.054902 0.00784314 0.0156863
0.0901961 0.0117647 0.0156863
0.145098 0.0235294 0.0156863
0.215686 0.027451 0.0196078
0.298039 0.0313725 0.0352941
0.407843 0.0509804 0.0470588
0.54902 0.0666667 0.0627451
0.643137 0.0588235 0.0666667
0.717647 0.0666667 0.0666667
0.788235 0.0823529 0.0784314
0.835294 0.0901961 0.0862745
0.87451 0.0941176 0.0823529
0.901961 0.105882 0.0901961
0.929412 0.109804 0.0823529
0.945098 0.109804 0.0862745
0.00392157 0.0235294 0.00784314
0.0196078 0.0156863 0.00784314
0.0470588 0.0156863 0.00784314
0.0980392 0.0196078 0.0156863
0.145098 0.0313725 0.0156863
0.211765 0.0431373 0.0196078
0.290196 0.054902 0.0235294
0.403922 0.0705882 0.0431373
0.529412 0.0941176 0.0588235
0.639216 0.101961 0.0627451
0.729412 0.109804 0.0666667
0.784314 0.113725 0.0823529
0.839216 0.12549 0.0823529
0.87451 0.14902 0.0784314
0.901961 0.14902 0.0901961
0.92549 0.152941 0.0862745
0.945098 0.156863 0.0823529
0.00784314 0.054902 0.0156863
0.0313725 0.0431373 0.0156863
0.0627451 0.0431373 0.0117647
0.0901961 0.0392157 0.00784314
0.14902 0.054902 0.0156863
0.215686 0.0745098 0.027451
0.321569 0.0941176 0.0392157
0.431373 0.113725 0.0392157
0.537255 0.133333 0.0666667
0.662745 0.145098 0.0705882
0.741176 0.14902 0.0745098
0.792157 0.164706 0.0784314
0.835294 0.160784 0.0823529
0.878431 0.176471 0.0862745
0.909804 0.188235 0.0862745
0.929412 0.203922 0.0823529
0.941176 0.203922 0.0823529
0.00784314 0.101961 0.0156863
0.027451 0.0980392 0.0117647
0.0627451 0.0941176 0.0117647
0.0980392 0.0941176 0.0156863
0.152941 0.0941176 0.0117647
0.215686 0.105882 0.0196078
0.313725 0.137255 0.0313725
0.435294 0.164706 0.0431373
0.556863 0.2 0.0627451
0.654902 0.207843 0.0666667
0.741176 0.215686 0.0705882
0.8 0.227451 0.0745098
0.843137 0.231373 0.0745098
0.882353 0.25098 0.0862745
0.905882 0.258824 0.0823529
0.92549 0.266667 0.0823529
0.941176 0.266667 0.0862745
0.00784314 0.184314 0.0156863
0.0313725 0.180392 0.0196078
0.054902 0.164706 0.0156863
0.0980392 0.168627 0.0196078
0.14902 0.164706 0.0235294
0.211765 0.152941 0.0235294
0.321569 0.196078 0.0352941
0.423529 0.215686 0.0431373
0.568627 0.254902 0.0627451
0.666667 0.27451 0.0705882
0.737255 0.286275 0.0705882
0.788235 0.290196 0.0823529
0.843137 0.317647 0.0784314
0.878431 0.333333 0.0784314
0.905882 0.34902 0.0901961
0.92549 0.360784 0.0823529
0.945098 0.34902 0.0823529
0.0117647 0.270588 0.0196078
0.0431373 0.262745 0.0235294
0.0705882 0.258824 0.0235294
0.105882 0.254902 0.0235294
0.152941 0.25098 0.0235294
0.235294 0.247059 0.0313725
0.34902 0.262745 0.0352941
0.47451 0.301961 0.054902
0.6 0.337255 0.0705882
0.670588 0.337255 0.0745098
0.760784 0.360784 0.0705882
0.811765 0.380392 0.0784314
0.843137 0.403922 0.0823529
0.87451 0.4 0.0745098
0.901961 0.423529 0.0745098
0.933333 0.431373 0.0901961
0.941176 0.431373 0.0862745
0.0156863 0.380392 0.0313725
0.0392157 0.376471 0.0196078
0.0705882 0.364706 0.0313725
0.105882 0.360784 0.0313725
0.168627 0.380392 0.0352941
0.25098 0.411765 0.0431373
0.337255 0.368627 0.0431373
0.462745 0.376471 0.0509804
0.584314 0.403922 0.0588235
0.694118 0.431373 0.0745098
0.74902 0.431373 0.0745098
0.803922 0.458824 0.0705882
0.847059 0.478431 0.0823529
0.882353 0.494118 0.0862745
0.905882 0.505882 0.0745098
0.929412 0.513725 0.0823529
0.941176 0.505882 0.0823529
0.0156863 0.490196 0.0470588
0.0470588 0.478431 0.0392157
0.0705882 0.498039 0.0392157
0.109804 0.482353 0.0392157
0.168627 0.501961 0.0431373
0.239216 0.509804 0.0431373
0.34902 0.545098 0.054902
0.470588 0.541176 0.0627451
0.6 0.498039 0.0627451
0.686275 0.505882 0.0705882
0.760784 0.52549 0.0784314
0.803922 0.545098 0.0823529
0.847059 0.556863 0.0745098
0.878431 0.572549 0.0862745
0.901961 0.572549 0.0823529
0.92549 0.576471 0.0823529
0.937255 0.564706 0.0823529
0.0196078 0.603922 0.0431373
0.0470588 0.6 0.0509804
0.0823529 0.588235 0.0470588
0.121569 0.603922 0.0470588
0.172549 0.607843 0.054902
0.235294 0.619608 0.0509804
0.337255 0.635294 0.054902
0.490196 0.658824 0.0627451
0.6 0.627451 0.0705882
0.67451 0.588235 0.0588235
0.74902 0.6 0.0627451
0.807843 0.615686 0.0784314
0.85098 0.635294 0.0784314
0.878431 0.65098 0.0784314
0.901961 0.647059 0.0823529
0.92549 0.643137 0.0784314
0.941176 0.643137 0.0784314
0.0235294 0.686275 0.054902
0.0509804 0.678431 0.0431373
0.0823529 0.670588 0.0470588
0.121569 0.678431 0.0431373
0.184314 0.698039 0.054902
0.266667 0.705882 0.0627451
0.380392 0.721569 0.0666667
0.498039 0.729412 0.0705882
0.596078 0.72549 0.0705882
0.694118 0.694118 0.0666667
0.768627 0.690196 0.0745098
0.807843 0.698039 0.0666667
0.847059 0.694118 0.0784314
0.87451 0.701961 0.0784314
0.901961 0.713725 0.0784314
0.929412 0.713725 0.0823529
0.941176 0.713725 0.0784314
0.027451 0.764706 0.0588235
0.0588235 0.760784 0.0588235
0.0823529 0.760784 0.054902
0.12549 0.756863 0.0588235
0.180392 0.764706 0.0588235
0.258824 0.776471 0.0627451
0.360784 0.784314 0.0705882
0.490196 0.784314 0.0745098
0.607843 0.788235 0.0666667
0.690196 0.792157 0.0705882
0.752941 0.764706 0.0784314
0.807843 0.760784 0.0745098
0.847059 0.772549 0.0745098
0.87451 0.768627 0.0745098
0.905882 0.764706 0.0745098
0.92549 0.768627 0.0784314
0.937255 0.760784 0.0784314
0.027451 0.827451 0.0588235
0.0509804 0.819608 0.0509804
0.0862745 0.815686 0.0509804
0.129412 0.815686 0.0588235
0.188235 0.819608 0.0588235
0.258824 0.835294 0.0588235
0.356863 0.831373 0.0588235
0.494118 0.835294 0.0784314
0.603922 0.839216 0.0784314
0.686275 0.843137 0.0784314
0.74902 0.839216 0.0784314
0.803922 0.823529 0.0745098
0.85098 0.815686 0.0784314
0.878431 0.819608 0.0705882
0.905882 0.823529 0.0823529
0.929412 0.815686 0.0784314
0.941176 0.815686 0.0745098
0.0313725 0.858824 0.0627451
0.0627451 0.858824 0.0588235
0.0941176 0.862745 0.0627451
0.141176 0.858824 0.0588235
0.192157 0.866667 0.0588235
0.282353 0.870588 0.0588235
0.392157 0.866667 0.0705882
0.498039 0.870588 0.0705882
0.6 0.866667 0.0784314
0.701961 0.87451 0.0862745
0.764706 0.878431 0.0862745
0.823529 0.870588 0.0941176
0.85098 0.858824 0.0823529
0.87451 0.862745 0.0745098
0.905882 0.854902 0.0705882
0.929412 0.854902 0.0784314
0.941176 0.85098 0.0745098
0.0352941 0.898039 0.0666667
0.0588235 0.894118 0.0627451
0.0941176 0.898039 0.054902
0.137255 0.901961 0.0627451
0.207843 0.901961 0.0666667
0.278431 0.901961 0.054902
0.384314 0.905882 0.0705882
0.501961 0.913725 0.0745098
0.607843 0.905882 0.0823529
0.678431 0.905882 0.0901961
0.760784 0.909804 0.0901961
0.811765 0.901961 0.0980392
0.858824 0.909804 0.109804
0.882353 0.898039 0.0823529
0.901961 0.894118 0.0745098
0.933333 0.890196 0.0823529
0.937255 0.890196 0.0784314
0.0313725 0.92549 0.0666667
0.0666667 0.929412 0.0666667
0.0980392 0.929412 0.0588235
0.14902 0.929412 0.054902
0.207843 0.929412 0.0666667
0.294118 0.933333 0.0666667
0.380392 0.933333 0.0745098
0.498039 0.933333 0.0823529
0.592157 0.933333 0.0784314
0.686275 0.933333 0.0980392
0.752941 0.933333 0.0980392
0.803922 0.933333 0.0980392
0.854902 0.933333 0.0980392
0.882353 0.933333 0.101961
0.909804 0.933333 0.105882
0.929412 0.933333 0.0901961
0.941176 0.92549 0.0862745
0.0392157 0.941176 0.0666667
0.0627451 0.941176 0.0588235
0.0980392 0.94902 0.0588235
0.14902 0.945098 0.0509804
0.207843 0.945098 0.0627451
0.294118 0.941176 0.0666667
0.380392 0.945098 0.0666667
0.490196 0.945098 0.0823529
0.588235 0.945098 0.0784314
0.686275 0.945098 0.0862745
0.74902 0.941176 0.0862745
0.807843 0.945098 0.0941176
0.854902 0.945098 0.0980392
0.886275 0.945098 0.101961
0.909804 0.941176 0.101961
0.929412 0.945098 0.0941176
0.941176 0.941176 0.0941176
0.00392157 0.00392157 0.0117647
0.0196078 0.00392157 0.00784314
0.0470588 0.00784314 0.0117647
0.0823529 0.00784314 0.0156863
0.133333 0.00784314 0.027451
0.203922 0.0117647 0.0352941
0.290196 0.0156863 0.0470588
0.388235 0.0235294 0.0666667
0.533333 0.0392157 0.0862745
0.635294 0.0431373 0.109804
0.72549 0.0509804 0.113725
0.780392 0.0509804 0.105882
0.831373 0.054902 0.121569
0.87451 0.0666667 0.117647
0.905882 0.0745098 0.121569
0.92549 0.0823529 0.113725
0.945098 0.0823529 0.113725
0.00784314 0.0117647 0.0196078
0.027451 0.00784314 0.0156863
0.0588235 0.0117647 0.0196078
0.0941176 0.0156863 0.0196078
0.137255 0.0196078 0.027451
0.211765 0.0313725 0.0431373
0.309804 0.0313725 0.0470588
0.423529 0.0470588 0.0705882
0.52549 0.054902 0.0901961
0.631373 0.0705882 0.0941176
0.733333 0.0784314 0.117647
0.788235 0.0823529 0.109804
0.839216 0.0901961 0.117647
0.87451 0.0941176 0.121569
0.905882 0.109804 0.121569
0.929412 0.113725 0.12549
0.937255 0.113725 0.121569
0.00392157 0.027451 0.0117647
0.0313725 0.0156863 0.0196078
0.054902 0.0156863 0.0196078
0.0980392 0.0196078 0.0235294
0.14902 0.0313725 0.0313725
0.215686 0.0431373 0.0392157
0.305882 0.054902 0.0470588
0.407843 0.0705882 0.0666667
0.529412 0.0901961 0.0980392
0.654902 0.105882 0.101961
0.721569 0.101961 0.0980392
0.788235 0.113725 0.113725
0.839216 0.12549 0.113725
0.87451 0.141176 0.121569
0.898039 0.141176 0.121569
0.933333 0.160784 0.12549
0.945098 0.160784 0.121569
0 0.0627451 0.0196078
0.0235294 0.0627451 0.0196078
0.0470588 0.0470588 0.0156863
0.0823529 0.0392157 0.0156863
0.145098 0.054902 0.0313725
0.207843 0.0745098 0.0352941
0.298039 0.0941176 0.0509804
0.396078 0.105882 0.0627451
0.529412 0.133333 0.0941176
0.643137 0.141176 0.0980392
0.729412 0.156863 0.105882
0.796078 0.168627 0.113725
0.835294 0.164706 0.113725
0.878431 0.180392 0.12549
0.901961 0.2 0.121569
0.929412 0.203922 0.12549
0.945098 0.203922 0.121569
0.00784314 0.109804 0.027451
0.0352941 0.109804 0.0313725
0.0627451 0.0980392 0.0313725
0.0901961 0.0941176 0.0313725
0.145098 0.0823529 0.0235294
0.207843 0.101961 0.0352941
0.32549 0.137255 0.0588235
0.447059 0.164706 0.0705882
0.556863 0.2 0.0941176
0.647059 0.192157 0.101961
0.737255 0.211765 0.0980392
0.796078 0.227451 0.113725
0.843137 0.235294 0.117647
0.878431 0.231373 0.121569
0.905882 0.25098 0.117647
0.92549 0.258824 0.109804
0.941176 0.266667 0.117647
0.0117647 0.192157 0.0392157
0.0313725 0.172549 0.0313725
0.0666667 0.172549 0.0352941
0.0941176 0.160784 0.027451
0.145098 0.164706 0.0392157
0.227451 0.164706 0.0352941
0.317647 0.184314 0.0470588
0.431373 0.227451 0.0705882
0.556863 0.25098 0.0980392
0.658824 0.278431 0.101961
0.745098 0.286275 0.113725
0.796078 0.294118 0.109804
0.843137 0.309804 0.113725
0.870588 0.32549 0.109804
0.905882 0.337255 0.121569
0.933333 0.34902 0.129412
0.937255 0.337255 0.12549
0.00784314 0.282353 0.0470588
0.0352941 0.27451 0.0431373
0.0588235 0.270588 0.0431373
0.0941176 0.254902 0.0431373
0.14902 0.262745 0.0431373
0.219608 0.270588 0.0509804
0.317647 0.247059 0.0509804
0.447059 0.305882 0.0705882
0.556863 0.32549 0.0980392
0.670588 0.341176 0.0980392
0.74902 0.364706 0.109804
0.8 0.380392 0.113725
0.839216 0.392157 0.113725
0.878431 0.411765 0.113725
0.898039 0.423529 0.105882
0.929412 0.431373 0.121569
0.941176 0.431373 0.117647
0.0117647 0.376471 0.0588235
0.0431373 0.376471 0.0509804
0.0666667 0.368627 0.054902
0.109804 0.360784 0.054902
0.160784 0.372549 0.054902
0.227451 0.372549 0.0588235
0.352941 0.368627 0.0666667
0.482353 0.380392 0.0784314
0.6 0.407843 0.0980392
0.686275 0.423529 0.109804
0.74902 0.427451 0.105882
0.811765 0.462745 0.109804
0.854902 0.470588 0.113725
0.882353 0.498039 0.117647
0.901961 0.494118 0.105882
0.933333 0.517647 0.117647
0.941176 0.513725 0.117647
0.0117647 0.505882 0.0745098
0.0470588 0.494118 0.0745098
0.0666667 0.482353 0.0627451
0.105882 0.482353 0.0666667
0.156863 0.494118 0.0666667
0.254902 0.501961 0.0823529
0.356863 0.54902 0.0901961
0.470588 0.498039 0.0901961
0.592157 0.501961 0.0941176
0.682353 0.505882 0.0980392
0.756863 0.52549 0.109804
0.803922 0.52549 0.109804
0.843137 0.556863 0.105882
0.87451 0.560784 0.117647
0.901961 0.572549 0.117647
0.929412 0.576471 0.113725
0.937255 0.572549 0.113725
0.0156863 0.611765 0.0862745
0.0392157 0.603922 0.0901961
0.0784314 0.592157 0.0823529
0.117647 0.603922 0.0784314
0.168627 0.6 0.0862745
0.247059 0.615686 0.0823529
0.34902 0.631373 0.0901961
0.470588 0.654902 0.0980392
0.584314 0.631373 0.105882
0.678431 0.596078 0.0980392
0.752941 0.6 0.101961
0.803922 0.619608 0.109804
0.843137 0.631373 0.113725
0.870588 0.639216 0.105882
0.898039 0.647059 0.121569
0.933333 0.65098 0.117647
0.941176 0.639216 0.105882
0.0235294 0.705882 0.0901961
0.0470588 0.694118 0.0823529
0.0705882 0.686275 0.0862745
0.117647 0.678431 0.0823529
0.168627 0.698039 0.0862745
0.247059 0.705882 0.0823529
0.329412 0.701961 0.0901961
0.458824 0.721569 0.101961
0.596078 0.733333 0.0980392
0.686275 0.709804 0.105882
0.752941 0.694118 0.101961
0.8 0.694118 0.101961
0.843137 0.698039 0.109804
0.882353 0.713725 0.109804
0.898039 0.72549 0.109804
0.92549 0.713725 0.117647
0.941176 0.713725 0.117647
0.0196078 0.768627 0.109804
0.0509804 0.764706 0.0941176
0.0862745 0.760784 0.0862745
0.129412 0.745098 0.0823529
0.172549 0.764706 0.0862745
0.270588 0.772549 0.0941176
0.368627 0.776471 0.0980392
0.494118 0.788235 0.109804
0.6 0.788235 0.113725
0.682353 0.788235 0.101961
0.760784 0.768627 0.105882
0.819608 0.764706 0.109804
0.85098 0.764706 0.101961
0.87451 0.760784 0.109804
0.901961 0.768627 0.109804
0.929412 0.768627 0.117647
0.933333 0.764706 0.109804
0.0235294 0.823529 0.0901961
0.054902 0.823529 0.0941176
0.0823529 0.819608 0.0941176
0.129412 0.819608 0.0862745
0.180392 0.819608 0.0941176
0.258824 0.823529 0.0941176
0.360784 0.827451 0.0901961
0.47451 0.835294 0.109804
0.603922 0.839216 0.117647
0.686275 0.835294 0.113725
0.760784 0.839216 0.113725
0.807843 0.823529 0.113725
0.85098 0.815686 0.113725
0.878431 0.819608 0.109804
0.901961 0.815686 0.105882
0.929412 0.815686 0.113725
0.937255 0.815686 0.105882
0.027451 0.866667 0.0980392
0.054902 0.870588 0.0980392
0.0862745 0.862745 0.0901961
0.12549 0.862745 0.0862745
0.192157 0.866667 0.0901961
0.258824 0.866667 0.0941176
0.364706 0.87451 0.105882
0.466667 0.870588 0.0941176
0.592157 0.878431 0.113725
0.682353 0.87451 0.12549
0.756863 0.878431 0.12549
0.803922 0.878431 0.133333
0.847059 0.866667 0.117647
0.878431 0.862745 0.105882
0.905882 0.866667 0.109804
0.933333 0.866667 0.117647
0.941176 0.854902 0.109804
0.0313725 0.898039 0.105882
0.0627451 0.898039 0.0980392
0.0941176 0.901961 0.0980392
0.14902 0.901961 0.0901961
0.192157 0.894118 0.0901961
0.27451 0.898039 0.0862745
0.380392 0.901961 0.105882
0.501961 0.905882 0.109804
0.592157 0.901961 0.105882
0.67451 0.901961 0.12549
0.760784 0.909804 0.137255
0.811765 0.901961 0.133333
0.854902 0.909804 0.137255
0.878431 0.894118 0.113725
0.905882 0.894118 0.113725
0.929412 0.894118 0.113725
0.937255 0.890196 0.105882
0.0352941 0.929412 0.117647
0.0627451 0.92549 0.101961
0.101961 0.92549 0.0980392
0.14902 0.929412 0.0941176
0.207843 0.929412 0.105882
0.294118 0.929412 0.113725
0.384314 0.933333 0.105882
0.482353 0.937255 0.113725
0.588235 0.933333 0.117647
0.686275 0.937255 0.121569
0.74902 0.933333 0.141176
0.807843 0.929412 0.137255
0.85098 0.933333 0.152941
0.886275 0.937255 0.14902
0.913725 0.929412 0.14902
0.933333 0.92549 0.117647
0.945098 0.92549 0.117647
0.0313725 0.941176 0.109804
0.054902 0.941176 0.0980392
0.101961 0.945098 0.0980392
0.156863 0.945098 0.0941176
0.215686 0.941176 0.0980392
0.282353 0.941176 0.101961
0.384314 0.94902 0.101961
0.490196 0.945098 0.117647
0.588235 0.94902 0.117647
