assets/luts/cinematic/CineMagic NT Film3m2.cube
#Generated by Picture Instruments - Unlimited Filters
TITLE "CineMagic NT Film3m2"
LUT_3D_SIZE 17
0.0313725 0.0235294 0.027451
0.0313725 0.0235294 0.027451
0.0431373 0.0196078 0.027451
0.0627451 0.027451 0.0392157
0.0745098 0.027451 0.0352941
0.0980392 0.0352941 0.0392157
0.129412 0.0470588 0.0431373
0.168627 0.0509804 0.0431373
0.203922 0.054902 0.0509804
0.243137 0.0666667 0.0470588
0.290196 0.0745098 0.054902
0.337255 0.0823529 0.0588235
0.4 0.0941176 0.0627451
0.47451 0.105882 0.0745098
0.560784 0.121569 0.0784314
0.643137 0.141176 0.0901961
0.690196 0.152941 0.0980392
0.0313725 0.0235294 0.027451
0.0352941 0.0313725 0.0235294
0.0509804 0.027451 0.027451
0.0666667 0.0313725 0.0352941
0.0823529 0.0431373 0.0392157
0.101961 0.0470588 0.0431373
0.133333 0.0509804 0.0470588
0.172549 0.054902 0.0470588
0.215686 0.0666667 0.0392157
0.258824 0.0745098 0.0509804
0.301961 0.0784314 0.0509804
0.364706 0.0980392 0.0627451
0.427451 0.101961 0.0705882
0.498039 0.117647 0.0823529
0.564706 0.12549 0.0823529
0.643137 0.141176 0.0901961
0.701961 0.164706 0.101961
0.0470588 0.0509804 0.0313725
0.0470588 0.0509804 0.0313725
0.0509804 0.0470588 0.0313725
0.0705882 0.0588235 0.0392157
0.0901961 0.0627451 0.0392157
0.117647 0.0666667 0.0352941
0.145098 0.0705882 0.0431373
0.176471 0.0705882 0.0431373
0.227451 0.0823529 0.0470588
0.262745 0.0901961 0.0470588
0.317647 0.0941176 0.0509804
0.368627 0.109804 0.0627451
0.427451 0.113725 0.0705882
0.509804 0.129412 0.0784314
0.6 0.145098 0.0941176
0.670588 0.160784 0.0980392
0.705882 0.176471 0.101961
0.0627451 0.0745098 0.0313725
0.0666667 0.0784314 0.0352941
0.0705882 0.0784314 0.027451
0.0862745 0.0784314 0.0313725
0.0980392 0.0823529 0.0392157
0.12549 0.0862745 0.0392157
0.145098 0.0901961 0.0392157
0.184314 0.0980392 0.0431373
0.227451 0.101961 0.0431373
0.262745 0.109804 0.0509804
0.313725 0.121569 0.0627451
0.372549 0.129412 0.0588235
0.439216 0.137255 0.0745098
0.509804 0.145098 0.0745098
0.592157 0.164706 0.0823529
0.67451 0.184314 0.0980392
0.709804 0.192157 0.101961
0.0784314 0.105882 0.0352941
0.0823529 0.113725 0.0313725
0.0901961 0.109804 0.0235294
0.105882 0.117647 0.0352941
0.121569 0.117647 0.0392157
0.14902 0.121569 0.0470588
0.164706 0.121569 0.0509804
0.196078 0.129412 0.0509804
0.231373 0.133333 0.0470588
0.27451 0.137255 0.0509804
0.321569 0.145098 0.054902
0.384314 0.156863 0.0705882
0.447059 0.156863 0.0705882
0.517647 0.176471 0.0784314
0.607843 0.2 0.0941176
0.678431 0.215686 0.0980392
0.721569 0.231373 0.105882
0.0941176 0.145098 0.0352941
0.101961 0.152941 0.0352941
0.113725 0.14902 0.0352941
0.117647 0.152941 0.0313725
0.137255 0.156863 0.0392157
0.168627 0.164706 0.0431373
0.203922 0.168627 0.054902
0.235294 0.168627 0.0588235
0.262745 0.168627 0.0588235
0.298039 0.176471 0.0627451
0.34902 0.184314 0.0705882
0.403922 0.196078 0.0745098
0.462745 0.203922 0.0784314
0.545098 0.219608 0.0862745
0.623529 0.239216 0.0941176
0.690196 0.262745 0.101961
0.733333 0.282353 0.109804
0.121569 0.192157 0.0352941
0.133333 0.2 0.0352941
0.137255 0.203922 0.0313725
0.145098 0.207843 0.0313725
0.176471 0.223529 0.0352941
0.192157 0.215686 0.0352941
0.235294 0.223529 0.0470588
0.27451 0.227451 0.0627451
0.321569 0.231373 0.0666667
0.341176 0.227451 0.0705882
0.380392 0.231373 0.0784314
0.411765 0.239216 0.0745098
0.486275 0.25098 0.0901961
0.556863 0.266667 0.0901961
0.623529 0.278431 0.0901961
0.698039 0.305882 0.101961
0.737255 0.337255 0.105882
0.145098 0.25098 0.0352941
0.160784 0.270588 0.0431373
0.164706 0.262745 0.0392157
0.176471 0.270588 0.0352941
0.2 0.27451 0.0392157
0.231373 0.294118 0.0392157
0.266667 0.301961 0.0470588
0.321569 0.305882 0.0588235
0.368627 0.313725 0.0784314
0.415686 0.317647 0.0862745
0.45098 0.313725 0.0862745
0.486275 0.309804 0.0941176
0.521569 0.317647 0.0941176
0.564706 0.321569 0.0901961
0.635294 0.341176 0.0941176
0.709804 0.368627 0.0980392
0.745098 0.380392 0.105882
0.192157 0.333333 0.0509804
0.192157 0.333333 0.0431373
0.215686 0.34902 0.0470588
0.223529 0.345098 0.0470588
0.235294 0.341176 0.0313725
0.266667 0.356863 0.0431373
0.313725 0.372549 0.0470588
0.360784 0.392157 0.054902
0.415686 0.396078 0.0745098
0.470588 0.4 0.0901961
0.533333 0.419608 0.101961
0.568627 0.415686 0.105882
0.607843 0.423529 0.101961
0.623529 0.403922 0.101961
0.662745 0.403922 0.0980392
0.717647 0.423529 0.0980392
0.756863 0.443137 0.109804
0.235294 0.403922 0.054902
0.239216 0.407843 0.0470588
0.247059 0.419608 0.0470588
0.262745 0.419608 0.0431373
0.286275 0.427451 0.0431373
0.313725 0.431373 0.0392157
0.34902 0.447059 0.0470588
0.4 0.458824 0.054902
0.466667 0.490196 0.0666667
0.533333 0.501961 0.0823529
0.576471 0.501961 0.101961
0.639216 0.52549 0.117647
0.666667 0.513725 0.113725
0.698039 0.509804 0.117647
0.721569 0.505882 0.113725
0.745098 0.494118 0.109804
0.784314 0.533333 0.117647
0.290196 0.494118 0.0588235
0.305882 0.501961 0.0509804
0.317647 0.509804 0.0509804
0.321569 0.513725 0.0509804
0.333333 0.501961 0.0470588
0.34902 0.490196 0.0431373
0.396078 0.505882 0.0431373
0.443137 0.529412 0.0431373
0.513725 0.564706 0.0509804
0.568627 0.580392 0.0745098
0.627451 0.6 0.0823529
0.666667 0.607843 0.101961
0.729412 0.619608 0.137255
0.752941 0.611765 0.141176
0.764706 0.596078 0.133333
0.796078 0.592157 0.129412
0.815686 0.6 0.133333
0.368627 0.6 0.0509804
0.356863 0.576471 0.0470588
0.364706 0.572549 0.0470588
0.368627 0.576471 0.0509804
0.4 0.588235 0.054902
0.407843 0.580392 0.0509804
0.443137 0.584314 0.0509804
0.486275 0.596078 0.0588235
0.533333 0.615686 0.054902
0.568627 0.623529 0.054902
0.643137 0.666667 0.0588235
0.705882 0.682353 0.0941176
0.74902 0.694118 0.113725
0.788235 0.698039 0.14902
0.811765 0.686275 0.156863
0.831373 0.67451 0.14902
0.854902 0.682353 0.152941
0.431373 0.682353 0.0627451
0.419608 0.65098 0.054902
0.415686 0.647059 0.0588235
0.431373 0.65098 0.0588235
0.45098 0.658824 0.0588235
0.470588 0.654902 0.0588235
0.490196 0.647059 0.0627451
0.521569 0.658824 0.054902
0.572549 0.678431 0.0627451
0.611765 0.690196 0.0627451
0.658824 0.709804 0.0588235
0.713725 0.737255 0.0627451
0.768627 0.74902 0.0980392
0.803922 0.74902 0.12549
0.847059 0.752941 0.172549
0.870588 0.752941 0.180392
0.886275 0.752941 0.180392
0.501961 0.752941 0.0666667
0.478431 0.717647 0.0666667
0.482353 0.72549 0.0627451
0.498039 0.721569 0.0666667
0.505882 0.72549 0.0627451
0.521569 0.72549 0.0705882
0.54902 0.729412 0.0666667
0.580392 0.733333 0.0705882
0.603922 0.737255 0.0627451
0.643137 0.74902 0.0627451
0.678431 0.74902 0.0666667
0.721569 0.760784 0.0745098
0.792157 0.8 0.0745098
0.831373 0.803922 0.109804
0.854902 0.8 0.137255
0.894118 0.803922 0.184314
0.901961 0.803922 0.2
0.560784 0.819608 0.0745098
0.533333 0.784314 0.0705882
0.529412 0.784314 0.0705882
0.545098 0.784314 0.0666667
0.556863 0.788235 0.0705882
0.568627 0.788235 0.0705882
0.588235 0.784314 0.0666667
0.607843 0.784314 0.0666667
0.643137 0.792157 0.0705882
0.678431 0.796078 0.0666667
0.713725 0.807843 0.0784314
0.74902 0.807843 0.0745098
0.784314 0.819608 0.0705882
0.843137 0.85098 0.0784314
0.890196 0.858824 0.117647
0.905882 0.847059 0.145098
0.921569 0.85098 0.192157
0.607843 0.870588 0.0784314
0.584314 0.839216 0.0705882
0.592157 0.839216 0.0745098
0.592157 0.839216 0.0745098
0.607843 0.843137 0.0745098
0.619608 0.839216 0.0745098
0.643137 0.839216 0.0745098
0.65098 0.835294 0.0745098
0.682353 0.839216 0.0745098
0.729412 0.854902 0.0823529
0.752941 0.858824 0.0784314
0.788235 0.858824 0.0745098
0.803922 0.85098 0.0745098
0.862745 0.882353 0.0745098
0.909804 0.890196 0.0941176
0.921569 0.87451 0.152941
0.921569 0.87451 0.192157
0.670588 0.913725 0.109804
0.65098 0.901961 0.0823529
0.654902 0.901961 0.0823529
0.658824 0.901961 0.0862745
0.67451 0.905882 0.0784314
0.694118 0.905882 0.0862745
0.709804 0.905882 0.0823529
0.729412 0.901961 0.0784314
0.752941 0.909804 0.0862745
0.788235 0.917647 0.0901961
0.815686 0.917647 0.0901961
0.843137 0.913725 0.0980392
0.870588 0.913725 0.0980392
0.909804 0.917647 0.137255
0.929412 0.905882 0.219608
0.92549 0.905882 0.286275
0.929412 0.909804 0.345098
0.027451 0.0196078 0.0235294
0.0352941 0.0196078 0.0235294
0.0431373 0.027451 0.0313725
0.054902 0.0313725 0.0392157
0.0823529 0.0352941 0.0431373
0.101961 0.0392157 0.0431373
0.137255 0.054902 0.0509804
0.164706 0.054902 0.0509804
0.2 0.0627451 0.054902
0.247059 0.0705882 0.0588235
0.294118 0.0784314 0.0666667
0.345098 0.0901961 0.0745098
0.403922 0.0980392 0.0823529
0.478431 0.113725 0.0862745
0.568627 0.12549 0.101961
0.647059 0.145098 0.101961
0.709804 0.156863 0.117647
0.0352941 0.027451 0.0313725
0.0431373 0.0352941 0.0392157
0.0509804 0.0352941 0.0313725
0.0627451 0.0392157 0.0392157
0.0901961 0.0431373 0.0431373
0.113725 0.0509804 0.054902
0.137255 0.0588235 0.054902
0.176471 0.0666667 0.0627451
0.219608 0.0705882 0.0588235
0.254902 0.0784314 0.0588235
0.309804 0.0823529 0.0666667
0.360784 0.0901961 0.0784314
0.419608 0.105882 0.0784314
0.494118 0.113725 0.0901961
0.568627 0.12549 0.0941176
0.654902 0.141176 0.101961
0.701961 0.160784 0.109804
0.0470588 0.0470588 0.0352941
0.0470588 0.0509804 0.0313725
0.054902 0.0509804 0.0352941
0.0705882 0.054902 0.0431373
0.0941176 0.0627451 0.0509804
0.117647 0.0627451 0.0509804
0.137255 0.0666667 0.0509804
0.176471 0.0823529 0.0627451
0.215686 0.0862745 0.0588235
0.266667 0.0901961 0.0666667
0.313725 0.0980392 0.0705882
0.360784 0.101961 0.0784314
0.427451 0.113725 0.0862745
0.509804 0.129412 0.0941176
0.580392 0.137255 0.0980392
0.654902 0.152941 0.101961
0.709804 0.172549 0.109804
0.0627451 0.0666667 0.0431373
0.0705882 0.0745098 0.0509804
0.0705882 0.0745098 0.0509804
0.0862745 0.0745098 0.0470588
0.101961 0.0823529 0.0588235
0.117647 0.0823529 0.054902
0.14902 0.0901961 0.0627451
0.188235 0.0980392 0.0666667
0.223529 0.105882 0.0627451
0.27451 0.117647 0.0705882
0.32549 0.121569 0.0705882
0.384314 0.133333 0.0862745
0.439216 0.133333 0.0862745
0.509804 0.14902 0.0901961
0.603922 0.168627 0.101961
0.67451 0.184314 0.105882
0.713725 0.196078 0.113725
0.0745098 0.0980392 0.0431373
0.0784314 0.101961 0.0470588
0.0823529 0.109804 0.0470588
0.101961 0.109804 0.054902
0.117647 0.109804 0.0509804
0.141176 0.117647 0.0627451
0.168627 0.121569 0.0588235
0.192157 0.12549 0.0627451
0.231373 0.129412 0.0705882
0.282353 0.145098 0.0705882
0.32549 0.14902 0.0745098
0.384314 0.160784 0.0823529
0.443137 0.164706 0.0862745
0.529412 0.180392 0.0941176
0.603922 0.196078 0.0980392
0.670588 0.207843 0.105882
0.721569 0.239216 0.117647
0.101961 0.137255 0.054902
0.105882 0.152941 0.0588235
0.105882 0.145098 0.0509804
0.121569 0.156863 0.0509804
0.137255 0.160784 0.054902
0.168627 0.160784 0.0627451
0.2 0.172549 0.0705882
0.227451 0.172549 0.0705882
0.254902 0.168627 0.0745098
0.290196 0.172549 0.0705882
0.341176 0.184314 0.0823529
0.392157 0.192157 0.0862745
0.454902 0.196078 0.0901961
0.533333 0.215686 0.0980392
0.615686 0.235294 0.105882
0.686275 0.262745 0.109804
0.733333 0.278431 0.117647
0.12549 0.188235 0.0431373
0.129412 0.196078 0.054902
0.137255 0.2 0.054902
0.145098 0.203922 0.0509804
0.160784 0.2 0.054902
0.192157 0.211765 0.054902
0.235294 0.219608 0.0705882
0.278431 0.231373 0.0745098
0.309804 0.231373 0.0862745
0.333333 0.223529 0.0784314
0.376471 0.231373 0.0901961
0.415686 0.235294 0.0941176
0.490196 0.247059 0.101961
0.54902 0.254902 0.0980392
0.631373 0.286275 0.105882
0.701961 0.309804 0.113725
0.741176 0.329412 0.113725
0.156863 0.25098 0.054902
0.156863 0.262745 0.0627451
0.168627 0.262745 0.0588235
0.180392 0.270588 0.0588235
0.2 0.27451 0.054902
0.239216 0.290196 0.0705882
0.254902 0.282353 0.0705882
0.313725 0.305882 0.0745098
0.360784 0.309804 0.0941176
0.419608 0.317647 0.101961
0.443137 0.301961 0.0980392
0.478431 0.305882 0.0980392
0.521569 0.313725 0.101961
0.576471 0.321569 0.101961
0.65098 0.341176 0.109804
0.705882 0.360784 0.109804
0.752941 0.388235 0.117647
0.192157 0.317647 0.0627451
0.196078 0.333333 0.0666667
0.203922 0.345098 0.0705882
0.215686 0.337255 0.0705882
0.235294 0.341176 0.0627451
0.262745 0.352941 0.0627451
0.313725 0.372549 0.0705882
0.364706 0.388235 0.0823529
0.419608 0.396078 0.0823529
0.47451 0.4 0.101961
0.537255 0.423529 0.117647
0.564706 0.411765 0.117647
0.592157 0.403922 0.113725
0.631373 0.403922 0.113725
0.666667 0.407843 0.109804
0.713725 0.427451 0.113725
0.74902 0.443137 0.121569
0.231373 0.396078 0.0666667
0.239216 0.411765 0.0705882
0.247059 0.415686 0.0666667
0.262745 0.427451 0.0745098
0.286275 0.435294 0.0705882
0.305882 0.427451 0.0627451
0.345098 0.447059 0.0666667
0.411765 0.47451 0.0745098
0.466667 0.494118 0.0901961
0.52549 0.494118 0.0980392
0.572549 0.501961 0.109804
0.635294 0.52549 0.133333
0.666667 0.513725 0.137255
0.694118 0.513725 0.129412
0.713725 0.501961 0.12549
0.745098 0.501961 0.121569
0.776471 0.521569 0.129412
0.298039 0.490196 0.0627451
0.301961 0.498039 0.0705882
0.294118 0.494118 0.0705882
0.321569 0.509804 0.0784314
0.341176 0.513725 0.0627451
0.368627 0.521569 0.0627451
0.419608 0.533333 0.0705882
0.45098 0.545098 0.0666667
0.509804 0.568627 0.0784314
0.568627 0.588235 0.0941176
0.631373 0.6 0.105882
0.666667 0.603922 0.12549
0.721569 0.619608 0.152941
0.745098 0.607843 0.145098
0.776471 0.6 0.141176
0.796078 0.6 0.141176
0.823529 0.607843 0.14902
0.356863 0.572549 0.0627451
0.356863 0.592157 0.0666667
0.360784 0.6 0.0627451
0.376471 0.596078 0.0666667
0.4 0.607843 0.0588235
0.415686 0.588235 0.0509804
0.443137 0.588235 0.0509804
0.498039 0.611765 0.0509804
0.552941 0.639216 0.0627451
0.603922 0.658824 0.0745098
0.654902 0.670588 0.0941176
0.701961 0.678431 0.105882
0.74902 0.690196 0.137255
0.792157 0.698039 0.172549
0.811765 0.682353 0.160784
0.831373 0.682353 0.160784
0.85098 0.678431 0.168627
0.431373 0.65098 0.0588235
0.415686 0.647059 0.0588235
0.419608 0.654902 0.0588235
0.427451 0.654902 0.0588235
0.447059 0.654902 0.0588235
0.478431 0.662745 0.0588235
0.486275 0.654902 0.0588235
0.521569 0.666667 0.0509804
0.560784 0.678431 0.0588235
0.619608 0.701961 0.0627451
0.670588 0.729412 0.0666667
0.721569 0.741176 0.0941176
0.772549 0.752941 0.117647
0.815686 0.760784 0.141176
0.847059 0.760784 0.188235
0.870588 0.74902 0.192157
0.882353 0.756863 0.196078
0.47451 0.713725 0.0627451
0.470588 0.717647 0.0627451
0.478431 0.721569 0.0666667
0.470588 0.709804 0.0627451
0.501961 0.72549 0.0627451
0.521569 0.72549 0.0588235
0.545098 0.72549 0.0627451
0.560784 0.721569 0.0666667
0.603922 0.737255 0.0627451
0.643137 0.74902 0.0627451
0.682353 0.752941 0.0627451
0.752941 0.792157 0.0745098
0.780392 0.792157 0.0980392
0.831373 0.807843 0.12549
0.862745 0.803922 0.156863
0.898039 0.803922 0.207843
0.905882 0.807843 0.211765
0.529412 0.780392 0.0666667
0.52549 0.780392 0.0666667
0.52549 0.780392 0.0666667
0.545098 0.784314 0.0666667
0.552941 0.784314 0.0666667
0.568627 0.788235 0.0705882
0.588235 0.784314 0.0666667
0.615686 0.788235 0.0705882
0.65098 0.792157 0.0705882
0.67451 0.792157 0.0705882
0.713725 0.807843 0.0784314
0.74902 0.807843 0.0745098
0.788235 0.827451 0.0705882
0.85098 0.847059 0.105882
0.882353 0.847059 0.129412
0.901961 0.85098 0.164706
0.921569 0.854902 0.207843
0.588235 0.835294 0.0705882
0.6 0.85098 0.0745098
0.580392 0.839216 0.0705882
0.592157 0.839216 0.0745098
0.607843 0.843137 0.0745098
0.631373 0.85098 0.0784314
0.635294 0.843137 0.0745098
0.662745 0.85098 0.0745098
0.690196 0.847059 0.0823529
0.717647 0.85098 0.0745098
0.752941 0.858824 0.0784314
0.776471 0.858824 0.0784314
0.819608 0.870588 0.0784314
0.862745 0.882353 0.0745098
0.901961 0.886275 0.117647
0.929412 0.886275 0.180392
0.92549 0.882353 0.211765
0.654902 0.898039 0.0823529
0.654902 0.905882 0.0823529
0.654902 0.901961 0.0823529
0.658824 0.901961 0.0862745
0.67451 0.905882 0.0862745
0.694118 0.909804 0.0862745
0.709804 0.905882 0.0823529
0.729412 0.913725 0.0823529
0.760784 0.909804 0.0901961
0.792157 0.913725 0.0901961
0.811765 0.913725 0.0862745
0.839216 0.913725 0.0980392
0.878431 0.913725 0.109804
0.909804 0.917647 0.137255
0.921569 0.905882 0.231373
0.929412 0.909804 0.294118
0.933333 0.909804 0.352941
0.0313725 0.0313725 0.0392157
0.0313725 0.0352941 0.0431373
0.0392157 0.0313725 0.0509804
0.0588235 0.0352941 0.0509804
0.0823529 0.0392157 0.0627451
0.105882 0.0470588 0.0666667
0.129412 0.0470588 0.0666667
0.156863 0.054902 0.0666667
0.196078 0.0627451 0.0666667
0.235294 0.0705882 0.0784314
0.294118 0.0784314 0.0901961
0.337255 0.0862745 0.0862745
0.392157 0.0941176 0.0941176
0.47451 0.105882 0.105882
0.556863 0.129412 0.117647
0.635294 0.137255 0.113725
0.694118 0.156863 0.12549
0.0392157 0.0392157 0.0470588
0.0431373 0.0431373 0.0509804
0.0470588 0.0392157 0.0509804
0.0627451 0.0431373 0.0588235
0.0784314 0.054902 0.0627451
0.113725 0.054902 0.0666667
0.145098 0.0666667 0.0745098
0.176471 0.0627451 0.0705882
0.207843 0.0745098 0.0784314
0.25098 0.0784314 0.0823529
0.309804 0.0901961 0.0862745
0.364706 0.0980392 0.0941176
0.423529 0.109804 0.0980392
0.490196 0.113725 0.109804
0.576471 0.12549 0.113725
0.666667 0.14902 0.129412
0.698039 0.152941 0.129412
0.0509804 0.0509804 0.0509804
0.054902 0.054902 0.054902
0.0627451 0.054902 0.0588235
0.0705882 0.054902 0.0509804
0.0980392 0.0627451 0.0666667
0.113725 0.0666667 0.0666667
0.141176 0.0784314 0.0784314
0.172549 0.0784314 0.0705882
0.215686 0.0823529 0.0784314
0.266667 0.0941176 0.0823529
0.309804 0.0980392 0.0862745
0.360784 0.109804 0.0901961
0.431373 0.121569 0.101961
0.501961 0.129412 0.113725
0.580392 0.137255 0.113725
0.670588 0.156863 0.12549
0.705882 0.172549 0.12549
0.0627451 0.0705882 0.0509804
0.0588235 0.0784314 0.054902
0.0705882 0.0784314 0.0588235
0.0784314 0.0784314 0.0627451
0.0980392 0.0862745 0.0666667
0.117647 0.0901961 0.0705882
0.14902 0.0980392 0.0745098
0.176471 0.101961 0.0745098
0.219608 0.105882 0.0823529
0.262745 0.109804 0.0823529
0.321569 0.12549 0.0980392
0.376471 0.129412 0.0941176
0.427451 0.137255 0.101961
0.505882 0.14902 0.109804
0.596078 0.160784 0.117647
0.67451 0.180392 0.12549
0.713725 0.196078 0.137255
0.0745098 0.0980392 0.0588235
0.0784314 0.109804 0.0666667
0.0901961 0.113725 0.0666667
0.101961 0.105882 0.0745098
0.117647 0.105882 0.0705882
0.133333 0.117647 0.0745098
0.160784 0.121569 0.0823529
0.192157 0.129412 0.0784314
0.231373 0.141176 0.0862745
0.270588 0.137255 0.0901961
0.337255 0.14902 0.0941176
0.384314 0.160784 0.0941176
0.454902 0.168627 0.109804
0.513725 0.172549 0.105882
0.6 0.188235 0.113725
0.682353 0.215686 0.129412
0.721569 0.235294 0.133333
0.0980392 0.141176 0.0745098
0.0941176 0.137255 0.0705882
0.113725 0.14902 0.0745098
0.121569 0.152941 0.0705882
0.141176 0.152941 0.0705882
0.164706 0.160784 0.0784314
0.188235 0.160784 0.0862745
0.223529 0.164706 0.0901961
0.254902 0.172549 0.0941176
0.286275 0.176471 0.0901961
0.341176 0.180392 0.0941176
0.388235 0.192157 0.101961
0.462745 0.2 0.105882
0.533333 0.215686 0.109804
0.619608 0.235294 0.121569
0.678431 0.25098 0.12549
0.729412 0.270588 0.133333
0.12549 0.188235 0.0745098
0.12549 0.2 0.0823529
0.141176 0.207843 0.0823529
0.141176 0.2 0.0784314
0.160784 0.203922 0.0705882
0.188235 0.215686 0.0823529
0.231373 0.219608 0.0823529
0.27451 0.235294 0.0941176
0.294118 0.227451 0.101961
0.337255 0.235294 0.101961
0.364706 0.227451 0.101961
0.407843 0.231373 0.101961
0.466667 0.247059 0.109804
0.552941 0.262745 0.117647
0.627451 0.286275 0.117647
0.686275 0.301961 0.12549
0.741176 0.32549 0.129412
0.14902 0.239216 0.0745098
0.152941 0.254902 0.0784314
0.168627 0.258824 0.0823529
0.172549 0.266667 0.0784314
0.196078 0.27451 0.0823529
0.219608 0.266667 0.0862745
0.254902 0.278431 0.0901961
0.317647 0.305882 0.0980392
0.368627 0.313725 0.121569
0.403922 0.313725 0.117647
0.431373 0.298039 0.117647
0.482353 0.309804 0.12549
0.513725 0.309804 0.121569
0.580392 0.321569 0.117647
0.639216 0.32549 0.117647
0.713725 0.364706 0.129412
0.752941 0.384314 0.141176
0.196078 0.309804 0.0823529
0.196078 0.329412 0.0901961
0.2 0.333333 0.0941176
0.211765 0.337255 0.0901961
0.223529 0.337255 0.0823529
0.262745 0.352941 0.0862745
0.321569 0.372549 0.0980392
0.341176 0.368627 0.101961
0.415686 0.388235 0.113725
0.478431 0.403922 0.133333
0.529412 0.411765 0.137255
0.54902 0.396078 0.133333
0.592157 0.4 0.137255
0.623529 0.392157 0.133333
0.662745 0.411765 0.129412
0.721569 0.427451 0.129412
0.756863 0.45098 0.141176
0.235294 0.396078 0.0862745
0.243137 0.411765 0.101961
0.25098 0.415686 0.0941176
0.262745 0.427451 0.0941176
0.27451 0.423529 0.0901961
0.301961 0.431373 0.0901961
0.34902 0.439216 0.0941176
0.403922 0.462745 0.105882
0.466667 0.490196 0.113725
0.521569 0.498039 0.121569
0.576471 0.501961 0.133333
0.635294 0.521569 0.160784
0.662745 0.505882 0.152941
0.682353 0.505882 0.145098
0.709804 0.494118 0.141176
0.74902 0.501961 0.137255
0.768627 0.509804 0.137255
0.305882 0.498039 0.0862745
0.301961 0.501961 0.0980392
0.305882 0.505882 0.101961
0.317647 0.509804 0.0980392
0.341176 0.521569 0.0941176
0.372549 0.533333 0.0941176
0.392157 0.52549 0.0862745
0.443137 0.537255 0.0980392
0.509804 0.568627 0.101961
0.568627 0.588235 0.117647
0.607843 0.588235 0.12549
0.658824 0.6 0.14902
0.721569 0.619608 0.176471
0.745098 0.603922 0.164706
0.772549 0.611765 0.164706
0.788235 0.592157 0.156863
0.815686 0.607843 0.160784
0.360784 0.580392 0.0901961
0.360784 0.6 0.101961
0.364706 0.603922 0.0980392
0.360784 0.592157 0.0980392
0.403922 0.603922 0.0980392
0.419608 0.6 0.0823529
0.462745 0.611765 0.0823529
0.501961 0.623529 0.0862745
0.545098 0.639216 0.0980392
0.6 0.647059 0.105882
0.654902 0.670588 0.12549
0.709804 0.682353 0.133333
0.745098 0.682353 0.152941
0.788235 0.690196 0.192157
0.815686 0.682353 0.188235
0.831373 0.678431 0.180392
0.858824 0.690196 0.188235
0.419608 0.666667 0.0823529
0.423529 0.67451 0.0901961
0.431373 0.678431 0.0862745
0.435294 0.682353 0.0901961
0.462745 0.678431 0.0901961
0.470588 0.682353 0.0705882
0.509804 0.682353 0.0588235
0.541176 0.698039 0.0705882
0.588235 0.705882 0.0862745
0.631373 0.717647 0.0901961
0.67451 0.733333 0.101961
0.717647 0.741176 0.121569
0.772549 0.752941 0.141176
0.811765 0.756863 0.172549
0.843137 0.752941 0.203922
0.866667 0.752941 0.211765
0.886275 0.752941 0.219608
0.486275 0.74902 0.0627451
0.490196 0.752941 0.0666667
0.482353 0.741176 0.0666667
0.494118 0.74902 0.0666667
0.505882 0.745098 0.0627451
0.52549 0.733333 0.0666667
0.54902 0.737255 0.0705882
0.564706 0.737255 0.0666667
0.607843 0.741176 0.0588235
0.654902 0.768627 0.0705882
0.713725 0.788235 0.0823529
0.737255 0.788235 0.0980392
0.784314 0.8 0.121569
0.827451 0.811765 0.145098
0.866667 0.811765 0.180392
0.894118 0.807843 0.227451
0.913725 0.811765 0.243137
0.529412 0.780392 0.0666667
0.529412 0.780392 0.0666667
0.52549 0.780392 0.0666667
0.529412 0.780392 0.0666667
0.541176 0.776471 0.0705882
0.568627 0.788235 0.0705882
0.592157 0.788235 0.0705882
0.611765 0.784314 0.0666667
0.635294 0.784314 0.0666667
0.678431 0.796078 0.0666667
0.721569 0.807843 0.0745098
0.768627 0.831373 0.0705882
0.807843 0.843137 0.109804
0.839216 0.843137 0.129412
0.886275 0.85098 0.14902
0.901961 0.847059 0.192157
0.917647 0.847059 0.227451
0.592157 0.839216 0.0745098
0.584314 0.843137 0.0745098
0.584314 0.843137 0.0745098
0.592157 0.839216 0.0745098
0.607843 0.843137 0.0745098
0.623529 0.843137 0.0784314
0.635294 0.843137 0.0745098
0.658824 0.847059 0.0784314
0.682353 0.847059 0.0784314
0.721569 0.854902 0.0784314
0.741176 0.85098 0.0745098
0.784314 0.866667 0.0784314
0.823529 0.87451 0.0745098
0.870588 0.886275 0.105882
0.909804 0.878431 0.145098
0.92549 0.882353 0.188235
0.92549 0.882353 0.231373
0.647059 0.894118 0.0901961
0.654902 0.905882 0.0901961
0.658824 0.905882 0.0941176
0.662745 0.901961 0.0862745
0.67451 0.905882 0.0862745
0.686275 0.905882 0.0862745
0.709804 0.905882 0.0823529
0.737255 0.909804 0.0941176
0.756863 0.909804 0.0901961
0.780392 0.913725 0.0941176
0.803922 0.913725 0.0901961
0.839216 0.913725 0.105882
0.878431 0.913725 0.109804
0.905882 0.917647 0.160784
0.92549 0.901961 0.207843
0.929412 0.909804 0.294118
0.933333 0.909804 0.356863
0.0392157 0.0431373 0.0588235
