assets/luts/cinematic/CineMagic NT Film3m2.cube
#Generated by Picture Instruments - Unlimited Filters
TITLE "CineMagic NT Film3m2"
LUT_3D_SIZE 9
0.0313725 0.0235294 0.027451
0.0431373 0.0196078 0.027451
0.0745098 0.027451 0.0352941
0.129412 0.0470588 0.0431373
0.203922 0.054902 0.0509804
0.290196 0.0745098 0.054902
0.4 0.0941176 0.0627451
0.560784 0.121569 0.0784314
0.690196 0.152941 0.0980392
0.0470588 0.0509804 0.0313725
0.0509804 0.0470588 0.0313725
0.0901961 0.0627451 0.0392157
0.145098 0.0705882 0.0431373
0.227451 0.0823529 0.0470588
0.317647 0.0941176 0.0509804
0.427451 0.113725 0.0705882
0.6 0.145098 0.0941176
0.705882 0.176471 0.101961
0.0784314 0.105882 0.0352941
0.0901961 0.109804 0.0235294
0.121569 0.117647 0.0392157
0.164706 0.121569 0.0509804
0.231373 0.133333 0.0470588
0.321569 0.145098 0.054902
0.447059 0.156863 0.0705882
0.607843 0.2 0.0941176
0.721569 0.231373 0.105882
0.121569 0.192157 0.0352941
0.137255 0.203922 0.0313725
0.176471 0.223529 0.0352941
0.235294 0.223529 0.0470588
0.321569 0.231373 0.0666667
0.380392 0.231373 0.0784314
0.486275 0.25098 0.0901961
0.623529 0.278431 0.0901961
0.737255 0.337255 0.105882
0.192157 0.333333 0.0509804
0.215686 0.34902 0.0470588
0.235294 0.341176 0.0313725
0.313725 0.372549 0.0470588
0.415686 0.396078 0.0745098
0.533333 0.419608 0.101961
0.607843 0.423529 0.101961
0.662745 0.403922 0.0980392
0.756863 0.443137 0.109804
0.290196 0.494118 0.0588235
0.317647 0.509804 0.0509804
0.333333 0.501961 0.0470588
0.396078 0.505882 0.0431373
0.513725 0.564706 0.0509804
0.627451 0.6 0.0823529
0.729412 0.619608 0.137255
0.764706 0.596078 0.133333
0.815686 0.6 0.133333
0.431373 0.682353 0.0627451
0.415686 0.647059 0.0588235
0.45098 0.658824 0.0588235
0.490196 0.647059 0.0627451
0.572549 0.678431 0.0627451
0.658824 0.709804 0.0588235
0.768627 0.74902 0.0980392
0.847059 0.752941 0.172549
0.886275 0.752941 0.180392
0.560784 0.819608 0.0745098
0.529412 0.784314 0.0705882
0.556863 0.788235 0.0705882
0.588235 0.784314 0.0666667
0.643137 0.792157 0.0705882
0.713725 0.807843 0.0784314
0.784314 0.819608 0.0705882
0.890196 0.858824 0.117647
0.921569 0.85098 0.192157
0.670588 0.913725 0.109804
0.654902 0.901961 0.0823529
0.67451 0.905882 0.0784314
0.709804 0.905882 0.0823529
0.752941 0.909804 0.0862745
0.815686 0.917647 0.0901961
0.870588 0.913725 0.0980392
0.929412 0.905882 0.219608
0.929412 0.909804 0.345098
0.0313725 0.0313725 0.0392157
0.0392157 0.0313725 0.0509804
0.0823529 0.0392157 0.0627451
0.129412 0.0470588 0.0666667
0.196078 0.0627451 0.0666667
0.294118 0.0784314 0.0901961
0.392157 0.0941176 0.0941176
0.556863 0.129412 0.117647
0.694118 0.156863 0.12549
0.0509804 0.0509804 0.0509804
0.0627451 0.054902 0.0588235
0.0980392 0.0627451 0.0666667
0.141176 0.0784314 0.0784314
0.215686 0.0823529 0.0784314
0.309804 0.0980392 0.0862745
0.431373 0.121569 0.101961
0.580392 0.137255 0.113725
0.705882 0.172549 0.12549
0.0745098 0.0980392 0.0588235
0.0901961 0.113725 0.0666667
0.117647 0.105882 0.0705882
0.160784 0.121569 0.0823529
0.231373 0.141176 0.0862745
0.337255 0.14902 0.0941176
0.454902 0.168627 0.109804
0.6 0.188235 0.113725
0.721569 0.235294 0.133333
0.12549 0.188235 0.0745098
0.141176 0.207843 0.0823529
0.160784 0.203922 0.0705882
0.231373 0.219608 0.0823529
0.294118 0.227451 0.101961
0.364706 0.227451 0.101961
0.466667 0.247059 0.109804
0.627451 0.286275 0.117647
0.741176 0.32549 0.129412
0.196078 0.309804 0.0823529
0.2 0.333333 0.0941176
0.223529 0.337255 0.0823529
0.321569 0.372549 0.0980392
0.415686 0.388235 0.113725
0.529412 0.411765 0.137255
0.592157 0.4 0.137255
0.662745 0.411765 0.129412
0.756863 0.45098 0.141176
0.305882 0.498039 0.0862745
0.305882 0.505882 0.101961
0.341176 0.521569 0.0941176
0.392157 0.52549 0.0862745
0.509804 0.568627 0.101961
0.607843 0.588235 0.12549
0.721569 0.619608 0.176471
0.772549 0.611765 0.164706
0.815686 0.607843 0.160784
0.419608 0.666667 0.0823529
0.431373 0.678431 0.0862745
0.462745 0.678431 0.0901961
0.509804 0.682353 0.0588235
0.588235 0.705882 0.0862745
0.67451 0.733333 0.101961
0.772549 0.752941 0.141176
0.843137 0.752941 0.203922
0.886275 0.752941 0.219608
0.529412 0.780392 0.0666667
0.52549 0.780392 0.0666667
0.541176 0.776471 0.0705882
0.592157 0.788235 0.0705882
0.635294 0.784314 0.0666667
0.721569 0.807843 0.0745098
0.807843 0.843137 0.109804
0.886275 0.85098 0.14902
0.917647 0.847059 0.227451
0.647059 0.894118 0.0901961
0.658824 0.905882 0.0941176
0.67451 0.905882 0.0862745
0.709804 0.905882 0.0823529
0.756863 0.909804 0.0901961
0.803922 0.913725 0.0901961
0.878431 0.913725 0.109804
0.92549 0.901961 0.207843
0.933333 0.909804 0.356863
0.0392157 0.0588235 0.0823529
0.0509804 0.0627451 0.0980392
0.0901961 0.0509804 0.0941176
0.133333 0.0705882 0.113725
0.211765 0.0784314 0.133333
0.294118 0.0862745 0.137255
0.415686 0.101961 0.145098
0.552941 0.117647 0.152941
0.690196 0.137255 0.168627
0.054902 0.0745098 0.0901961
0.0705882 0.0823529 0.101961
0.0980392 0.0784314 0.105882
0.145098 0.0941176 0.121569
0.219608 0.0941176 0.137255
0.317647 0.101961 0.129412
0.435294 0.117647 0.145098
0.576471 0.129412 0.160784
0.709804 0.160784 0.172549
0.0823529 0.105882 0.0901961
0.0823529 0.117647 0.105882
0.12549 0.12549 0.12549
0.172549 0.133333 0.129412
0.239216 0.137255 0.133333
0.329412 0.156863 0.145098
0.443137 0.164706 0.141176
0.6 0.188235 0.172549
0.717647 0.215686 0.180392
0.121569 0.188235 0.117647
0.129412 0.196078 0.12549
0.164706 0.211765 0.133333
0.211765 0.215686 0.145098
0.286275 0.227451 0.152941
0.364706 0.227451 0.152941
0.486275 0.247059 0.164706
0.635294 0.286275 0.172549
0.737255 0.309804 0.180392
0.188235 0.309804 0.137255
0.2 0.329412 0.152941
0.235294 0.345098 0.152941
0.286275 0.352941 0.14902
0.392157 0.380392 0.172549
0.501961 0.4 0.2
0.564706 0.392157 0.184314
0.654902 0.4 0.180392
0.760784 0.431373 0.188235
0.286275 0.478431 0.156863
0.294118 0.498039 0.164706
0.32549 0.505882 0.160784
0.388235 0.517647 0.160784
0.505882 0.560784 0.180392
0.611765 0.592157 0.2
0.717647 0.615686 0.243137
0.768627 0.596078 0.215686
0.811765 0.6 0.215686
0.411765 0.662745 0.14902
0.423529 0.678431 0.164706
0.439216 0.678431 0.168627
0.509804 0.698039 0.156863
0.572549 0.705882 0.156863
0.682353 0.733333 0.184314
0.764706 0.74902 0.215686
0.847059 0.764706 0.298039
0.886275 0.760784 0.294118
0.537255 0.807843 0.145098
0.545098 0.815686 0.145098
0.556863 0.815686 0.14902
0.596078 0.815686 0.141176
0.658824 0.819608 0.113725
0.737255 0.831373 0.14902
0.811765 0.847059 0.184314
0.886275 0.854902 0.239216
0.929412 0.858824 0.352941
0.65098 0.905882 0.160784
0.65098 0.905882 0.160784
0.666667 0.909804 0.145098
0.705882 0.913725 0.121569
0.752941 0.909804 0.101961
0.815686 0.913725 0.121569
0.878431 0.917647 0.180392
0.929412 0.909804 0.290196
0.937255 0.913725 0.392157
0.0196078 0.0862745 0.12549
0.0392157 0.0941176 0.145098
0.0784314 0.0705882 0.14902
0.145098 0.0784314 0.164706
0.223529 0.109804 0.188235
0.341176 0.137255 0.223529
0.447059 0.141176 0.227451
0.588235 0.129412 0.235294
0.701961 0.12549 0.239216
0.054902 0.109804 0.145098
0.0627451 0.117647 0.160784
0.105882 0.121569 0.168627
0.156863 0.0980392 0.172549
0.247059 0.133333 0.219608
0.376471 0.156863 0.254902
0.490196 0.156863 0.270588
0.627451 0.145098 0.262745
0.72549 0.133333 0.258824
0.0941176 0.156863 0.168627
0.0901961 0.160784 0.176471
0.12549 0.160784 0.180392
0.180392 0.14902 0.192157
0.282353 0.196078 0.243137
0.372549 0.196078 0.247059
0.482353 0.184314 0.235294
0.611765 0.180392 0.231373
0.729412 0.192157 0.254902
0.12549 0.207843 0.172549
0.137255 0.219608 0.184314
0.160784 0.219608 0.192157
0.243137 0.25098 0.231373
0.309804 0.25098 0.231373
0.384314 0.247059 0.231373
0.501961 0.258824 0.239216
0.627451 0.27451 0.239216
0.741176 0.301961 0.254902
0.172549 0.301961 0.188235
0.184314 0.329412 0.207843
0.215686 0.337255 0.215686
0.294118 0.368627 0.243137
0.384314 0.380392 0.262745
0.482353 0.392157 0.270588
0.54902 0.372549 0.243137
0.666667 0.396078 0.243137
0.760784 0.431373 0.258824
0.282353 0.478431 0.231373
0.298039 0.501961 0.25098
0.32549 0.505882 0.254902
0.392157 0.533333 0.258824
0.478431 0.541176 0.254902
0.6 0.584314 0.298039
0.690196 0.611765 0.333333
0.737255 0.572549 0.286275
0.8 0.580392 0.27451
0.4 0.658824 0.243137
0.411765 0.67451 0.258824
0.439216 0.682353 0.262745
0.486275 0.678431 0.247059
0.556863 0.694118 0.239216
0.678431 0.733333 0.286275
0.768627 0.752941 0.333333
0.85098 0.768627 0.411765
0.886275 0.768627 0.392157
0.517647 0.8 0.235294
0.521569 0.811765 0.243137
0.556863 0.823529 0.247059
0.584314 0.819608 0.243137
0.65098 0.827451 0.219608
0.717647 0.831373 0.235294
0.807843 0.854902 0.282353
0.882353 0.862745 0.368627
0.929412 0.870588 0.470588
0.643137 0.905882 0.270588
0.643137 0.921569 0.290196
0.662745 0.917647 0.294118
0.698039 0.917647 0.266667
0.737255 0.917647 0.247059
0.807843 0.92549 0.247059
0.878431 0.921569 0.309804
0.941176 0.921569 0.427451
0.94902 0.929412 0.513725
0.0156863 0.117647 0.184314
0.0196078 0.12549 0.192157
0.0823529 0.137255 0.211765
0.121569 0.105882 0.235294
0.239216 0.117647 0.258824
0.34902 0.145098 0.301961
0.541176 0.219608 0.4
0.662745 0.231373 0.423529
0.756863 0.243137 0.447059
0.0313725 0.141176 0.196078
0.0470588 0.14902 0.207843
0.0941176 0.160784 0.239216
0.141176 0.137255 0.262745
0.270588 0.145098 0.305882
0.4 0.176471 0.352941
0.580392 0.258824 0.45098
0.694118 0.258824 0.466667
0.780392 0.270588 0.490196
0.101961 0.2 0.227451
0.0980392 0.203922 0.239216
0.109804 0.196078 0.247059
0.184314 0.211765 0.27451
0.282353 0.188235 0.301961
0.423529 0.239216 0.364706
0.6 0.309804 0.454902
0.690196 0.290196 0.447059
0.768627 0.290196 0.45098
0.133333 0.258824 0.239216
0.141176 0.294118 0.27451
0.168627 0.282353 0.266667
0.235294 0.286275 0.309804
0.333333 0.278431 0.329412
0.478431 0.356863 0.415686
0.588235 0.34902 0.419608
0.678431 0.298039 0.364706
0.768627 0.294118 0.384314
0.192157 0.352941 0.278431
0.192157 0.360784 0.27451
0.227451 0.372549 0.301961
0.305882 0.392157 0.333333
0.431373 0.439216 0.396078
0.498039 0.419608 0.384314
0.576471 0.392157 0.352941
0.678431 0.384314 0.341176
0.772549 0.403922 0.356863
0.258824 0.47451 0.301961
0.258824 0.482353 0.305882
0.305882 0.509804 0.329412
0.368627 0.517647 0.356863
0.486275 0.560784 0.380392
0.592157 0.588235 0.419608
0.666667 0.584314 0.415686
0.709804 0.537255 0.352941
0.807843 0.572549 0.368627
0.352941 0.658824 0.321569
0.364706 0.678431 0.337255
0.4 0.682353 0.352941
0.486275 0.694118 0.380392
0.556863 0.705882 0.380392
0.647059 0.717647 0.380392
0.772549 0.764706 0.47451
0.835294 0.776471 0.529412
0.882353 0.764706 0.490196
0.509804 0.811765 0.372549
0.517647 0.815686 0.392157
0.537255 0.819608 0.388235
0.580392 0.823529 0.388235
0.639216 0.835294 0.360784
0.709804 0.831373 0.360784
0.827451 0.862745 0.443137
0.894118 0.87451 0.517647
0.941176 0.890196 0.623529
0.631373 0.917647 0.427451
0.65098 0.929412 0.45098
0.654902 0.921569 0.447059
0.698039 0.929412 0.435294
0.752941 0.929412 0.439216
0.803922 0.933333 0.411765
0.886275 0.937255 0.478431
0.956863 0.945098 0.576471
0.960784 0.945098 0.654902
0.027451 0.176471 0.266667
0.0235294 0.196078 0.298039
0.0745098 0.192157 0.301961
0.141176 0.203922 0.345098
0.231373 0.156863 0.376471
0.380392 0.160784 0.415686
0.52549 0.2 0.47451
0.705882 0.317647 0.572549
0.803922 0.431373 0.65098
0.0313725 0.203922 0.309804
0.0313725 0.223529 0.341176
0.0823529 0.235294 0.364706
0.164706 0.235294 0.392157
0.235294 0.180392 0.423529
0.431373 0.192157 0.462745
0.568627 0.231373 0.517647
0.74902 0.376471 0.643137
0.831373 0.482353 0.694118
0.0823529 0.266667 0.341176
0.0862745 0.27451 0.360784
0.0941176 0.266667 0.364706
0.172549 0.290196 0.4
0.254902 0.239216 0.439216
0.447059 0.25098 0.482353
0.6 0.305882 0.537255
0.74902 0.447059 0.65098
0.827451 0.517647 0.694118
0.137255 0.360784 0.388235
0.141176 0.368627 0.396078
0.176471 0.364706 0.411765
0.196078 0.341176 0.415686
0.337255 0.356863 0.470588
0.486275 0.333333 0.490196
0.635294 0.419608 0.572549
0.776471 0.545098 0.654902
0.831373 0.541176 0.670588
0.180392 0.454902 0.411765
0.184314 0.458824 0.415686
0.227451 0.47451 0.443137
0.298039 0.470588 0.454902
0.403922 0.470588 0.498039
0.541176 0.470588 0.52549
0.682353 0.572549 0.615686
0.756863 0.560784 0.615686
0.823529 0.537255 0.611765
0.254902 0.54902 0.427451
0.262745 0.556863 0.439216
0.301961 0.552941 0.447059
0.376471 0.564706 0.478431
0.486275 0.592157 0.517647
0.627451 0.635294 0.584314
0.670588 0.592157 0.545098
0.737255 0.54902 0.494118
0.811765 0.552941 0.501961
0.34902 0.666667 0.435294
0.352941 0.662745 0.439216
0.376471 0.662745 0.447059
0.466667 0.690196 0.490196
0.545098 0.709804 0.513725
0.662745 0.737255 0.556863
0.760784 0.768627 0.615686
0.819608 0.756863 0.607843
0.854902 0.745098 0.560784
0.470588 0.831373 0.498039
0.466667 0.823529 0.47451
0.494118 0.831373 0.482353
0.560784 0.831373 0.513725
0.654902 0.835294 0.552941
0.72549 0.85098 0.552941
0.811765 0.862745 0.580392
0.898039 0.886275 0.678431
0.952941 0.905882 0.74902
0.647059 0.937255 0.603922
0.639216 0.933333 0.588235
0.666667 0.937255 0.607843
0.729412 0.945098 0.643137
0.764706 0.941176 0.639216
0.823529 0.945098 0.631373
0.890196 0.94902 0.615686
0.960784 0.952941 0.733333
0.972549 0.956863 0.788235
0.0431373 0.282353 0.458824
0.0431373 0.301961 0.498039
0.0627451 0.298039 0.501961
0.133333 0.317647 0.533333
0.211765 0.262745 0.537255
0.380392 0.215686 0.576471
0.564706 0.231373 0.611765
0.694118 0.305882 0.658824
0.807843 0.447059 0.741176
0.0470588 0.317647 0.521569
0.054902 0.341176 0.545098
0.0705882 0.341176 0.564706
0.145098 0.345098 0.568627
0.25098 0.313725 0.607843
0.435294 0.254902 0.639216
0.603922 0.27451 0.658824
0.721569 0.333333 0.690196
0.831373 0.482353 0.776471
0.0745098 0.364706 0.541176
0.0745098 0.376471 0.54902
0.0901961 0.372549 0.568627
0.156863 0.384314 0.592157
0.290196 0.384314 0.619608
0.427451 0.301961 0.643137
0.615686 0.329412 0.662745
0.729412 0.388235 0.694118
0.835294 0.552941 0.784314
0.145098 0.439216 0.552941
0.145098 0.470588 0.588235
0.156863 0.45098 0.576471
0.180392 0.439216 0.596078
0.321569 0.47451 0.635294
0.466667 0.411765 0.654902
0.639216 0.435294 0.678431
0.760784 0.505882 0.717647
0.85098 0.643137 0.792157
0.2 0.552941 0.596078
0.2 0.560784 0.611765
0.243137 0.564706 0.619608
0.329412 0.560784 0.631373
0.360784 0.541176 0.635294
0.533333 0.552941 0.67451
0.670588 0.537255 0.682353
0.792157 0.631373 0.74902
0.870588 0.733333 0.811765
0.270588 0.631373 0.588235
0.27451 0.647059 0.6
0.309804 0.65098 0.615686
0.419608 0.662745 0.65098
0.498039 0.662745 0.658824
0.611765 0.670588 0.698039
0.713725 0.666667 0.705882
0.835294 0.760784 0.784314
0.882353 0.768627 0.8
0.372549 0.713725 0.588235
0.368627 0.72549 0.603922
0.4 0.733333 0.619608
0.470588 0.729412 0.623529
0.560784 0.745098 0.662745
0.662745 0.756863 0.694118
0.788235 0.796078 0.752941
0.815686 0.74902 0.709804
0.862745 0.729412 0.682353
0.454902 0.788235 0.572549
0.47451 0.803922 0.6
0.501961 0.815686 0.615686
0.545098 0.815686 0.635294
0.627451 0.835294 0.654902
0.705882 0.85098 0.690196
0.811765 0.866667 0.72549
0.894118 0.886275 0.788235
0.941176 0.909804 0.819608
0.635294 0.933333 0.698039
0.627451 0.937255 0.694118
0.658824 0.941176 0.705882
0.690196 0.945098 0.705882
0.741176 0.952941 0.733333
0.819608 0.945098 0.760784
0.886275 0.956863 0.760784
0.960784 0.960784 0.827451
0.972549 0.960784 0.878431
0.0588235 0.4 0.670588
0.0627451 0.427451 0.701961
0.0745098 0.415686 0.694118
0.129412 0.427451 0.721569
0.231373 0.415686 0.721569
0.32549 0.333333 0.756863
0.580392 0.352941 0.784314
0.733333 0.384314 0.784314
0.807843 0.466667 0.807843
0.0627451 0.431373 0.713725
0.0666667 0.458824 0.745098
0.0862745 0.462745 0.760784
0.141176 0.470588 0.756863
0.254902 0.478431 0.780392
0.345098 0.345098 0.784314
0.615686 0.372549 0.803922
0.741176 0.407843 0.811765
0.819608 0.482353 0.823529
0.0862745 0.478431 0.721569
0.0901961 0.494118 0.752941
0.101961 0.490196 0.752941
0.160784 0.501961 0.772549
0.266667 0.513725 0.776471
0.423529 0.45098 0.796078
0.623529 0.435294 0.807843
0.764706 0.47451 0.823529
0.823529 0.541176 0.827451
0.156863 0.54902 0.741176
0.160784 0.572549 0.760784
0.168627 0.560784 0.756863
0.2 0.54902 0.768627
0.321569 0.576471 0.788235
0.517647 0.576471 0.8
0.635294 0.517647 0.811765
0.780392 0.556863 0.823529
0.843137 0.619608 0.839216
0.27451 0.647059 0.772549
0.266667 0.65098 0.764706
0.329412 0.666667 0.788235
0.360784 0.654902 0.780392
0.396078 0.643137 0.788235
0.560784 0.678431 0.811765
0.666667 0.627451 0.823529
0.803922 0.65098 0.835294
0.862745 0.713725 0.858824
0.352941 0.733333 0.780392
0.360784 0.745098 0.792157
0.392157 0.741176 0.796078
0.462745 0.745098 0.8
0.568627 0.74902 0.811765
0.611765 0.741176 0.815686
0.729412 0.74902 0.835294
0.819608 0.729412 0.839216
0.898039 0.8 0.87451
0.411765 0.784314 0.760784
0.427451 0.8 0.784314
0.462745 0.803922 0.780392
0.529412 0.807843 0.796078
0.627451 0.823529 0.819608
0.694118 0.807843 0.823529
0.788235 0.831373 0.854902
0.854902 0.827451 0.854902
0.92549 0.882353 0.905882
0.505882 0.85098 0.764706
0.517647 0.854902 0.764706
0.541176 0.858824 0.784314
0.603922 0.866667 0.8
0.654902 0.862745 0.8
0.737255 0.866667 0.823529
0.811765 0.878431 0.839216
0.898039 0.901961 0.882353
0.921569 0.882353 0.858824
0.662745 0.929412 0.8
0.666667 0.933333 0.803922
0.678431 0.929412 0.807843
0.717647 0.937255 0.823529
0.768627 0.945098 0.847059
0.815686 0.94902 0.854902
0.882353 0.956863 0.878431
0.952941 0.968627 0.909804
0.972549 0.972549 0.94902
0.0862745 0.521569 0.827451
0.0941176 0.54902 0.85098
0.113725 0.545098 0.847059
0.172549 0.552941 0.854902
0.25098 0.572549 0.862745
0.478431 0.584314 0.890196
0.596078 0.513725 0.898039
0.760784 0.541176 0.901961
0.847059 0.6 0.905882
0.101961 0.560784 0.866667
0.113725 0.572549 0.882353
0.137255 0.580392 0.886275
0.2 0.588235 0.890196
0.301961 0.603922 0.886275
0.521569 0.615686 0.917647
0.611765 0.541176 0.921569
0.768627 0.568627 0.921569
0.854902 0.615686 0.921569
0.141176 0.607843 0.87451
0.145098 0.607843 0.882353
0.160784 0.607843 0.886275
0.219608 0.615686 0.882353
0.384314 0.65098 0.901961
0.560784 0.662745 0.913725
0.635294 0.596078 0.917647
0.792157 0.615686 0.921569
0.866667 0.662745 0.92549
0.254902 0.67451 0.878431
0.262745 0.682353 0.886275
0.266667 0.682353 0.886275
0.301961 0.67451 0.898039
0.447059 0.709804 0.905882
0.592157 0.729412 0.921569
0.666667 0.658824 0.921569
0.8 0.67451 0.921569
0.870588 0.709804 0.929412
0.439216 0.764706 0.898039
0.458824 0.772549 0.901961
0.466667 0.764706 0.898039
0.482353 0.764706 0.905882
0.52549 0.764706 0.909804
0.631373 0.780392 0.92549
0.741176 0.764706 0.933333
0.815686 0.741176 0.929412
0.894118 0.772549 0.937255
0.501961 0.811765 0.901961
0.513725 0.815686 0.917647
0.533333 0.819608 0.917647
0.603922 0.835294 0.929412
0.654902 0.835294 0.929412
0.686275 0.827451 0.929412
0.772549 0.835294 0.937255
0.843137 0.815686 0.945098
0.917647 0.823529 0.94902
0.576471 0.870588 0.913725
0.568627 0.870588 0.921569
0.607843 0.87451 0.92549
0.65098 0.878431 0.92549
0.705882 0.87451 0.933333
0.776471 0.886275 0.941176
0.811765 0.886275 0.952941
0.866667 0.870588 0.94902
0.933333 0.882353 0.952941
0.647059 0.921569 0.921569
0.635294 0.917647 0.921569
0.658824 0.917647 0.92549
0.694118 0.929412 0.933333
0.768627 0.929412 0.945098
0.803922 0.92549 0.937255
0.862745 0.929412 0.956863
0.913725 0.929412 0.964706
0.94902 0.937255 0.964706
0.741176 0.956863 0.933333
0.737255 0.960784 0.933333
0.764706 0.964706 0.941176
0.792157 0.960784 0.937255
0.819608 0.964706 0.941176
0.870588 0.968627 0.956863
0.917647 0.976471 0.964706
0.968627 0.976471 0.972549
0.980392 0.980392 0.976471
