assets/luts/cinematic/CineMagic NT N30V3.cube
#Generated by Picture Instruments - Unlimited Filters
TITLE "CineMagic NT N30V3"
LUT_3D_SIZE 17
0.00392157 0 0
0.0431373 0.00392157 0
0.0941176 0.0117647 0.00784314
0.14902 0.00784314 0.00784314
0.211765 0.0156863 0.0117647
0.27451 0.0235294 0.0235294
0.345098 0.0313725 0.027451
0.435294 0.0509804 0.0470588
0.509804 0.0627451 0.0627451
0.596078 0.0705882 0.0745098
0.65098 0.0784314 0.0784314
0.72549 0.0901961 0.0823529
0.780392 0.0980392 0.0941176
0.839216 0.113725 0.101961
0.886275 0.121569 0.0980392
0.933333 0.133333 0.105882
0.956863 0.133333 0.0980392
0.00784314 0.00784314 0
0.0392157 0.00784314 0
0.0941176 0.0196078 0.00392157
0.141176 0.0196078 0.00784314
0.207843 0.0313725 0.0117647
0.266667 0.0431373 0.0156863
0.32549 0.054902 0.027451
0.419608 0.0784314 0.0431373
0.509804 0.109804 0.0588235
0.592157 0.117647 0.0823529
0.647059 0.121569 0.0784314
0.72549 0.137255 0.0823529
0.784314 0.14902 0.0901961
0.835294 0.156863 0.0941176
0.882353 0.168627 0.0980392
0.92549 0.168627 0.101961
0.960784 0.172549 0.101961
0.0117647 0.0313725 0.00784314
0.0470588 0.027451 0.00392157
0.0941176 0.027451 0
0.145098 0.0392157 0.00392157
0.211765 0.054902 0.0156863
0.282353 0.0745098 0.0196078
0.352941 0.0980392 0.027451
0.423529 0.117647 0.0392157
0.529412 0.152941 0.0666667
0.6 0.160784 0.0823529
0.67451 0.160784 0.0823529
0.721569 0.172549 0.0823529
0.784314 0.188235 0.0941176
0.847059 0.196078 0.0941176
0.890196 0.211765 0.0941176
0.933333 0.223529 0.101961
0.960784 0.223529 0.0901961
0.00392157 0.0862745 0.0117647
0.0470588 0.0823529 0.0156863
0.0980392 0.0745098 0.0117647
0.14902 0.0745098 0.00784314
0.203922 0.0941176 0.0117647
0.278431 0.121569 0.0196078
0.341176 0.141176 0.0196078
0.427451 0.176471 0.0392157
0.533333 0.203922 0.0705882
0.596078 0.211765 0.0745098
0.666667 0.219608 0.0784314
0.729412 0.227451 0.0901961
0.8 0.235294 0.101961
0.839216 0.243137 0.0980392
0.886275 0.25098 0.0980392
0.937255 0.266667 0.0980392
0.956863 0.266667 0.0980392
0.00784314 0.184314 0.0313725
0.0470588 0.164706 0.0235294
0.0980392 0.152941 0.0156863
0.14902 0.156863 0.0117647
0.203922 0.14902 0.0117647
0.278431 0.168627 0.0117647
0.341176 0.188235 0.0196078
0.439216 0.227451 0.0470588
0.529412 0.254902 0.0627451
0.603922 0.266667 0.0745098
0.666667 0.27451 0.0823529
0.733333 0.286275 0.0823529
0.792157 0.294118 0.0941176
0.839216 0.301961 0.0980392
0.890196 0.321569 0.0980392
0.92549 0.309804 0.0941176
0.972549 0.309804 0.0941176
0.0235294 0.254902 0.0431373
0.0627451 0.235294 0.0352941
0.109804 0.239216 0.0313725
0.152941 0.223529 0.0196078
0.219608 0.219608 0.0156863
0.294118 0.227451 0.0235294
0.380392 0.258824 0.0352941
0.458824 0.298039 0.054902
0.537255 0.301961 0.0666667
0.627451 0.321569 0.0784314
0.690196 0.333333 0.0862745
0.74902 0.345098 0.0862745
0.788235 0.345098 0.0862745
0.85098 0.368627 0.0941176
0.894118 0.376471 0.0941176
0.937255 0.380392 0.0980392
0.964706 0.376471 0.0980392
0.027451 0.329412 0.054902
0.0666667 0.329412 0.0509804
0.109804 0.317647 0.0431373
0.164706 0.321569 0.0431373
0.231373 0.341176 0.0470588
0.286275 0.309804 0.0352941
0.360784 0.313725 0.0313725
0.458824 0.341176 0.054902
0.556863 0.364706 0.0666667
0.615686 0.368627 0.0666667
0.686275 0.388235 0.0823529
0.741176 0.4 0.0901961
0.807843 0.411765 0.0901961
0.854902 0.423529 0.0901961
0.886275 0.431373 0.0901961
0.937255 0.435294 0.0941176
0.960784 0.435294 0.0901961
0.0313725 0.415686 0.0745098
0.0745098 0.423529 0.0705882
0.117647 0.407843 0.0666667
0.164706 0.396078 0.0666667
0.219608 0.411765 0.054902
0.294118 0.435294 0.0666667
0.376471 0.431373 0.0588235
0.462745 0.4 0.054902
0.552941 0.419608 0.0666667
0.623529 0.427451 0.0784314
0.690196 0.439216 0.0862745
0.741176 0.454902 0.0862745
0.8 0.470588 0.0941176
0.843137 0.482353 0.0941176
0.890196 0.490196 0.0941176
0.933333 0.494118 0.0941176
0.960784 0.486275 0.0901961
0.0313725 0.498039 0.105882
0.0862745 0.498039 0.101961
0.129412 0.501961 0.0941176
0.180392 0.505882 0.0980392
0.219608 0.498039 0.0823529
0.290196 0.509804 0.0823529
0.384314 0.529412 0.0823529
0.470588 0.509804 0.0666667
0.54902 0.482353 0.0666667
0.615686 0.486275 0.0666667
0.686275 0.501961 0.0862745
0.752941 0.517647 0.0862745
0.807843 0.533333 0.0941176
0.835294 0.529412 0.101961
0.878431 0.537255 0.0862745
0.933333 0.541176 0.0941176
0.960784 0.533333 0.0823529
0.0509804 0.576471 0.12549
0.0862745 0.568627 0.121569
0.137255 0.572549 0.109804
0.184314 0.572549 0.113725
0.243137 0.576471 0.109804
0.313725 0.588235 0.101961
0.392157 0.596078 0.0980392
0.478431 0.596078 0.0862745
0.564706 0.560784 0.0666667
0.635294 0.556863 0.0745098
0.682353 0.556863 0.0745098
0.74902 0.568627 0.0901961
0.8 0.584314 0.0901961
0.847059 0.592157 0.0901961
0.890196 0.596078 0.0941176
0.933333 0.592157 0.0862745
0.968627 0.592157 0.0823529
0.0431373 0.643137 0.145098
0.0941176 0.647059 0.137255
0.133333 0.643137 0.129412
0.192157 0.635294 0.117647
0.243137 0.647059 0.113725
0.301961 0.658824 0.121569
0.388235 0.666667 0.117647
0.482353 0.670588 0.105882
0.564706 0.662745 0.0980392
0.627451 0.635294 0.0745098
0.694118 0.627451 0.0784314
0.74902 0.639216 0.0823529
0.8 0.639216 0.0901961
0.847059 0.647059 0.0862745
0.886275 0.647059 0.0862745
0.929412 0.643137 0.0901961
0.972549 0.643137 0.0862745
0.0509804 0.713725 0.156863
0.0901961 0.713725 0.14902
0.141176 0.713725 0.145098
0.188235 0.709804 0.14902
0.239216 0.721569 0.133333
0.305882 0.717647 0.113725
0.392157 0.729412 0.129412
0.482353 0.733333 0.121569
0.564706 0.737255 0.109804
0.619608 0.729412 0.0980392
0.682353 0.705882 0.0862745
0.752941 0.698039 0.0784314
0.803922 0.709804 0.0901961
0.843137 0.713725 0.0862745
0.878431 0.705882 0.0901961
0.929412 0.698039 0.0862745
0.956863 0.698039 0.0862745
0.0627451 0.772549 0.168627
0.101961 0.772549 0.168627
0.145098 0.768627 0.160784
0.188235 0.776471 0.14902
0.258824 0.776471 0.145098
0.333333 0.784314 0.141176
0.396078 0.780392 0.133333
0.482353 0.784314 0.133333
0.580392 0.788235 0.121569
0.643137 0.792157 0.113725
0.698039 0.784314 0.105882
0.756863 0.756863 0.0823529
0.803922 0.756863 0.0901961
0.843137 0.756863 0.0862745
0.886275 0.752941 0.0862745
0.937255 0.756863 0.0862745
0.956863 0.756863 0.0862745
0.054902 0.827451 0.172549
0.101961 0.827451 0.176471
0.152941 0.831373 0.176471
0.207843 0.835294 0.168627
0.254902 0.835294 0.152941
0.32549 0.839216 0.156863
0.403922 0.847059 0.14902
0.490196 0.847059 0.137255
0.556863 0.847059 0.137255
0.631373 0.85098 0.133333
0.694118 0.85098 0.129412
0.760784 0.847059 0.117647
0.803922 0.819608 0.0941176
0.85098 0.819608 0.0862745
0.890196 0.811765 0.0862745
0.933333 0.811765 0.0941176
0.960784 0.807843 0.0901961
0.0627451 0.890196 0.196078
0.105882 0.886275 0.192157
0.152941 0.890196 0.176471
0.207843 0.886275 0.180392
0.258824 0.898039 0.164706
0.321569 0.894118 0.160784
0.403922 0.898039 0.160784
0.490196 0.901961 0.152941
0.564706 0.901961 0.145098
0.631373 0.901961 0.152941
0.686275 0.905882 0.141176
0.74902 0.894118 0.133333
0.807843 0.898039 0.129412
0.847059 0.882353 0.0941176
0.886275 0.882353 0.0901961
0.929412 0.866667 0.0784314
0.964706 0.866667 0.0823529
0.0705882 0.933333 0.203922
0.133333 0.941176 0.203922
0.160784 0.941176 0.192157
0.211765 0.937255 0.184314
0.278431 0.945098 0.180392
0.34902 0.945098 0.176471
0.419608 0.94902 0.168627
0.490196 0.94902 0.164706
0.572549 0.937255 0.156863
0.635294 0.945098 0.14902
0.698039 0.945098 0.156863
0.768627 0.945098 0.145098
0.807843 0.937255 0.133333
0.85098 0.937255 0.133333
0.898039 0.937255 0.113725
0.937255 0.921569 0.0862745
0.960784 0.921569 0.0941176
0.0705882 0.968627 0.207843
0.109804 0.968627 0.207843
0.160784 0.972549 0.196078
0.211765 0.980392 0.192157
0.278431 0.972549 0.188235
0.341176 0.968627 0.176471
0.396078 0.972549 0.168627
0.47451 0.972549 0.168627
0.560784 0.968627 0.156863
0.623529 0.972549 0.152941
0.686275 0.972549 0.156863
0.737255 0.968627 0.145098
0.803922 0.968627 0.137255
0.85098 0.968627 0.137255
0.898039 0.968627 0.129412
0.937255 0.972549 0.117647
0.960784 0.968627 0.113725
0.00392157 0.00392157 0.0117647
0.0431373 0.00392157 0.00784314
0.0941176 0.00784314 0.0156863
0.14902 0.0117647 0.027451
0.207843 0.0156863 0.0313725
0.282353 0.0235294 0.0392157
0.34902 0.0313725 0.0588235
0.423529 0.0431373 0.0862745
0.509804 0.0627451 0.0941176
0.6 0.0705882 0.12549
0.666667 0.0784314 0.12549
0.733333 0.0901961 0.133333
0.784314 0.101961 0.137255
0.839216 0.113725 0.137255
0.890196 0.12549 0.141176
0.937255 0.137255 0.14902
0.964706 0.133333 0.141176
0.00784314 0.0156863 0.0117647
0.0431373 0.0117647 0.00392157
0.0941176 0.0156863 0.0196078
0.141176 0.0156863 0.0196078
0.207843 0.0352941 0.0313725
0.27451 0.0470588 0.0392157
0.337255 0.054902 0.0666667
0.415686 0.0784314 0.0745098
0.521569 0.113725 0.101961
0.592157 0.109804 0.117647
0.654902 0.121569 0.121569
0.717647 0.129412 0.12549
0.780392 0.145098 0.137255
0.835294 0.14902 0.137255
0.886275 0.160784 0.141176
0.933333 0.176471 0.141176
0.960784 0.176471 0.141176
0.0117647 0.0352941 0.0196078
0.0392157 0.0235294 0.0117647
0.0823529 0.027451 0.0156863
0.14902 0.0392157 0.0235294
0.207843 0.054902 0.027451
0.270588 0.0823529 0.0431373
0.333333 0.0941176 0.0509804
0.419608 0.117647 0.0784314
0.505882 0.152941 0.109804
0.584314 0.160784 0.113725
0.662745 0.168627 0.113725
0.717647 0.176471 0.133333
0.784314 0.188235 0.137255
0.839216 0.207843 0.137255
0.886275 0.215686 0.14902
0.929412 0.219608 0.137255
0.960784 0.219608 0.137255
0.0117647 0.0941176 0.027451
0.0509804 0.0745098 0.0196078
0.105882 0.0745098 0.0235294
0.145098 0.0705882 0.0156863
0.203922 0.0901961 0.0196078
0.270588 0.121569 0.0392157
0.352941 0.156863 0.0666667
0.435294 0.176471 0.0745098
0.513725 0.196078 0.113725
0.607843 0.207843 0.117647
0.670588 0.215686 0.12549
0.737255 0.227451 0.133333
0.780392 0.223529 0.129412
0.847059 0.243137 0.141176
0.894118 0.25098 0.137255
0.933333 0.266667 0.137255
0.960784 0.262745 0.137255
0.0117647 0.164706 0.0431373
0.0509804 0.164706 0.0431373
0.101961 0.152941 0.0352941
0.145098 0.14902 0.027451
0.211765 0.152941 0.0313725
0.278431 0.164706 0.0392157
0.34902 0.2 0.0588235
0.435294 0.223529 0.0745098
0.52549 0.258824 0.105882
0.6 0.266667 0.121569
0.67451 0.27451 0.12549
0.737255 0.282353 0.129412
0.788235 0.290196 0.129412
0.847059 0.301961 0.141176
0.886275 0.309804 0.137255
0.933333 0.313725 0.137255
0.968627 0.313725 0.141176
0.0196078 0.262745 0.0705882
0.054902 0.258824 0.0666667
0.0941176 0.235294 0.0470588
0.14902 0.235294 0.0431373
0.215686 0.227451 0.0431373
0.270588 0.219608 0.0431373
0.360784 0.258824 0.0666667
0.435294 0.278431 0.0784314
0.533333 0.305882 0.109804
0.607843 0.321569 0.121569
0.670588 0.329412 0.121569
0.729412 0.337255 0.133333
0.796078 0.352941 0.133333
0.847059 0.364706 0.129412
0.886275 0.376471 0.141176
0.941176 0.384314 0.141176
0.968627 0.372549 0.137255
0.0196078 0.329412 0.0862745
0.0745098 0.32549 0.0862745
0.12549 0.321569 0.0823529
0.160784 0.317647 0.0705882
0.215686 0.313725 0.0588235
0.290196 0.301961 0.054902
0.380392 0.309804 0.0666667
0.462745 0.341176 0.0901961
0.556863 0.360784 0.113725
0.607843 0.368627 0.121569
0.694118 0.384314 0.12549
0.74902 0.4 0.133333
0.8 0.415686 0.137255
0.839216 0.415686 0.129412
0.890196 0.431373 0.121569
0.937255 0.435294 0.141176
0.964706 0.435294 0.137255
0.0313725 0.415686 0.113725
0.0666667 0.415686 0.101961
0.117647 0.407843 0.105882
0.164706 0.403922 0.0980392
0.223529 0.407843 0.0941176
0.301961 0.427451 0.0941176
0.364706 0.392157 0.0784314
0.458824 0.396078 0.0901961
0.54902 0.419608 0.109804
0.627451 0.435294 0.12549
0.682353 0.435294 0.12549
0.737255 0.454902 0.121569
0.8 0.470588 0.133333
0.85098 0.482353 0.137255
0.886275 0.490196 0.129412
0.937255 0.494118 0.133333
0.968627 0.486275 0.133333
0.027451 0.494118 0.141176
0.0784314 0.486275 0.137255
0.121569 0.501961 0.129412
0.172549 0.490196 0.129412
0.227451 0.501961 0.12549
0.290196 0.501961 0.117647
0.376471 0.52549 0.121569
0.466667 0.513725 0.113725
0.556863 0.482353 0.113725
0.623529 0.486275 0.117647
0.694118 0.501961 0.137255
0.745098 0.517647 0.137255
0.792157 0.521569 0.117647
0.843137 0.533333 0.137255
0.890196 0.541176 0.133333
0.937255 0.541176 0.133333
0.964706 0.533333 0.133333
0.0352941 0.572549 0.156863
0.0784314 0.572549 0.160784
0.141176 0.568627 0.156863
0.188235 0.576471 0.14902
0.235294 0.580392 0.14902
0.294118 0.584314 0.141176
0.368627 0.592157 0.141176
0.47451 0.607843 0.12549
0.552941 0.584314 0.117647
0.615686 0.545098 0.105882
0.682353 0.556863 0.113725
0.74902 0.568627 0.133333
0.8 0.584314 0.129412
0.85098 0.596078 0.133333
0.890196 0.596078 0.137255
0.929412 0.592157 0.133333
0.960784 0.592157 0.129412
0.0431373 0.647059 0.176471
0.0941176 0.647059 0.168627
0.141176 0.631373 0.168627
0.184314 0.635294 0.160784
0.247059 0.647059 0.160784
0.317647 0.654902 0.164706
0.4 0.662745 0.156863
0.482353 0.666667 0.14902
0.552941 0.662745 0.129412
0.631373 0.631373 0.113725
0.701961 0.627451 0.12549
0.74902 0.635294 0.12549
0.796078 0.635294 0.133333
0.839216 0.643137 0.129412
0.886275 0.65098 0.133333
0.937255 0.65098 0.137255
0.964706 0.65098 0.129412
0.0470588 0.713725 0.192157
0.0862745 0.709804 0.188235
0.141176 0.721569 0.188235
0.184314 0.709804 0.188235
0.239216 0.713725 0.176471
0.309804 0.721569 0.164706
0.384314 0.72549 0.172549
0.478431 0.72549 0.164706
0.564706 0.733333 0.145098
0.627451 0.729412 0.129412
0.690196 0.698039 0.129412
0.752941 0.694118 0.12549
0.803922 0.705882 0.137255
0.843137 0.701961 0.129412
0.890196 0.701961 0.129412
0.92549 0.698039 0.12549
0.952941 0.698039 0.12549
0.054902 0.788235 0.203922
0.0823529 0.772549 0.196078
0.141176 0.776471 0.2
0.192157 0.772549 0.192157
0.25098 0.780392 0.184314
0.313725 0.788235 0.180392
0.384314 0.780392 0.168627
0.478431 0.792157 0.176471
0.556863 0.792157 0.164706
0.631373 0.796078 0.160784
0.682353 0.784314 0.14902
0.741176 0.772549 0.12549
0.803922 0.756863 0.129412
0.847059 0.760784 0.121569
0.894118 0.760784 0.133333
0.929412 0.756863 0.12549
0.960784 0.752941 0.12549
0.054902 0.831373 0.215686
0.101961 0.831373 0.207843
0.152941 0.835294 0.211765
0.2 0.827451 0.207843
0.25098 0.835294 0.192157
0.32549 0.839216 0.188235
0.407843 0.843137 0.188235
0.482353 0.843137 0.172549
0.556863 0.835294 0.176471
0.639216 0.85098 0.176471
0.701961 0.843137 0.168627
0.764706 0.843137 0.156863
0.803922 0.811765 0.137255
0.847059 0.819608 0.12549
0.894118 0.807843 0.12549
0.933333 0.807843 0.129412
0.960784 0.807843 0.121569
0.0588235 0.882353 0.227451
0.101961 0.886275 0.227451
0.145098 0.890196 0.215686
0.196078 0.886275 0.223529
0.27451 0.894118 0.219608
0.32549 0.894118 0.192157
0.403922 0.890196 0.2
0.490196 0.901961 0.192157
0.564706 0.898039 0.196078
0.627451 0.898039 0.2
0.690196 0.901961 0.188235
0.756863 0.898039 0.176471
0.819608 0.905882 0.176471
0.85098 0.87451 0.137255
0.894118 0.87451 0.129412
0.941176 0.870588 0.133333
0.960784 0.870588 0.133333
0.0627451 0.937255 0.243137
0.105882 0.941176 0.243137
0.14902 0.937255 0.243137
0.211765 0.937255 0.223529
0.266667 0.941176 0.227451
0.337255 0.94902 0.215686
0.396078 0.945098 0.211765
0.482353 0.94902 0.211765
0.552941 0.941176 0.192157
0.627451 0.945098 0.2
0.682353 0.945098 0.196078
0.741176 0.94902 0.188235
0.803922 0.945098 0.176471
0.854902 0.941176 0.172549
0.898039 0.937255 0.168627
0.941176 0.937255 0.145098
0.968627 0.92549 0.141176
0.0666667 0.968627 0.243137
0.105882 0.964706 0.243137
0.152941 0.972549 0.243137
0.215686 0.976471 0.223529
0.266667 0.972549 0.227451
0.333333 0.972549 0.215686
0.396078 0.972549 0.211765
0.478431 0.972549 0.211765
0.54902 0.972549 0.2
0.627451 0.972549 0.2
0.682353 0.968627 0.192157
0.741176 0.968627 0.188235
0.803922 0.968627 0.180392
0.85098 0.968627 0.176471
0.898039 0.960784 0.168627
0.933333 0.968627 0.152941
0.968627 0.968627 0.152941
0.00784314 0.00392157 0.0235294
0.0392157 0.00392157 0.0235294
0.0862745 0.00392157 0.0235294
0.137255 0.00784314 0.0352941
0.2 0.0156863 0.0470588
0.262745 0.0196078 0.0627451
0.333333 0.0352941 0.0862745
0.407843 0.0431373 0.113725
0.505882 0.0705882 0.137255
0.580392 0.0705882 0.164706
0.658824 0.0862745 0.168627
0.709804 0.0862745 0.172549
0.780392 0.101961 0.180392
0.839216 0.113725 0.184314
0.890196 0.12549 0.188235
0.933333 0.133333 0.180392
0.968627 0.133333 0.180392
0.00392157 0.027451 0.027451
0.054902 0.0117647 0.027451
0.0980392 0.0196078 0.027451
0.145098 0.027451 0.0352941
0.2 0.0352941 0.0509804
0.270588 0.0470588 0.0705882
0.345098 0.0588235 0.0862745
0.427451 0.0862745 0.121569
0.501961 0.101961 0.145098
0.580392 0.121569 0.156863
0.666667 0.12549 0.176471
0.72549 0.133333 0.168627
0.796078 0.145098 0.184314
0.835294 0.145098 0.184314
0.886275 0.168627 0.184314
0.941176 0.180392 0.184314
0.952941 0.180392 0.184314
0.00784314 0.0509804 0.027451
0.0470588 0.0313725 0.027451
0.0901961 0.027451 0.027451
0.14902 0.0392157 0.0352941
0.211765 0.054902 0.054902
0.266667 0.0705882 0.0666667
0.345098 0.0941176 0.0862745
0.419608 0.12549 0.113725
0.505882 0.152941 0.152941
0.596078 0.164706 0.160784
0.654902 0.160784 0.164706
0.721569 0.172549 0.176471
0.784314 0.188235 0.176471
0.843137 0.203922 0.184314
0.886275 0.207843 0.184314
0.933333 0.223529 0.188235
0.964706 0.219608 0.180392
0.00392157 0.109804 0.0431373
0.0470588 0.113725 0.0509804
0.0823529 0.0745098 0.027451
0.137255 0.0705882 0.0313725
0.203922 0.0941176 0.0509804
0.270588 0.12549 0.0627451
0.333333 0.14902 0.0862745
0.415686 0.168627 0.109804
0.501961 0.196078 0.14902
0.592157 0.207843 0.156863
0.666667 0.219608 0.176471
0.729412 0.227451 0.176471
0.784314 0.227451 0.180392
0.843137 0.243137 0.188235
0.886275 0.254902 0.184314
0.933333 0.262745 0.188235
0.964706 0.262745 0.180392
0.00784314 0.176471 0.0666667
0.054902 0.172549 0.0627451
0.105882 0.156863 0.054902
0.14902 0.14902 0.0470588
0.203922 0.141176 0.0509804
0.270588 0.160784 0.0666667
0.356863 0.2 0.0980392
0.447059 0.227451 0.121569
0.52549 0.258824 0.152941
0.592157 0.254902 0.164706
0.666667 0.270588 0.160784
0.733333 0.282353 0.176471
0.8 0.290196 0.188235
0.839216 0.286275 0.180392
0.886275 0.301961 0.184314
0.933333 0.305882 0.172549
0.964706 0.309804 0.176471
0.0156863 0.262745 0.0941176
0.0588235 0.247059 0.0901961
0.113725 0.239216 0.0784314
0.156863 0.227451 0.0705882
0.207843 0.235294 0.0745098
0.282353 0.231373 0.0666667
0.352941 0.243137 0.0862745
0.435294 0.282353 0.121569
0.521569 0.305882 0.152941
0.603922 0.32549 0.160784
0.678431 0.329412 0.172549
0.733333 0.337255 0.172549
0.792157 0.34902 0.176471
0.839216 0.360784 0.168627
0.886275 0.368627 0.180392
0.933333 0.376471 0.188235
0.960784 0.372549 0.188235
0.0196078 0.333333 0.117647
0.0627451 0.333333 0.121569
0.109804 0.333333 0.117647
0.156863 0.317647 0.0980392
0.207843 0.317647 0.0901961
0.278431 0.317647 0.0901961
0.352941 0.301961 0.0941176
0.447059 0.341176 0.12549
0.52549 0.364706 0.152941
0.611765 0.372549 0.160784
0.682353 0.388235 0.172549
0.737255 0.4 0.176471
0.792157 0.403922 0.172549
0.847059 0.423529 0.180392
0.882353 0.431373 0.176471
0.937255 0.435294 0.180392
0.960784 0.435294 0.176471
0.0235294 0.403922 0.141176
0.0745098 0.415686 0.137255
0.117647 0.411765 0.141176
0.164706 0.403922 0.133333
0.223529 0.403922 0.121569
0.286275 0.403922 0.121569
0.380392 0.392157 0.113725
0.47451 0.4 0.129412
0.556863 0.419608 0.152941
0.623529 0.431373 0.168627
0.678431 0.431373 0.160784
0.745098 0.454902 0.168627
0.803922 0.466667 0.180392
0.847059 0.482353 0.180392
0.882353 0.478431 0.168627
0.937255 0.498039 0.176471
0.960784 0.498039 0.180392
0.0196078 0.494118 0.180392
0.0823529 0.490196 0.180392
0.121569 0.490196 0.168627
0.164706 0.486275 0.164706
0.219608 0.494118 0.156863
0.305882 0.501961 0.164706
0.384314 0.529412 0.164706
0.462745 0.486275 0.14902
0.54902 0.486275 0.152941
0.627451 0.490196 0.160784
0.690196 0.501961 0.172549
0.737255 0.501961 0.164706
0.8 0.529412 0.164706
0.843137 0.529412 0.180392
0.890196 0.541176 0.180392
0.937255 0.541176 0.180392
0.956863 0.537255 0.180392
0.0313725 0.572549 0.196078
0.0627451 0.568627 0.207843
0.133333 0.568627 0.2
0.180392 0.576471 0.2
0.231373 0.572549 0.192157
0.298039 0.580392 0.188235
0.380392 0.588235 0.180392
0.462745 0.603922 0.180392
0.54902 0.584314 0.164706
0.623529 0.552941 0.160784
0.690196 0.556863 0.164706
0.741176 0.572549 0.172549
0.792157 0.576471 0.172549
0.831373 0.584314 0.168627
0.886275 0.596078 0.184314
0.937255 0.596078 0.180392
0.960784 0.584314 0.164706
0.0392157 0.65098 0.219608
0.0784314 0.643137 0.207843
0.121569 0.643137 0.215686
0.176471 0.639216 0.2
0.231373 0.65098 0.203922
0.301961 0.658824 0.2
0.360784 0.654902 0.192157
0.45098 0.662745 0.192157
0.556863 0.670588 0.176471
0.627451 0.65098 0.172549
0.690196 0.631373 0.164706
0.745098 0.631373 0.168627
0.792157 0.631373 0.176471
0.843137 0.647059 0.172549
0.886275 0.658824 0.176471
0.92549 0.65098 0.176471
0.960784 0.65098 0.176471
0.0352941 0.709804 0.231373
0.0862745 0.709804 0.235294
0.137255 0.709804 0.223529
0.192157 0.701961 0.215686
0.239216 0.713725 0.215686
0.317647 0.717647 0.215686
0.388235 0.721569 0.211765
0.478431 0.729412 0.196078
0.556863 0.729412 0.192157
0.623529 0.729412 0.184314
0.694118 0.701961 0.168627
0.760784 0.698039 0.168627
0.8 0.698039 0.164706
0.843137 0.698039 0.180392
0.890196 0.701961 0.168627
0.933333 0.698039 0.176471
0.952941 0.694118 0.172549
0.0470588 0.776471 0.239216
0.0862745 0.776471 0.247059
0.137255 0.772549 0.235294
0.192157 0.772549 0.231373
0.239216 0.776471 0.231373
0.313725 0.780392 0.223529
0.384314 0.784314 0.219608
0.458824 0.788235 0.211765
0.560784 0.796078 0.215686
0.627451 0.784314 0.2
0.690196 0.784314 0.196078
0.745098 0.760784 0.176471
0.803922 0.756863 0.176471
0.839216 0.760784 0.168627
0.890196 0.756863 0.172549
0.937255 0.756863 0.176471
0.964706 0.756863 0.168627
0.0431373 0.839216 0.247059
0.0901961 0.835294 0.247059
0.133333 0.831373 0.25098
0.188235 0.831373 0.247059
0.25098 0.835294 0.239216
0.309804 0.839216 0.243137
0.388235 0.847059 0.231373
0.458824 0.839216 0.215686
0.552941 0.85098 0.223529
0.623529 0.85098 0.223529
0.690196 0.847059 0.215686
0.741176 0.843137 0.207843
0.796078 0.827451 0.180392
0.847059 0.819608 0.168627
0.894118 0.827451 0.176471
0.933333 0.827451 0.180392
0.956863 0.807843 0.168627
0.0470588 0.886275 0.266667
0.101961 0.886275 0.266667
0.152941 0.890196 0.266667
0.207843 0.890196 0.262745
0.25098 0.878431 0.243137
0.317647 0.886275 0.231373
0.4 0.890196 0.247059
0.482353 0.898039 0.239216
0.552941 0.890196 0.219608
0.619608 0.890196 0.231373
0.694118 0.905882 0.231373
0.752941 0.894118 0.219608
0.811765 0.898039 0.219608
0.843137 0.870588 0.180392
0.894118 0.87451 0.176471
0.937255 0.870588 0.180392
0.960784 0.866667 0.168627
0.054902 0.941176 0.278431
0.0941176 0.929412 0.270588
0.152941 0.945098 0.278431
0.207843 0.937255 0.262745
0.266667 0.941176 0.27451
0.333333 0.937255 0.262745
0.4 0.945098 0.25098
0.47451 0.945098 0.254902
0.545098 0.94902 0.243137
0.627451 0.945098 0.235294
0.678431 0.941176 0.243137
0.745098 0.945098 0.235294
0.803922 0.941176 0.227451
0.858824 0.941176 0.219608
0.898039 0.937255 0.219608
0.941176 0.929412 0.180392
0.964706 0.92549 0.180392
0.054902 0.960784 0.286275
0.0941176 0.960784 0.27451
0.156863 0.968627 0.27451
0.211765 0.968627 0.266667
0.270588 0.972549 0.270588
0.329412 0.964706 0.262745
0.396078 0.976471 0.25098
0.478431 0.968627 0.254902
0.545098 0.968627 0.247059
0.615686 0.964706 0.235294
0.67451 0.968627 0.243137
0.74902 0.972549 0.231373
0.803922 0.972549 0.227451
0.858824 0.964706 0.219608
0.898039 0.964706 0.219608
0.937255 0.972549 0.207843
0.964706 0.964706 0.196078
0.0156863 0.0156863 0.0627451
0.0509804 0.0117647 0.054902
0.0980392 0.0117647 0.0627451
0.141176 0.0117647 0.0470588
0.196078 0.0156863 0.0666667
0.247059 0.0235294 0.0823529
0.32549 0.0352941 0.113725
0.407843 0.0470588 0.145098
0.494118 0.0666667 0.180392
0.580392 0.0784314 0.207843
0.654902 0.0862745 0.207843
0.717647 0.0862745 0.215686
0.780392 0.101961 0.219608
