assets/luts/cinematic/CineMagic NT N30V1.cube
#Generated by Picture Instruments - Unlimited Filters
TITLE "CineMagic NT N30V1"
LUT_3D_SIZE 5
0.0901961 0.0509804 0.054902
0.211765 0.121569 0.0980392
0.509804 0.211765 0.14902
0.811765 0.32549 0.215686
0.909804 0.478431 0.254902
0.0980392 0.2 0.0941176
0.2 0.160784 0.113725
0.564706 0.298039 0.160784
0.843137 0.419608 0.235294
0.909804 0.545098 0.258824
0.0705882 0.447059 0.164706
0.156863 0.505882 0.145098
0.623529 0.447059 0.184314
0.882353 0.580392 0.258824
0.909804 0.678431 0.278431
0.0901961 0.768627 0.203922
0.203922 0.827451 0.192157
0.721569 0.854902 0.282353
0.894118 0.72549 0.282353
0.917647 0.760784 0.286275
0.152941 0.976471 0.258824
0.309804 0.976471 0.25098
0.686275 0.976471 0.337255
0.917647 0.972549 0.403922
0.933333 0.898039 0.290196
0.0901961 0.172549 0.192157
0.14902 0.145098 0.164706
0.431373 0.266667 0.203922
0.803922 0.392157 0.215686
0.913725 0.494118 0.258824
0.0901961 0.160784 0.160784
0.176471 0.180392 0.188235
0.564706 0.305882 0.168627
0.839216 0.388235 0.223529
0.909804 0.498039 0.262745
0.0745098 0.482353 0.262745
0.121569 0.505882 0.203922
0.6 0.470588 0.192157
0.866667 0.611765 0.258824
0.913725 0.698039 0.278431
0.0941176 0.792157 0.313725
0.160784 0.827451 0.239216
0.611765 0.854902 0.278431
0.878431 0.760784 0.282353
0.917647 0.776471 0.294118
0.133333 0.976471 0.4
0.262745 0.976471 0.298039
0.619608 0.976471 0.34902
0.882353 0.976471 0.415686
0.937255 0.901961 0.298039
0.0980392 0.321569 0.427451
0.0980392 0.309804 0.34902
0.184314 0.376471 0.262745
0.694118 0.462745 0.298039
0.921569 0.596078 0.478431
0.0941176 0.317647 0.388235
0.0941176 0.34902 0.458824
0.282353 0.4 0.313725
0.752941 0.505882 0.376471
0.92549 0.607843 0.505882
0.101961 0.329412 0.372549
0.101961 0.392157 0.415686
0.458824 0.541176 0.54902
0.847059 0.627451 0.560784
0.933333 0.678431 0.521569
0.168627 0.745098 0.67451
0.152941 0.792157 0.615686
0.470588 0.847059 0.498039
0.858824 0.792157 0.439216
0.933333 0.803922 0.423529
0.188235 0.921569 0.752941
0.168627 0.960784 0.662745
0.541176 0.976471 0.498039
0.819608 0.972549 0.52549
0.952941 0.921569 0.435294
0.133333 0.576471 0.701961
0.129412 0.560784 0.627451
0.121569 0.556863 0.521569
0.6 0.54902 0.423529
0.894118 0.631373 0.592157
0.12549 0.568627 0.694118
0.129412 0.572549 0.721569
0.129412 0.54902 0.611765
0.654902 0.572549 0.552941
0.921569 0.662745 0.678431
0.129412 0.556863 0.686275
0.129412 0.596078 0.713725
0.243137 0.658824 0.788235
0.760784 0.647059 0.72549
0.945098 0.733333 0.796078
0.133333 0.580392 0.682353
0.14902 0.647059 0.705882
0.262745 0.721569 0.772549
0.819608 0.815686 0.807843
0.956863 0.827451 0.807843
0.192157 0.831373 0.866667
0.211765 0.894118 0.886275
0.219608 0.929412 0.835294
0.776471 0.976471 0.729412
0.956863 0.937255 0.709804
0.172549 0.780392 0.858824
0.176471 0.788235 0.847059
0.172549 0.764706 0.847059
0.458824 0.745098 0.85098
0.882353 0.721569 0.847059
0.176471 0.764706 0.870588
0.176471 0.760784 0.890196
0.172549 0.752941 0.870588
0.552941 0.737255 0.886275
0.901961 0.721569 0.862745
0.172549 0.737255 0.862745
0.168627 0.752941 0.882353
0.176471 0.760784 0.901961
0.627451 0.752941 0.92549
0.937255 0.741176 0.894118
0.172549 0.733333 0.858824
0.172549 0.756863 0.87451
0.184314 0.792157 0.901961
0.737255 0.827451 0.94902
0.952941 0.819608 0.933333
0.176471 0.760784 0.866667
0.184314 0.788235 0.882353
0.192157 0.839216 0.901961
0.733333 0.878431 0.933333
0.952941 0.952941 0.917647
