assets/luts/cinematic/CineMagic NT N30V3.cube
#Generated by Picture Instruments - Unlimited Filters
TITLE "CineMagic NT N30V3"
LUT_3D_SIZE 5
0.00392157 0 0
0.211765 0.0156863 0.0117647
0.509804 0.0627451 0.0627451
0.780392 0.0980392 0.0941176
0.956863 0.133333 0.0980392
0.00784314 0.184314 0.0313725
0.203922 0.14902 0.0117647
0.529412 0.254902 0.0627451
0.792157 0.294118 0.0941176
0.972549 0.309804 0.0941176
0.0313725 0.498039 0.105882
0.219608 0.498039 0.0823529
0.54902 0.482353 0.0666667
0.807843 0.533333 0.0941176
0.960784 0.533333 0.0823529
0.0627451 0.772549 0.168627
0.258824 0.776471 0.145098
0.580392 0.788235 0.121569
0.803922 0.756863 0.0901961
0.956863 0.756863 0.0862745
0.0705882 0.968627 0.207843
0.278431 0.972549 0.188235
0.560784 0.968627 0.156863
0.803922 0.968627 0.137255
0.960784 0.968627 0.113725
0.0156863 0.0235294 0.117647
0.188235 0.0156863 0.105882
0.486275 0.0666667 0.231373
0.784314 0.109804 0.266667
0.964706 0.133333 0.286275
0.0117647 0.180392 0.129412
0.196078 0.156863 0.121569
0.509804 0.254902 0.231373
0.784314 0.278431 0.254902
0.968627 0.301961 0.27451
0.0156863 0.517647 0.286275
0.223529 0.501961 0.266667
0.533333 0.478431 0.239216
0.792157 0.521569 0.25098
0.960784 0.545098 0.262745
0.0313725 0.780392 0.333333
0.211765 0.772549 0.32549
0.521569 0.792157 0.294118
0.792157 0.760784 0.262745
0.960784 0.756863 0.254902
0.0313725 0.972549 0.380392
0.25098 0.972549 0.345098
0.533333 0.972549 0.337255
0.796078 0.972549 0.317647
0.964706 0.964706 0.290196
0.0156863 0.0784314 0.423529
0.14902 0.0705882 0.403922
0.419608 0.0745098 0.4
0.756863 0.141176 0.458824
0.968627 0.176471 0.52549
0.0117647 0.258824 0.458824
0.141176 0.247059 0.462745
0.419608 0.254902 0.411765
0.764706 0.32549 0.47451
0.968627 0.34902 0.509804
0.00784314 0.486275 0.490196
0.117647 0.494118 0.486275
0.458824 0.513725 0.513725
0.792157 0.541176 0.505882
0.972549 0.541176 0.498039
0.0117647 0.788235 0.596078
0.109804 0.780392 0.572549
0.478431 0.792157 0.537255
0.792157 0.768627 0.462745
0.968627 0.772549 0.462745
0.0117647 0.960784 0.631373
0.121569 0.964706 0.588235
0.513725 0.968627 0.541176
0.780392 0.972549 0.52549
0.964706 0.972549 0.501961
0.00784314 0.0823529 0.713725
0.0862745 0.0862745 0.698039
0.294118 0.117647 0.67451
0.709804 0.168627 0.698039
0.972549 0.192157 0.752941
0.00392157 0.321569 0.741176
0.0941176 0.305882 0.733333
0.309804 0.282353 0.698039
0.741176 0.34902 0.701961
0.980392 0.376471 0.768627
0 0.54902 0.756863
0.0666667 0.533333 0.752941
0.290196 0.533333 0.756863
0.768627 0.560784 0.741176
0.972549 0.603922 0.768627
0 0.760784 0.768627
0.0392157 0.756863 0.772549
0.286275 0.764706 0.784314
0.796078 0.827451 0.745098
0.976471 0.831373 0.74902
0 0.952941 0.807843
0.027451 0.960784 0.807843
0.298039 0.968627 0.796078
0.788235 0.976471 0.737255
0.972549 0.972549 0.713725
0 0.0823529 0.941176
0.0509804 0.0705882 0.945098
0.231373 0.0980392 0.94902
0.611765 0.176471 0.960784
0.976471 0.215686 0.968627
0 0.341176 0.960784
0.0588235 0.321569 0.952941
0.243137 0.309804 0.952941
0.65098 0.360784 0.964706
0.976471 0.392157 0.968627
0 0.568627 0.960784
0.0431373 0.556863 0.960784
0.227451 0.552941 0.956863
0.678431 0.588235 0.980392
0.972549 0.607843 0.976471
0 0.772549 0.964706
0.00784314 0.768627 0.964706
0.231373 0.772549 0.952941
0.72549 0.815686 0.976471
0.972549 0.827451 0.972549
0 0.945098 0.952941
0 0.945098 0.960784
0.223529 0.94902 0.956863
0.729412 0.960784 0.976471
0.972549 0.976471 0.968627
