assets/luts/cinematic/CineMagic NT N30V2.cube
#Generated by Picture Instruments - Unlimited Filters
TITLE "CineMagic NT N30V2"
LUT_3D_SIZE 9
0.054902 0.054902 0.054902
0.172549 0.0588235 0.0745098
0.329412 0.0745098 0.0862745
0.52549 0.0784314 0.109804
0.709804 0.0862745 0.164706
0.803922 0.133333 0.203922
0.862745 0.164706 0.219608
0.909804 0.203922 0.247059
0.937255 0.25098 0.270588
0.0666667 0.0941176 0.0666667
0.109804 0.0980392 0.0705882
0.239216 0.109804 0.0745098
0.427451 0.109804 0.0901961
0.662745 0.105882 0.12549
0.803922 0.113725 0.188235
0.870588 0.192157 0.207843
0.92549 0.243137 0.247059
0.941176 0.294118 0.270588
0.0784314 0.168627 0.0901961
0.113725 0.164706 0.0941176
0.176471 0.172549 0.0941176
0.352941 0.192157 0.105882
0.607843 0.227451 0.14902
0.796078 0.211765 0.188235
0.890196 0.235294 0.211765
0.933333 0.298039 0.254902
0.956863 0.360784 0.278431
0.0980392 0.254902 0.121569
0.117647 0.254902 0.12549
0.168627 0.262745 0.129412
0.290196 0.298039 0.145098
0.615686 0.345098 0.192157
0.8 0.403922 0.239216
0.894118 0.454902 0.27451
0.941176 0.494118 0.298039
0.960784 0.521569 0.301961
0.109804 0.341176 0.160784
0.133333 0.34902 0.156863
0.168627 0.356863 0.160784
0.25098 0.411765 0.184314
0.490196 0.466667 0.219608
0.784314 0.517647 0.270588
0.898039 0.596078 0.305882
0.937255 0.654902 0.333333
0.956863 0.678431 0.341176
0.133333 0.454902 0.203922
0.14902 0.458824 0.203922
0.172549 0.462745 0.203922
0.235294 0.509804 0.227451
0.380392 0.635294 0.278431
0.72549 0.662745 0.317647
0.882353 0.713725 0.345098
0.92549 0.760784 0.368627
0.952941 0.768627 0.368627
0.160784 0.584314 0.25098
0.176471 0.584314 0.25098
0.203922 0.592157 0.258824
0.247059 0.611765 0.266667
0.360784 0.705882 0.305882
0.639216 0.85098 0.380392
0.831373 0.819608 0.376471
0.917647 0.839216 0.388235
0.933333 0.847059 0.384314
0.2 0.713725 0.305882
0.211765 0.709804 0.305882
0.235294 0.713725 0.301961
0.258824 0.72549 0.317647
0.356863 0.788235 0.337255
0.505882 0.882353 0.388235
0.792157 0.964706 0.439216
0.905882 0.933333 0.415686
0.929412 0.921569 0.415686
0.231373 0.8 0.341176
0.243137 0.803922 0.341176
0.254902 0.8 0.341176
0.278431 0.807843 0.345098
0.360784 0.854902 0.364706
0.466667 0.92549 0.403922
0.717647 0.996078 0.462745
0.898039 1 0.498039
0.929412 0.996078 0.443137
0.0823529 0.0627451 0.117647
0.164706 0.0627451 0.105882
0.329412 0.0745098 0.0901961
0.498039 0.0745098 0.129412
0.654902 0.113725 0.211765
0.796078 0.137255 0.262745
0.85098 0.168627 0.27451
0.917647 0.223529 0.294118
0.941176 0.286275 0.313725
0.054902 0.0941176 0.0980392
0.105882 0.0980392 0.109804
0.25098 0.113725 0.137255
0.482353 0.105882 0.137255
0.686275 0.113725 0.196078
0.815686 0.160784 0.239216
0.890196 0.203922 0.270588
0.933333 0.25098 0.290196
0.941176 0.301961 0.298039
0.0705882 0.160784 0.121569
0.105882 0.168627 0.12549
0.176471 0.176471 0.137255
0.388235 0.207843 0.145098
0.670588 0.2 0.188235
0.835294 0.192157 0.231373
0.901961 0.239216 0.258824
0.941176 0.317647 0.294118
0.956863 0.368627 0.313725
0.0823529 0.25098 0.156863
0.109804 0.262745 0.160784
0.172549 0.27451 0.168627
0.309804 0.317647 0.192157
0.627451 0.352941 0.219608
0.815686 0.411765 0.27451
0.894118 0.45098 0.298039
0.941176 0.454902 0.313725
0.960784 0.47451 0.32549
0.0980392 0.341176 0.188235
0.117647 0.352941 0.192157
0.164706 0.364706 0.196078
0.25098 0.419608 0.211765
0.52549 0.494118 0.254902
0.796078 0.552941 0.313725
0.901961 0.611765 0.333333
0.937255 0.654902 0.360784
0.952941 0.67451 0.372549
0.121569 0.466667 0.239216
0.145098 0.482353 0.243137
0.172549 0.494118 0.239216
0.239216 0.537255 0.254902
0.388235 0.654902 0.313725
0.729412 0.698039 0.345098
0.886275 0.733333 0.368627
0.933333 0.776471 0.396078
0.952941 0.776471 0.396078
0.164706 0.588235 0.290196
0.172549 0.611765 0.282353
0.2 0.611765 0.282353
0.25098 0.643137 0.305882
0.34902 0.72549 0.329412
0.639216 0.870588 0.4
0.843137 0.854902 0.403922
0.921569 0.862745 0.411765
0.937255 0.854902 0.415686
0.2 0.717647 0.337255
0.211765 0.741176 0.337255
0.243137 0.741176 0.337255
0.254902 0.745098 0.337255
0.352941 0.811765 0.364706
0.52549 0.901961 0.411765
0.811765 0.992157 0.466667
0.905882 0.952941 0.439216
0.933333 0.92549 0.439216
0.231373 0.811765 0.372549
0.247059 0.811765 0.368627
0.270588 0.811765 0.372549
0.27451 0.803922 0.368627
0.360784 0.866667 0.392157
0.462745 0.92549 0.415686
0.721569 0.996078 0.486275
0.890196 1 0.521569
0.929412 0.996078 0.454902
0.0980392 0.0980392 0.184314
0.168627 0.117647 0.235294
0.258824 0.0980392 0.168627
0.494118 0.0784314 0.133333
0.709804 0.0941176 0.176471
0.788235 0.129412 0.235294
0.854902 0.172549 0.278431
0.921569 0.243137 0.321569
0.94902 0.321569 0.352941
0.0666667 0.121569 0.172549
0.117647 0.145098 0.215686
0.219608 0.113725 0.176471
0.517647 0.0980392 0.145098
0.662745 0.156863 0.223529
0.764706 0.243137 0.321569
0.854902 0.27451 0.329412
0.929412 0.301961 0.34902
0.94902 0.345098 0.352941
0.0666667 0.160784 0.160784
0.0980392 0.168627 0.176471
0.164706 0.196078 0.207843
0.368627 0.207843 0.231373
0.65098 0.247059 0.258824
0.807843 0.278431 0.294118
0.898039 0.298039 0.317647
0.941176 0.329412 0.341176
0.956863 0.396078 0.356863
0.0784314 0.266667 0.211765
0.105882 0.270588 0.215686
0.137255 0.282353 0.215686
0.301961 0.313725 0.239216
0.619608 0.372549 0.27451
0.815686 0.396078 0.317647
0.901961 0.384314 0.329412
0.945098 0.388235 0.341176
0.960784 0.45098 0.360784
0.109804 0.372549 0.25098
0.117647 0.372549 0.254902
0.14902 0.380392 0.254902
0.239216 0.415686 0.262745
0.505882 0.513725 0.321569
0.772549 0.545098 0.34902
0.878431 0.607843 0.376471
0.937255 0.639216 0.396078
0.960784 0.67451 0.407843
0.141176 0.490196 0.301961
0.152941 0.505882 0.301961
0.168627 0.498039 0.294118
0.219608 0.541176 0.313725
0.384314 0.643137 0.352941
0.713725 0.709804 0.388235
0.890196 0.741176 0.407843
0.929412 0.776471 0.419608
0.94902 0.792157 0.443137
0.168627 0.619608 0.34902
0.192157 0.643137 0.34902
0.203922 0.639216 0.337255
0.239216 0.654902 0.356863
0.341176 0.737255 0.376471
0.596078 0.858824 0.443137
0.831373 0.858824 0.443137
0.917647 0.862745 0.45098
0.933333 0.862745 0.454902
0.203922 0.737255 0.407843
0.227451 0.756863 0.384314
0.235294 0.74902 0.380392
0.254902 0.74902 0.380392
0.341176 0.815686 0.403922
0.498039 0.890196 0.443137
0.792157 0.988235 0.498039
0.909804 0.952941 0.462745
0.933333 0.933333 0.47451
0.235294 0.831373 0.439216
0.247059 0.831373 0.439216
0.262745 0.831373 0.419608
0.278431 0.827451 0.415686
0.341176 0.87451 0.45098
0.462745 0.937255 0.462745
0.709804 1 0.521569
0.882353 1 0.556863
0.929412 0.996078 0.486275
0.109804 0.160784 0.282353
0.164706 0.164706 0.301961
0.235294 0.156863 0.294118
0.345098 0.141176 0.243137
0.631373 0.117647 0.207843
0.792157 0.129412 0.243137
0.854902 0.160784 0.231373
0.905882 0.207843 0.270588
0.941176 0.286275 0.313725
0.0784314 0.188235 0.266667
0.133333 0.2 0.317647
0.192157 0.215686 0.345098
0.364706 0.168627 0.258824
0.701961 0.160784 0.25098
0.843137 0.164706 0.243137
0.898039 0.207843 0.298039
0.941176 0.290196 0.337255
0.94902 0.372549 0.396078
0.0745098 0.231373 0.266667
0.101961 0.235294 0.282353
0.160784 0.25098 0.321569
0.294118 0.231373 0.282353
0.67451 0.243137 0.254902
0.784314 0.294118 0.34902
0.843137 0.392157 0.427451
0.92549 0.411765 0.443137
0.952941 0.458824 0.470588
0.0784314 0.258824 0.258824
0.0941176 0.27451 0.27451
0.137255 0.294118 0.301961
0.235294 0.333333 0.352941
0.552941 0.384314 0.384314
0.792157 0.419608 0.411765
0.890196 0.454902 0.439216
0.956863 0.494118 0.447059
0.964706 0.545098 0.47451
0.0941176 0.368627 0.32549
0.117647 0.403922 0.337255
0.160784 0.411765 0.34902
0.215686 0.439216 0.372549
0.478431 0.513725 0.392157
0.760784 0.572549 0.45098
0.890196 0.619608 0.458824
0.952941 0.607843 0.458824
0.960784 0.631373 0.47451
0.156863 0.552941 0.419608
0.172549 0.572549 0.415686
0.188235 0.560784 0.403922
0.235294 0.592157 0.423529
0.34902 0.643137 0.423529
0.701961 0.737255 0.47451
0.870588 0.768627 0.478431
0.937255 0.792157 0.478431
0.964706 0.803922 0.494118
0.188235 0.67451 0.470588
0.196078 0.686275 0.458824
0.215686 0.686275 0.447059
0.247059 0.690196 0.439216
0.305882 0.741176 0.47451
0.592157 0.85098 0.505882
0.827451 0.870588 0.494118
0.92549 0.878431 0.494118
0.94902 0.870588 0.501961
0.211765 0.768627 0.509804
0.235294 0.792157 0.494118
0.247059 0.784314 0.478431
0.262745 0.784314 0.47451
0.317647 0.835294 0.505882
0.490196 0.901961 0.505882
0.768627 0.980392 0.564706
0.905882 0.960784 0.517647
0.937255 0.937255 0.509804
0.239216 0.839216 0.552941
0.247059 0.843137 0.529412
0.266667 0.843137 0.529412
0.27451 0.85098 0.505882
0.329412 0.886275 0.545098
0.419608 0.937255 0.564706
0.694118 0.996078 0.584314
0.890196 1 0.603922
0.933333 0.996078 0.541176
0.133333 0.235294 0.392157
0.188235 0.247059 0.407843
0.196078 0.247059 0.4
0.278431 0.2 0.345098
0.45098 0.196078 0.313725
0.729412 0.203922 0.298039
0.85098 0.172549 0.282353
0.909804 0.211765 0.27451
0.941176 0.262745 0.286275
0.0901961 0.25098 0.376471
0.164706 0.290196 0.443137
0.215686 0.317647 0.462745
0.294118 0.262745 0.396078
0.501961 0.231373 0.345098
0.811765 0.239216 0.313725
0.901961 0.211765 0.294118
0.941176 0.262745 0.286275
0.945098 0.317647 0.32549
0.0941176 0.298039 0.384314
0.113725 0.309804 0.4
0.207843 0.337255 0.458824
0.258824 0.32549 0.443137
0.45098 0.258824 0.345098
0.8 0.290196 0.352941
0.913725 0.262745 0.313725
0.945098 0.356863 0.360784
0.960784 0.443137 0.454902
0.0941176 0.32549 0.380392
0.109804 0.352941 0.403922
0.156863 0.376471 0.435294
0.254902 0.419608 0.505882
0.411765 0.388235 0.415686
0.807843 0.4 0.403922
0.862745 0.478431 0.47451
0.941176 0.529412 0.584314
0.972549 0.588235 0.678431
0.0980392 0.372549 0.380392
0.109804 0.384314 0.384314
0.156863 0.403922 0.423529
0.215686 0.454902 0.466667
0.396078 0.552941 0.572549
0.72549 0.603922 0.596078
0.886275 0.631373 0.615686
0.952941 0.639216 0.611765
0.976471 0.666667 0.647059
0.12549 0.517647 0.466667
0.14902 0.545098 0.490196
0.168627 0.556863 0.486275
0.215686 0.596078 0.529412
0.313725 0.662745 0.576471
0.67451 0.729412 0.592157
0.866667 0.772549 0.639216
0.94902 0.8 0.647059
0.968627 0.796078 0.658824
0.176471 0.686275 0.576471
0.2 0.72549 0.596078
0.223529 0.721569 0.584314
0.25098 0.737255 0.592157
0.32549 0.764706 0.607843
0.584314 0.85098 0.619608
0.831373 0.882353 0.607843
0.941176 0.890196 0.623529
0.972549 0.901961 0.639216
0.219608 0.796078 0.639216
0.243137 0.811765 0.643137
0.25098 0.8 0.615686
0.282353 0.807843 0.611765
0.32549 0.839216 0.635294
0.411765 0.882353 0.643137
0.768627 0.976471 0.65098
0.917647 0.976471 0.603922
0.960784 0.960784 0.596078
0.239216 0.854902 0.662745
0.254902 0.854902 0.643137
0.270588 0.85098 0.639216
0.286275 0.854902 0.631373
0.333333 0.898039 0.666667
0.380392 0.921569 0.678431
0.713725 0.996078 0.670588
0.87451 0.996078 0.678431
0.956863 0.992157 0.611765
0.168627 0.333333 0.521569
0.211765 0.337255 0.513725
0.239216 0.329412 0.494118
0.317647 0.313725 0.439216
0.470588 0.27451 0.388235
0.607843 0.25098 0.372549
0.819608 0.262745 0.364706
0.909804 0.247059 0.329412
0.941176 0.282353 0.32549
0.12549 0.337255 0.517647
0.207843 0.396078 0.584314
0.25098 0.4 0.572549
0.403922 0.407843 0.52549
0.552941 0.337255 0.427451
0.698039 0.305882 0.415686
0.882353 0.301961 0.380392
0.945098 0.301961 0.337255
0.94902 0.317647 0.329412
0.129412 0.4 0.529412
0.141176 0.407843 0.552941
0.247059 0.423529 0.576471
0.313725 0.403922 0.529412
0.490196 0.4 0.462745
0.658824 0.32549 0.415686
0.870588 0.356863 0.415686
0.945098 0.341176 0.352941
0.956863 0.396078 0.364706
0.121569 0.439216 0.529412
0.141176 0.454902 0.552941
0.188235 0.486275 0.588235
0.294118 0.494118 0.615686
0.478431 0.482353 0.552941
0.643137 0.4 0.443137
0.878431 0.47451 0.478431
0.956863 0.454902 0.419608
0.968627 0.560784 0.576471
0.129412 0.47451 0.52549
0.145098 0.494118 0.556863
0.168627 0.505882 0.564706
0.243137 0.545098 0.615686
0.403922 0.611765 0.694118
0.647059 0.564706 0.592157
0.894118 0.6 0.588235
0.964706 0.643137 0.694118
0.976471 0.701961 0.796078
0.121569 0.509804 0.529412
0.141176 0.545098 0.560784
0.164706 0.541176 0.537255
0.219608 0.592157 0.607843
0.313725 0.639216 0.654902
0.666667 0.764706 0.780392
0.866667 0.796078 0.788235
0.952941 0.807843 0.792157
0.972549 0.811765 0.8
0.160784 0.65098 0.619608
0.192157 0.686275 0.643137
0.2 0.678431 0.635294
0.239216 0.709804 0.654902
0.313725 0.745098 0.694118
0.470588 0.819608 0.74902
0.835294 0.886275 0.756863
0.941176 0.917647 0.784314
0.972549 0.921569 0.796078
0.2 0.772549 0.690196
0.223529 0.803922 0.717647
0.239216 0.803922 0.705882
0.262745 0.815686 0.713725
0.317647 0.854902 0.745098
0.392157 0.886275 0.760784
0.784314 0.976471 0.760784
0.929412 0.988235 0.72549
0.960784 0.976471 0.74902
0.231373 0.862745 0.741176
0.25098 0.87451 0.74902
0.270588 0.878431 0.745098
0.286275 0.878431 0.741176
0.329412 0.909804 0.768627
0.384314 0.933333 0.780392
0.721569 1 0.760784
0.878431 1 0.772549
0.956863 1 0.721569
0.2 0.423529 0.639216
0.243137 0.423529 0.627451
0.298039 0.411765 0.576471
0.454902 0.435294 0.560784
0.517647 0.380392 0.443137
0.670588 0.313725 0.435294
0.729412 0.321569 0.419608
0.878431 0.333333 0.407843
0.945098 0.341176 0.376471
0.160784 0.431373 0.647059
0.243137 0.490196 0.701961
0.309804 0.490196 0.686275
0.454902 0.470588 0.647059
0.701961 0.439216 0.576471
0.772549 0.372549 0.462745
0.815686 0.368627 0.458824
0.956863 0.388235 0.447059
0.956863 0.388235 0.423529
0.164706 0.494118 0.666667
0.184314 0.490196 0.686275
0.294118 0.505882 0.690196
0.368627 0.478431 0.666667
0.666667 0.501961 0.65098
0.745098 0.407843 0.505882
0.811765 0.384314 0.458824
0.937255 0.415686 0.47451
0.956863 0.447059 0.478431
0.156863 0.52549 0.658824
0.172549 0.552941 0.690196
0.207843 0.552941 0.701961
0.32549 0.556863 0.713725
0.560784 0.541176 0.701961
0.752941 0.486275 0.596078
0.815686 0.439216 0.494118
0.952941 0.509804 0.584314
0.968627 0.560784 0.588235
0.160784 0.564706 0.662745
0.176471 0.584314 0.690196
0.2 0.584314 0.690196
0.278431 0.631373 0.733333
0.435294 0.643137 0.780392
0.756863 0.596078 0.752941
0.839216 0.54902 0.615686
0.956863 0.627451 0.686275
0.976471 0.666667 0.647059
0.156863 0.6 0.670588
0.172549 0.627451 0.686275
0.196078 0.627451 0.686275
0.247059 0.662745 0.72549
0.333333 0.709804 0.772549
0.678431 0.784314 0.866667
0.85098 0.764706 0.815686
0.956863 0.784314 0.780392
0.984314 0.819608 0.854902
0.160784 0.647059 0.67451
0.188235 0.670588 0.690196
0.2 0.678431 0.698039
0.239216 0.690196 0.701961
0.301961 0.741176 0.74902
0.501961 0.819608 0.823529
0.827451 0.901961 0.878431
0.952941 0.92549 0.901961
0.976471 0.92549 0.901961
0.2 0.74902 0.737255
0.215686 0.784314 0.756863
0.235294 0.780392 0.752941
0.254902 0.784314 0.760784
0.301961 0.831373 0.796078
0.384314 0.87451 0.819608
0.760784 0.972549 0.870588
0.937255 0.992157 0.854902
0.972549 1 0.886275
0.227451 0.843137 0.788235
0.243137 0.854902 0.788235
0.254902 0.854902 0.788235
0.27451 0.858824 0.784314
0.317647 0.894118 0.819608
0.380392 0.933333 0.847059
0.682353 0.992157 0.862745
0.894118 1 0.866667
0.964706 0.996078 0.839216
0.239216 0.513725 0.745098
0.278431 0.509804 0.729412
0.345098 0.486275 0.690196
0.529412 0.494118 0.670588
0.737255 0.462745 0.627451
0.780392 0.415686 0.537255
0.815686 0.384314 0.478431
0.847059 0.380392 0.458824
0.956863 0.407843 0.47451
0.207843 0.521569 0.752941
0.27451 0.568627 0.815686
0.368627 0.568627 0.815686
0.54902 0.54902 0.792157
0.886275 0.568627 0.839216
0.921569 0.501961 0.698039
0.933333 0.478431 0.623529
0.937255 0.454902 0.568627
0.94902 0.45098 0.533333
0.196078 0.580392 0.768627
0.231373 0.568627 0.792157
0.313725 0.584314 0.807843
0.443137 0.568627 0.807843
0.741176 0.560784 0.803922
0.898039 0.533333 0.756863
0.905882 0.47451 0.611765
0.92549 0.458824 0.568627
0.952941 0.482353 0.588235
0.2 0.623529 0.776471
0.211765 0.631373 0.796078
0.239216 0.611765 0.8
0.372549 0.619608 0.823529
0.643137 0.603922 0.839216
0.878431 0.572549 0.815686
0.905882 0.505882 0.67451
0.929412 0.490196 0.6
0.968627 0.560784 0.686275
0.2 0.65098 0.772549
0.207843 0.666667 0.796078
0.235294 0.666667 0.803922
0.298039 0.690196 0.831373
0.439216 0.678431 0.85098
0.815686 0.643137 0.890196
0.929412 0.603922 0.819608
0.94902 0.576471 0.698039
0.976471 0.678431 0.8
0.196078 0.690196 0.780392
0.211765 0.705882 0.803922
0.227451 0.698039 0.796078
0.27451 0.721569 0.823529
0.368627 0.760784 0.854902
0.682353 0.803922 0.937255
0.92549 0.745098 0.929412
0.952941 0.733333 0.831373
0.980392 0.815686 0.862745
0.192157 0.713725 0.772549
0.207843 0.741176 0.803922
0.235294 0.733333 0.8
0.254902 0.74902 0.807843
0.329412 0.792157 0.847059
0.447059 0.831373 0.882353
0.839216 0.913725 0.968627
0.94902 0.898039 0.933333
0.976471 0.92549 0.905882
0.196078 0.756863 0.780392
0.211765 0.780392 0.8
0.231373 0.776471 0.803922
0.258824 0.788235 0.811765
0.301961 0.819608 0.835294
0.396078 0.858824 0.866667
0.745098 0.94902 0.933333
0.92549 0.996078 0.956863
0.976471 1 0.972549
0.223529 0.839216 0.827451
0.239216 0.839216 0.831373
0.254902 0.847059 0.831373
0.27451 0.85098 0.827451
0.305882 0.87451 0.854902
0.384314 0.913725 0.886275
0.635294 0.988235 0.929412
0.894118 1 0.960784
0.968627 0.996078 0.945098
0.266667 0.572549 0.823529
0.321569 0.572549 0.815686
0.396078 0.54902 0.792157
0.639216 0.545098 0.792157
0.882353 0.564706 0.831373
0.92549 0.521569 0.741176
0.933333 0.482353 0.643137
0.933333 0.462745 0.596078
0.937255 0.447059 0.568627
0.243137 0.588235 0.835294
0.298039 0.596078 0.835294
0.384314 0.572549 0.819608
0.592157 0.572549 0.823529
0.827451 0.568627 0.839216
0.937255 0.560784 0.811765
0.937255 0.498039 0.686275
0.941176 0.482353 0.635294
0.945098 0.47451 0.603922
0.231373 0.631373 0.843137
0.254902 0.607843 0.843137
0.34902 0.627451 0.847059
0.52549 0.603922 0.843137
0.741176 0.588235 0.85098
0.929412 0.584314 0.854902
0.937255 0.533333 0.741176
0.937255 0.494118 0.654902
0.94902 0.486275 0.619608
0.207843 0.67451 0.843137
0.231373 0.670588 0.85098
0.270588 0.643137 0.854902
0.4 0.662745 0.870588
0.701961 0.654902 0.898039
0.866667 0.603922 0.878431
0.945098 0.580392 0.827451
0.94902 0.533333 0.713725
0.960784 0.541176 0.698039
0.211765 0.705882 0.854902
0.231373 0.709804 0.854902
0.247059 0.709804 0.858824
0.345098 0.721569 0.886275
0.545098 0.737255 0.92549
0.854902 0.713725 0.956863
0.968627 0.682353 0.945098
0.972549 0.65098 0.866667
0.976471 0.662745 0.807843
0.211765 0.741176 0.854902
0.235294 0.741176 0.854902
0.243137 0.745098 0.858824
0.298039 0.768627 0.87451
0.392157 0.784314 0.909804
0.729412 0.839216 0.996078
0.933333 0.8 0.984314
0.980392 0.792157 0.956863
0.980392 0.784314 0.898039
0.211765 0.768627 0.854902
0.235294 0.768627 0.854902
0.247059 0.776471 0.854902
0.282353 0.788235 0.870588
0.352941 0.819608 0.898039
0.470588 0.858824 0.933333
0.878431 0.929412 1
0.988235 0.898039 0.996078
0.984314 0.909804 0.956863
0.211765 0.8 0.858824
0.239216 0.803922 0.862745
0.25098 0.807843 0.862745
0.266667 0.815686 0.866667
0.329412 0.847059 0.898039
0.419608 0.878431 0.917647
0.752941 0.960784 0.992157
0.956863 0.996078 0.996078
0.980392 0.996078 0.996078
0.227451 0.839216 0.862745
0.239216 0.839216 0.858824
0.25098 0.839216 0.858824
0.270588 0.843137 0.862745
0.313725 0.870588 0.878431
0.4 0.905882 0.917647
0.678431 0.976471 0.968627
0.901961 0.996078 0.996078
0.972549 1 0.996078
