assets/luts/cinematic/CineMagic NT Film3m2.cube
#Generated by Picture Instruments - Unlimited Filters
TITLE "CineMagic NT Film3m2"
LUT_3D_SIZE 5
0.0313725 0.0235294 0.027451
0.0745098 0.027451 0.0352941
0.203922 0.054902 0.0509804
0.4 0.0941176 0.0627451
0.690196 0.152941 0.0980392
0.0784314 0.105882 0.0352941
0.121569 0.117647 0.0392157
0.231373 0.133333 0.0470588
0.447059 0.156863 0.0705882
0.721569 0.231373 0.105882
0.192157 0.333333 0.0509804
0.235294 0.341176 0.0313725
0.415686 0.396078 0.0745098
0.607843 0.423529 0.101961
0.756863 0.443137 0.109804
0.431373 0.682353 0.0627451
0.45098 0.658824 0.0588235
0.572549 0.678431 0.0627451
0.768627 0.74902 0.0980392
0.886275 0.752941 0.180392
0.670588 0.913725 0.109804
0.67451 0.905882 0.0784314
0.752941 0.909804 0.0862745
0.870588 0.913725 0.0980392
0.929412 0.909804 0.345098
0.0392157 0.0588235 0.0823529
0.0901961 0.0509804 0.0941176
0.211765 0.0784314 0.133333
0.415686 0.101961 0.145098
0.690196 0.137255 0.168627
0.0823529 0.105882 0.0901961
0.12549 0.12549 0.12549
0.239216 0.137255 0.133333
0.443137 0.164706 0.141176
0.717647 0.215686 0.180392
0.188235 0.309804 0.137255
0.235294 0.345098 0.152941
0.392157 0.380392 0.172549
0.564706 0.392157 0.184314
0.760784 0.431373 0.188235
0.411765 0.662745 0.14902
0.439216 0.678431 0.168627
0.572549 0.705882 0.156863
0.764706 0.74902 0.215686
0.886275 0.760784 0.294118
0.65098 0.905882 0.160784
0.666667 0.909804 0.145098
0.752941 0.909804 0.101961
0.878431 0.917647 0.180392
0.937255 0.913725 0.392157
0.0156863 0.117647 0.184314
0.0823529 0.137255 0.211765
0.239216 0.117647 0.258824
0.541176 0.219608 0.4
0.756863 0.243137 0.447059
0.101961 0.2 0.227451
0.109804 0.196078 0.247059
0.282353 0.188235 0.301961
0.6 0.309804 0.454902
0.768627 0.290196 0.45098
0.192157 0.352941 0.278431
0.227451 0.372549 0.301961
0.431373 0.439216 0.396078
0.576471 0.392157 0.352941
0.772549 0.403922 0.356863
0.352941 0.658824 0.321569
0.4 0.682353 0.352941
0.556863 0.705882 0.380392
0.772549 0.764706 0.47451
0.882353 0.764706 0.490196
0.631373 0.917647 0.427451
0.654902 0.921569 0.447059
0.752941 0.929412 0.439216
0.886275 0.937255 0.478431
0.960784 0.945098 0.654902
0.0431373 0.282353 0.458824
0.0627451 0.298039 0.501961
0.211765 0.262745 0.537255
0.564706 0.231373 0.611765
0.807843 0.447059 0.741176
0.0745098 0.364706 0.541176
0.0901961 0.372549 0.568627
0.290196 0.384314 0.619608
0.615686 0.329412 0.662745
0.835294 0.552941 0.784314
0.2 0.552941 0.596078
0.243137 0.564706 0.619608
0.360784 0.541176 0.635294
0.670588 0.537255 0.682353
0.870588 0.733333 0.811765
0.372549 0.713725 0.588235
0.4 0.733333 0.619608
0.560784 0.745098 0.662745
0.788235 0.796078 0.752941
0.862745 0.729412 0.682353
0.635294 0.933333 0.698039
0.658824 0.941176 0.705882
0.741176 0.952941 0.733333
0.886275 0.956863 0.760784
0.972549 0.960784 0.878431
0.0862745 0.521569 0.827451
0.113725 0.545098 0.847059
0.25098 0.572549 0.862745
0.596078 0.513725 0.898039
0.847059 0.6 0.905882
0.141176 0.607843 0.87451
0.160784 0.607843 0.886275
0.384314 0.65098 0.901961
0.635294 0.596078 0.917647
0.866667 0.662745 0.92549
0.439216 0.764706 0.898039
0.466667 0.764706 0.898039
0.52549 0.764706 0.909804
0.741176 0.764706 0.933333
0.894118 0.772549 0.937255
0.576471 0.870588 0.913725
0.607843 0.87451 0.92549
0.705882 0.87451 0.933333
0.811765 0.886275 0.952941
0.933333 0.882353 0.952941
0.741176 0.956863 0.933333
0.764706 0.964706 0.941176
0.819608 0.964706 0.941176
0.917647 0.976471 0.964706
0.980392 0.980392 0.976471
