assets/luts/cinematic/CineMagic 2.cube
#Generated by Picture Instruments - Unlimited Filters
TITLE "CineMajic 2"
LUT_3D_SIZE 17
0.0352941 0.0117647 0.027451
0.0470588 0.0117647 0.0235294
0.0901961 0.00784314 0.027451
0.145098 0.00784314 0.0235294
0.2 0.00784314 0.0156863
0.262745 0.00392157 0.00784314
0.329412 0.0117647 0.00784314
0.4 0.00784314 0.00784314
0.478431 0.00784314 0.0117647
0.572549 0.00784314 0.00784314
0.666667 0.00784314 0.00784314
0.764706 0.00784314 0.0117647
0.854902 0.00784314 0.0117647
0.929412 0.0156863 0.00392157
0.976471 0.027451 0.0117647
0.976471 0.027451 0.0117647
0.976471 0.027451 0.0117647
0.0352941 0.0117647 0.0196078
0.0509804 0.00784314 0.0235294
0.0941176 0.0156863 0.0235294
0.141176 0.0117647 0.0156863
0.207843 0.0156863 0.0117647
0.262745 0.0117647 0.00392157
0.329412 0.0196078 0.00392157
0.403922 0.0196078 0.00784314
0.486275 0.0235294 0.00784314
0.580392 0.0235294 0.00784314
0.662745 0.0196078 0.0117647
0.764706 0.0313725 0.0117647
0.85098 0.0313725 0.0117647
0.929412 0.0392157 0.0117647
0.968627 0.0509804 0.00784314
0.968627 0.0509804 0.00784314
0.968627 0.0509804 0.00784314
0.027451 0.0470588 0.0235294
0.0509804 0.0392157 0.0196078
0.0941176 0.0235294 0.0156863
0.14902 0.0352941 0.0196078
0.211765 0.0431373 0.0117647
0.270588 0.0470588 0.00392157
0.337255 0.0627451 0.00392157
0.396078 0.0705882 0.00784314
0.486275 0.0705882 0.00784314
0.584314 0.0745098 0.00784314
0.67451 0.0823529 0.00784314
0.764706 0.0823529 0.00784314
0.854902 0.0901961 0.00392157
0.937255 0.0980392 0.00392157
0.968627 0.105882 0.00392157
0.968627 0.105882 0.00392157
0.968627 0.105882 0.00392157
0.0235294 0.152941 0.0313725
0.0352941 0.137255 0.0235294
0.0627451 0.117647 0.00784314
0.133333 0.0705882 0.00784314
0.192157 0.0666667 0.00784314
0.258824 0.0941176 0.00784314
0.313725 0.113725 0.00784314
0.380392 0.133333 0.00392157
0.478431 0.137255 0.00784314
0.564706 0.141176 0.00784314
0.682353 0.145098 0.00392157
0.768627 0.14902 0.00392157
0.858824 0.152941 0.00784314
0.929412 0.152941 0.00784314
0.972549 0.156863 0.00784314
0.972549 0.156863 0.00784314
0.972549 0.156863 0.00784314
0.027451 0.262745 0.0313725
0.0352941 0.25098 0.027451
0.0470588 0.235294 0.0235294
0.0941176 0.196078 0.0117647
0.156863 0.145098 0.00784314
0.227451 0.14902 0.0117647
0.278431 0.152941 0.00392157
0.34902 0.172549 0.00784314
0.439216 0.196078 0.00392157
0.560784 0.2 0.00392157
0.654902 0.2 0.00784314
0.776471 0.203922 0.00392157
0.862745 0.211765 0.00784314
0.933333 0.211765 0.00784314
0.964706 0.215686 0.00392157
0.972549 0.211765 0.00392157
0.972549 0.211765 0.00392157
0.027451 0.360784 0.0509804
0.0352941 0.356863 0.0352941
0.0431373 0.34902 0.0352941
0.0627451 0.305882 0.0196078
0.117647 0.258824 0.0156863
0.188235 0.215686 0.00392157
0.266667 0.203922 0.00392157
0.333333 0.215686 0.00392157
0.407843 0.243137 0.00784314
0.533333 0.262745 0.00784314
0.65098 0.262745 0
0.760784 0.270588 0.00784314
0.854902 0.270588 0.00392157
0.917647 0.270588 0.00392157
0.972549 0.278431 0.0117647
0.968627 0.27451 0.00784314
0.968627 0.27451 0.00784314
0.0313725 0.454902 0.0588235
0.0352941 0.45098 0.0588235
0.0392157 0.45098 0.054902
0.054902 0.411765 0.0352941
0.0862745 0.380392 0.0235294
0.145098 0.321569 0.0117647
0.223529 0.286275 0.00784314
0.309804 0.27451 0.0117647
0.372549 0.301961 0.0117647
0.470588 0.317647 0.00784314
0.576471 0.317647 0.00392157
0.698039 0.32549 0.0117647
0.807843 0.329412 0.00392157
0.909804 0.337255 0.0117647
0.960784 0.337255 0.00784314
0.964706 0.337255 0.00784314
0.964706 0.337255 0.00392157
0.027451 0.545098 0.0784314
0.0392157 0.545098 0.0784314
0.0470588 0.537255 0.0666667
0.0431373 0.521569 0.054902
0.0745098 0.482353 0.0392157
0.101961 0.439216 0.0196078
0.188235 0.407843 0.0117647
0.27451 0.364706 0.00784314
0.364706 0.360784 0.00784314
0.439216 0.376471 0.00392157
0.537255 0.380392 0.00784314
0.643137 0.388235 0.00784314
0.764706 0.396078 0.0117647
0.87451 0.403922 0.00784314
0.952941 0.407843 0.0117647
0.972549 0.411765 0.00392157
0.968627 0.407843 0.00392157
0.0431373 0.596078 0.0941176
0.0470588 0.592157 0.0862745
0.0627451 0.6 0.0823529
0.0588235 0.592157 0.0745098
0.0705882 0.576471 0.0705882
0.105882 0.541176 0.0313725
0.180392 0.490196 0.0235294
0.278431 0.462745 0.0156863
0.372549 0.45098 0.00784314
0.466667 0.443137 0.0117647
0.572549 0.447059 0.0117647
0.67451 0.45098 0.00784314
0.780392 0.462745 0.00392157
0.878431 0.466667 0.00784314
0.952941 0.462745 0.00784314
0.980392 0.466667 0.0117647
0.976471 0.462745 0.00784314
0.0705882 0.666667 0.101961
0.0745098 0.658824 0.0980392
0.0823529 0.658824 0.0980392
0.0823529 0.654902 0.0862745
0.113725 0.635294 0.0745098
0.137255 0.615686 0.0509804
0.207843 0.572549 0.0235294
0.294118 0.537255 0.0156863
0.403922 0.529412 0.0156863
0.494118 0.521569 0.0117647
0.6 0.52549 0.0117647
0.698039 0.52549 0.0117647
0.796078 0.529412 0.00784314
0.894118 0.533333 0.00392157
0.960784 0.537255 0.00784314
0.972549 0.533333 0.00784314
0.972549 0.533333 0.00784314
0.0745098 0.713725 0.105882
0.0862745 0.717647 0.109804
0.0941176 0.721569 0.0980392
0.109804 0.721569 0.0901961
0.129412 0.709804 0.0901961
0.168627 0.690196 0.0666667
0.239216 0.654902 0.0470588
0.317647 0.615686 0.027451
0.419608 0.611765 0.0156863
0.509804 0.6 0.0117647
0.619608 0.596078 0.00784314
0.72549 0.603922 0.00784314
0.815686 0.596078 0.0117647
0.905882 0.6 0.00392157
0.956863 0.603922 0.00784314
0.976471 0.603922 0.00784314
0.976471 0.592157 0.00784314
0.0901961 0.788235 0.113725
0.0941176 0.784314 0.113725
0.101961 0.784314 0.105882
0.113725 0.780392 0.109804
0.152941 0.788235 0.105882
0.188235 0.772549 0.0784314
0.25098 0.729412 0.0509804
0.333333 0.686275 0.0352941
0.439216 0.686275 0.0313725
0.529412 0.678431 0.0156863
0.631373 0.678431 0.0117647
0.737255 0.666667 0.00784314
0.831373 0.670588 0.00392157
0.901961 0.67451 0.00784314
0.956863 0.67451 0.00784314
0.976471 0.670588 0.00392157
0.976471 0.670588 0.00392157
0.0980392 0.843137 0.121569
0.109804 0.847059 0.121569
0.117647 0.839216 0.109804
0.12549 0.843137 0.113725
0.164706 0.843137 0.105882
0.215686 0.839216 0.0980392
0.266667 0.8 0.0705882
0.352941 0.776471 0.054902
0.470588 0.768627 0.0392157
0.560784 0.764706 0.0235294
0.658824 0.764706 0.0235294
0.74902 0.756863 0.00784314
0.843137 0.752941 0.00784314
0.913725 0.752941 0.00784314
0.960784 0.752941 0.00784314
0.976471 0.752941 0.00392157
0.976471 0.752941 0.00392157
0.113725 0.898039 0.133333
0.12549 0.901961 0.129412
0.129412 0.901961 0.113725
0.137255 0.901961 0.113725
0.176471 0.901961 0.117647
0.223529 0.894118 0.101961
0.282353 0.87451 0.0784314
0.372549 0.85098 0.0509804
0.466667 0.835294 0.0431373
0.564706 0.835294 0.0313725
0.666667 0.839216 0.027451
0.760784 0.831373 0.0235294
0.854902 0.831373 0.00784314
0.909804 0.823529 0.00784314
0.956863 0.823529 0.00392157
0.980392 0.819608 0.0117647
0.976471 0.815686 0.00784314
0.121569 0.952941 0.141176
0.12549 0.94902 0.137255
0.133333 0.94902 0.12549
0.141176 0.952941 0.121569
0.180392 0.952941 0.113725
0.231373 0.94902 0.105882
0.294118 0.933333 0.0784314
0.376471 0.917647 0.0627451
0.466667 0.917647 0.0431373
0.572549 0.909804 0.0352941
0.670588 0.909804 0.027451
0.764706 0.901961 0.0196078
0.847059 0.894118 0.0156863
0.909804 0.894118 0.00784314
0.960784 0.894118 0.00392157
0.976471 0.890196 0.00784314
0.976471 0.890196 0.00784314
0.121569 0.972549 0.137255
0.121569 0.972549 0.137255
0.137255 0.972549 0.133333
0.145098 0.972549 0.12549
0.192157 0.972549 0.121569
0.243137 0.972549 0.105882
0.309804 0.972549 0.0823529
0.388235 0.964706 0.0705882
0.486275 0.960784 0.0392157
0.580392 0.956863 0.0392157
0.682353 0.952941 0.027451
0.772549 0.94902 0.0196078
0.847059 0.941176 0.0156863
0.917647 0.941176 0.0117647
0.964706 0.945098 0.00784314
0.980392 0.941176 0.0117647
0.980392 0.941176 0.0117647
0.117647 0.972549 0.137255
0.121569 0.972549 0.133333
0.137255 0.972549 0.133333
0.145098 0.972549 0.12549
0.188235 0.972549 0.121569
0.235294 0.972549 0.105882
0.301961 0.972549 0.0862745
0.380392 0.972549 0.0627451
0.478431 0.972549 0.0431373
0.572549 0.968627 0.0392157
0.678431 0.968627 0.027451
0.768627 0.960784 0.0235294
0.847059 0.960784 0.0196078
0.913725 0.964706 0.0117647
0.960784 0.952941 0.00784314
0.980392 0.956863 0.0117647
0.980392 0.956863 0.0117647
0.027451 0.0196078 0.0235294
0.0392157 0.0156863 0.0235294
0.0745098 0.00784314 0.0313725
0.133333 0.00392157 0.0313725
0.192157 0.00784314 0.0313725
0.262745 0.00784314 0.0235294
0.32549 0.00784314 0.0196078
0.396078 0.00784314 0.0196078
0.482353 0.00784314 0.0196078
0.576471 0.00784314 0.027451
0.670588 0.00784314 0.027451
0.772549 0.00784314 0.0313725
0.854902 0.00784314 0.027451
0.933333 0.0117647 0.0313725
0.976471 0.0235294 0.0313725
0.976471 0.0235294 0.0392157
0.976471 0.0235294 0.0313725
0.0313725 0.0156863 0.0196078
0.0352941 0.0117647 0.0196078
0.0745098 0.0156863 0.0352941
0.133333 0.0196078 0.0352941
0.184314 0.0196078 0.0235294
0.254902 0.0196078 0.0196078
0.317647 0.0196078 0.0196078
0.388235 0.0196078 0.0235294
0.486275 0.0235294 0.0235294
0.572549 0.0235294 0.0196078
0.666667 0.0235294 0.0196078
0.760784 0.0235294 0.027451
0.847059 0.0235294 0.027451
0.929412 0.027451 0.027451
0.968627 0.0470588 0.0313725
0.968627 0.0470588 0.0313725
0.968627 0.0431373 0.0313725
0.027451 0.0470588 0.0235294
0.027451 0.0470588 0.0313725
0.0666667 0.0352941 0.0235294
0.129412 0.0392157 0.0156863
0.184314 0.0509804 0.0117647
0.25098 0.0588235 0.0235294
0.32549 0.0666667 0.0196078
0.380392 0.0745098 0.0235294
0.478431 0.0705882 0.0196078
0.564706 0.0823529 0.0235294
0.670588 0.0823529 0.027451
0.764706 0.0941176 0.027451
0.854902 0.0862745 0.0235294
0.92549 0.0901961 0.027451
0.968627 0.101961 0.0313725
0.968627 0.101961 0.027451
0.968627 0.101961 0.027451
0.027451 0.141176 0.0313725
0.027451 0.14902 0.027451
0.054902 0.12549 0.0196078
0.117647 0.0941176 0.00784314
0.184314 0.0980392 0.00392157
0.247059 0.105882 0.0117647
0.321569 0.121569 0.0156863
0.396078 0.141176 0.0235294
0.470588 0.133333 0.0196078
0.572549 0.137255 0.0196078
0.670588 0.14902 0.027451
0.768627 0.152941 0.027451
0.854902 0.145098 0.0313725
0.929412 0.14902 0.0313725
0.972549 0.152941 0.0313725
0.976471 0.156863 0.0392157
0.976471 0.156863 0.0352941
0.0235294 0.247059 0.0392157
0.0235294 0.254902 0.0431373
0.0431373 0.243137 0.0352941
0.0823529 0.215686 0.0196078
0.156863 0.180392 0.00784314
0.235294 0.164706 0.00784314
0.298039 0.176471 0.00392157
0.356863 0.188235 0.0117647
0.443137 0.196078 0.0196078
0.572549 0.2 0.0196078
0.658824 0.203922 0.0196078
0.768627 0.207843 0.027451
0.858824 0.211765 0.0235294
0.937255 0.211765 0.0392157
0.972549 0.211765 0.0392157
0.964706 0.211765 0.027451
0.964706 0.211765 0.0352941
0.027451 0.356863 0.054902
0.027451 0.368627 0.0588235
0.0431373 0.345098 0.0509804
0.0627451 0.341176 0.0352941
0.0980392 0.294118 0.0235294
0.188235 0.239216 0.00784314
0.270588 0.227451 0.00784314
0.329412 0.231373 0.00784314
0.411765 0.25098 0.0117647
0.537255 0.258824 0.0156863
0.65098 0.266667 0.027451
0.756863 0.270588 0.027451
0.858824 0.278431 0.027451
0.92549 0.278431 0.027451
0.964706 0.282353 0.0352941
0.964706 0.282353 0.0352941
0.964706 0.282353 0.0352941
0.0313725 0.454902 0.0666667
0.0313725 0.454902 0.0666667
0.0392157 0.447059 0.0588235
0.0470588 0.443137 0.054902
0.0784314 0.403922 0.0392157
0.152941 0.34902 0.0156863
0.239216 0.309804 0.0117647
0.317647 0.290196 0.00784314
0.384314 0.313725 0.0117647
0.498039 0.317647 0.0117647
0.627451 0.32549 0.0196078
0.756863 0.32549 0.0235294
0.831373 0.333333 0.027451
0.917647 0.333333 0.0313725
0.964706 0.337255 0.0313725
0.972549 0.341176 0.0352941
0.968627 0.337255 0.0313725
0.027451 0.541176 0.0941176
0.027451 0.541176 0.0941176
0.0352941 0.541176 0.0862745
0.0470588 0.537255 0.0745098
0.0705882 0.501961 0.0588235
0.101961 0.470588 0.0313725
0.196078 0.411765 0.0156863
0.27451 0.372549 0.0117647
0.368627 0.364706 0.00392157
0.458824 0.384314 0.0117647
0.576471 0.384314 0.0196078
0.686275 0.396078 0.0235294
0.796078 0.403922 0.027451
0.890196 0.403922 0.027451
0.968627 0.407843 0.0313725
0.972549 0.407843 0.0313725
0.972549 0.407843 0.0313725
0.0392157 0.6 0.105882
0.0352941 0.596078 0.101961
0.0470588 0.6 0.0980392
0.0588235 0.592157 0.0980392
0.0705882 0.584314 0.0784314
0.0980392 0.552941 0.054902
0.168627 0.52549 0.027451
0.266667 0.482353 0.0235294
0.368627 0.45098 0.00784314
0.454902 0.439216 0.00784314
0.54902 0.447059 0.0117647
0.658824 0.45098 0.00392157
0.760784 0.454902 0.0196078
0.878431 0.462745 0.0235294
0.952941 0.466667 0.027451
0.980392 0.470588 0.0313725
0.976471 0.466667 0.0313725
0.0666667 0.666667 0.109804
0.0666667 0.666667 0.109804
0.0784314 0.662745 0.101961
0.0901961 0.666667 0.109804
0.109804 0.654902 0.101961
0.129412 0.631373 0.0705882
0.180392 0.6 0.0431373
0.294118 0.564706 0.027451
0.384314 0.541176 0.0196078
0.466667 0.529412 0.00784314
0.588235 0.52549 0.00784314
0.678431 0.521569 0.00392157
0.792157 0.529412 0.0156863
0.882353 0.537255 0.0156863
0.945098 0.537255 0.0235294
0.976471 0.541176 0.027451
0.976471 0.533333 0.0235294
0.0823529 0.721569 0.121569
0.0784314 0.717647 0.117647
0.0901961 0.713725 0.109804
0.101961 0.721569 0.113725
0.133333 0.709804 0.109804
0.168627 0.698039 0.0901961
0.223529 0.682353 0.0627451
0.305882 0.631373 0.0352941
0.411765 0.611765 0.027451
0.501961 0.6 0.0196078
0.603922 0.6 0.00392157
0.698039 0.596078 0.00392157
0.807843 0.596078 0.00784314
0.898039 0.6 0.0196078
0.960784 0.607843 0.0235294
0.980392 0.607843 0.0352941
0.976471 0.607843 0.027451
0.0941176 0.788235 0.129412
0.0901961 0.784314 0.133333
0.105882 0.784314 0.129412
0.109804 0.780392 0.12549
0.145098 0.788235 0.113725
0.180392 0.772549 0.101961
0.243137 0.760784 0.0862745
0.317647 0.713725 0.054902
0.423529 0.682353 0.0352941
0.52549 0.678431 0.0235294
0.615686 0.678431 0.0156863
0.721569 0.670588 0.0117647
0.819608 0.670588 0.00784314
0.901961 0.67451 0.0117647
0.956863 0.670588 0.0235294
0.976471 0.67451 0.0235294
0.976471 0.666667 0.0235294
0.105882 0.847059 0.141176
0.101961 0.843137 0.137255
0.109804 0.843137 0.133333
0.121569 0.843137 0.129412
0.156863 0.843137 0.133333
0.203922 0.85098 0.113725
0.258824 0.823529 0.0941176
0.333333 0.796078 0.0745098
0.439216 0.764706 0.0588235
0.537255 0.768627 0.0392157
0.635294 0.760784 0.027451
0.721569 0.756863 0.0156863
0.831373 0.74902 0.00784314
0.909804 0.756863 0.00784314
0.956863 0.756863 0.0235294
0.980392 0.752941 0.0196078
0.980392 0.752941 0.0196078
0.113725 0.901961 0.14902
0.113725 0.901961 0.14902
0.129412 0.901961 0.145098
0.133333 0.901961 0.141176
0.164706 0.898039 0.133333
0.219608 0.905882 0.12549
0.278431 0.894118 0.105882
0.352941 0.854902 0.0745098
0.443137 0.839216 0.0666667
0.545098 0.843137 0.0509804
0.65098 0.835294 0.0352941
0.752941 0.827451 0.027451
0.831373 0.831373 0.0156863
0.909804 0.823529 0.00784314
0.964706 0.827451 0.0196078
0.976471 0.827451 0.0235294
0.976471 0.827451 0.0235294
0.121569 0.94902 0.160784
0.117647 0.94902 0.156863
0.129412 0.94902 0.145098
0.141176 0.952941 0.14902
0.184314 0.952941 0.145098
0.231373 0.952941 0.129412
0.286275 0.941176 0.113725
0.352941 0.929412 0.0823529
0.462745 0.917647 0.0666667
0.552941 0.909804 0.0588235
0.654902 0.905882 0.0470588
0.74902 0.901961 0.0352941
0.835294 0.901961 0.0235294
0.909804 0.898039 0.0156863
0.960784 0.890196 0.00392157
0.976471 0.890196 0.00784314
0.972549 0.894118 0.0156863
0.117647 0.972549 0.156863
0.121569 0.976471 0.160784
0.133333 0.972549 0.156863
0.141176 0.972549 0.152941
0.176471 0.972549 0.137255
0.231373 0.972549 0.12549
0.290196 0.972549 0.105882
0.360784 0.964706 0.101961
0.462745 0.968627 0.0745098
0.545098 0.960784 0.0509804
0.654902 0.956863 0.054902
0.74902 0.952941 0.0392157
0.835294 0.94902 0.0352941
0.909804 0.941176 0.0196078
0.956863 0.945098 0.0235294
0.972549 0.945098 0.0196078
0.976471 0.937255 0.0235294
0.117647 0.972549 0.156863
0.121569 0.976471 0.156863
0.129412 0.976471 0.152941
0.141176 0.972549 0.145098
0.176471 0.972549 0.137255
0.231373 0.972549 0.12549
0.290196 0.972549 0.113725
0.360784 0.972549 0.101961
0.462745 0.972549 0.0784314
0.54902 0.972549 0.054902
0.65098 0.972549 0.0509804
0.74902 0.964706 0.0392157
0.835294 0.964706 0.0352941
0.909804 0.960784 0.027451
0.960784 0.956863 0.0196078
0.976471 0.956863 0.0156863
0.972549 0.956863 0.0196078
0.027451 0.0431373 0.054902
0.0313725 0.027451 0.0509804
0.054902 0.00784314 0.054902
0.101961 0.00784314 0.0705882
0.176471 0.00784314 0.0823529
0.239216 0.00784314 0.0862745
0.313725 0.0117647 0.0901961
0.380392 0.00784314 0.0862745
0.47451 0.00784314 0.0862745
0.568627 0.00392157 0.0862745
0.670588 0.00784314 0.0901961
0.760784 0.00784314 0.0901961
0.854902 0.00784314 0.0941176
0.941176 0.0117647 0.0901961
0.976471 0.00784314 0.0901961
0.976471 0.00784314 0.0901961
0.976471 0.00784314 0.0901961
0.027451 0.0431373 0.0470588
0.0352941 0.0392157 0.0588235
0.0588235 0.0196078 0.054902
0.101961 0.0117647 0.0745098
0.168627 0.0196078 0.0784314
0.239216 0.0156863 0.0901961
0.309804 0.0156863 0.0941176
0.388235 0.0156863 0.0941176
0.462745 0.0235294 0.0862745
0.564706 0.0235294 0.0823529
0.670588 0.0235294 0.0862745
0.772549 0.0235294 0.0862745
0.858824 0.027451 0.0862745
0.937255 0.027451 0.0901961
0.976471 0.0235294 0.0941176
0.976471 0.0235294 0.0941176
0.976471 0.0235294 0.0941176
0.027451 0.0470588 0.0313725
0.0313725 0.0470588 0.0431373
0.054902 0.0470588 0.0509804
0.0941176 0.0509804 0.0705882
0.156863 0.0588235 0.0784314
0.227451 0.0705882 0.0745098
0.294118 0.0745098 0.0784314
0.372549 0.0745098 0.0901961
0.458824 0.0705882 0.0901961
0.560784 0.0784314 0.0784314
0.658824 0.0705882 0.0745098
0.764706 0.0745098 0.0823529
0.854902 0.0745098 0.0862745
0.933333 0.0705882 0.0901961
0.972549 0.0745098 0.0862745
0.976471 0.0784314 0.0901961
0.976471 0.0784314 0.0901961
0.0235294 0.133333 0.0431373
0.027451 0.141176 0.054902
0.0431373 0.145098 0.0705882
0.0705882 0.121569 0.054902
0.152941 0.117647 0.0509804
0.223529 0.117647 0.0745098
0.301961 0.137255 0.0823529
0.364706 0.141176 0.0666667
0.45098 0.129412 0.0823529
0.560784 0.12549 0.0823529
0.658824 0.141176 0.0823529
0.760784 0.145098 0.0862745
0.85098 0.137255 0.0862745
0.937255 0.141176 0.0862745
0.976471 0.145098 0.0980392
0.972549 0.137255 0.0980392
0.972549 0.137255 0.0941176
0.0235294 0.239216 0.0745098
0.0235294 0.247059 0.0784314
0.0313725 0.254902 0.0941176
0.0627451 0.227451 0.0745098
0.14902 0.188235 0.0509804
0.215686 0.192157 0.054902
0.298039 0.196078 0.0784314
0.372549 0.203922 0.0784314
0.470588 0.2 0.0784314
0.560784 0.192157 0.0901961
0.666667 0.196078 0.0901961
0.768627 0.2 0.0862745
0.858824 0.2 0.0862745
0.937255 0.2 0.0862745
0.968627 0.203922 0.0941176
0.972549 0.207843 0.0901961
0.972549 0.207843 0.0901961
0.027451 0.352941 0.0862745
0.027451 0.34902 0.0901961
0.027451 0.360784 0.105882
0.0470588 0.345098 0.0941176
0.0901961 0.313725 0.0823529
0.184314 0.266667 0.054902
0.270588 0.258824 0.054902
0.345098 0.258824 0.0745098
0.423529 0.266667 0.0745098
0.537255 0.258824 0.0784314
0.666667 0.266667 0.0862745
0.764706 0.270588 0.0823529
0.85098 0.270588 0.0862745
0.933333 0.27451 0.0823529
0.968627 0.278431 0.0980392
0.972549 0.27451 0.0941176
0.968627 0.27451 0.0941176
0.027451 0.454902 0.0901961
0.0235294 0.45098 0.0941176
0.027451 0.458824 0.109804
0.0352941 0.447059 0.113725
0.0666667 0.439216 0.109804
0.117647 0.392157 0.0784314
0.223529 0.32549 0.0588235
0.313725 0.317647 0.054902
0.392157 0.321569 0.0627451
0.494118 0.321569 0.0745098
0.635294 0.329412 0.0745098
0.745098 0.333333 0.0823529
0.839216 0.337255 0.0823529
0.933333 0.337255 0.0901961
0.972549 0.337255 0.0862745
0.976471 0.337255 0.105882
0.972549 0.337255 0.0862745
0.027451 0.541176 0.101961
0.027451 0.541176 0.101961
0.027451 0.537255 0.113725
0.0352941 0.533333 0.113725
0.0509804 0.533333 0.12549
0.0862745 0.482353 0.105882
0.168627 0.435294 0.0627451
0.278431 0.396078 0.0509804
0.372549 0.380392 0.054902
0.470588 0.388235 0.0705882
0.592157 0.384314 0.0705882
0.72549 0.396078 0.0823529
0.831373 0.403922 0.0823529
0.917647 0.411765 0.0941176
0.972549 0.403922 0.0941176
0.976471 0.407843 0.0980392
0.968627 0.407843 0.0980392
0.0431373 0.6 0.121569
0.0392157 0.596078 0.12549
0.0392157 0.596078 0.113725
0.0470588 0.596078 0.117647
0.0627451 0.588235 0.12549
0.0862745 0.572549 0.113725
0.156863 0.545098 0.0901961
0.258824 0.490196 0.0666667
0.360784 0.458824 0.0588235
0.458824 0.447059 0.0509804
0.576471 0.447059 0.0666667
0.686275 0.45098 0.0666667
0.803922 0.458824 0.0745098
0.894118 0.462745 0.0901961
0.972549 0.466667 0.101961
0.972549 0.466667 0.0980392
0.972549 0.466667 0.101961
0.0705882 0.666667 0.137255
0.0627451 0.666667 0.141176
0.0666667 0.662745 0.137255
0.0745098 0.670588 0.145098
0.0941176 0.666667 0.145098
0.117647 0.635294 0.129412
0.168627 0.607843 0.105882
0.258824 0.580392 0.0862745
0.360784 0.556863 0.0666667
0.45098 0.529412 0.054902
0.564706 0.529412 0.054902
0.666667 0.521569 0.0705882
0.768627 0.529412 0.0745098
0.866667 0.52549 0.0745098
0.952941 0.541176 0.0901961
0.972549 0.533333 0.0941176
0.976471 0.533333 0.0941176
0.0823529 0.72549 0.145098
0.0784314 0.721569 0.141176
0.0784314 0.717647 0.156863
0.0823529 0.717647 0.14902
0.109804 0.721569 0.14902
0.145098 0.713725 0.160784
0.203922 0.686275 0.129412
0.27451 0.654902 0.0980392
0.380392 0.627451 0.0784314
0.466667 0.607843 0.0784314
0.584314 0.6 0.0627451
0.682353 0.596078 0.0588235
0.784314 0.592157 0.0784314
0.886275 0.6 0.0862745
0.956863 0.619608 0.0901961
0.972549 0.6 0.0980392
0.972549 0.6 0.0941176
0.0980392 0.788235 0.160784
0.0980392 0.788235 0.160784
0.0941176 0.784314 0.156863
0.0980392 0.780392 0.156863
0.12549 0.784314 0.164706
0.168627 0.776471 0.164706
0.227451 0.768627 0.152941
0.298039 0.752941 0.129412
0.392157 0.709804 0.105882
0.490196 0.682353 0.0784314
0.596078 0.67451 0.0823529
0.705882 0.666667 0.0784314
0.803922 0.666667 0.0705882
0.890196 0.670588 0.0862745
0.952941 0.67451 0.0862745
0.976471 0.678431 0.105882
0.976471 0.678431 0.105882
0.105882 0.843137 0.164706
0.105882 0.843137 0.168627
0.105882 0.843137 0.168627
0.109804 0.839216 0.168627
0.141176 0.835294 0.172549
0.184314 0.839216 0.180392
0.247059 0.835294 0.168627
0.309804 0.819608 0.14902
0.407843 0.796078 0.133333
0.505882 0.764706 0.0980392
0.619608 0.760784 0.0862745
0.713725 0.760784 0.0941176
0.819608 0.756863 0.0784314
0.901961 0.756863 0.0862745
0.952941 0.756863 0.0901961
0.980392 0.756863 0.109804
0.980392 0.756863 0.109804
0.113725 0.905882 0.184314
0.113725 0.905882 0.184314
0.109804 0.901961 0.180392
0.117647 0.901961 0.180392
0.14902 0.901961 0.180392
0.192157 0.901961 0.180392
0.254902 0.905882 0.180392
0.317647 0.882353 0.145098
0.415686 0.870588 0.137255
0.513725 0.843137 0.121569
0.627451 0.843137 0.101961
0.713725 0.835294 0.0941176
0.815686 0.827451 0.0862745
0.901961 0.823529 0.0823529
0.952941 0.831373 0.101961
0.972549 0.831373 0.109804
0.976471 0.827451 0.109804
0.121569 0.952941 0.184314
0.121569 0.952941 0.184314
0.117647 0.94902 0.180392
0.12549 0.94902 0.192157
0.160784 0.945098 0.188235
0.203922 0.956863 0.192157
0.262745 0.94902 0.188235
0.337255 0.945098 0.168627
0.423529 0.92549 0.133333
0.517647 0.913725 0.129412
0.639216 0.909804 0.113725
0.733333 0.901961 0.101961
0.831373 0.901961 0.0941176
0.901961 0.898039 0.0941176
0.956863 0.894118 0.0941176
0.976471 0.894118 0.105882
0.976471 0.894118 0.105882
0.121569 0.968627 0.188235
0.121569 0.972549 0.184314
0.121569 0.972549 0.184314
0.129412 0.972549 0.188235
0.164706 0.972549 0.196078
0.203922 0.972549 0.203922
0.266667 0.972549 0.188235
0.337255 0.968627 0.176471
0.419608 0.968627 0.145098
0.529412 0.960784 0.12549
0.631373 0.956863 0.117647
0.733333 0.952941 0.105882
0.827451 0.945098 0.101961
0.901961 0.945098 0.105882
0.964706 0.945098 0.105882
0.976471 0.937255 0.105882
0.976471 0.937255 0.105882
0.121569 0.972549 0.188235
0.121569 0.972549 0.184314
0.121569 0.972549 0.184314
0.129412 0.976471 0.188235
0.164706 0.972549 0.196078
0.203922 0.972549 0.2
