assets/luts/cinematic/CineMagic NT N30V3.cube
#Generated by Picture Instruments - Unlimited Filters
TITLE "CineMagic NT N30V3"
LUT_3D_SIZE 9
0.00392157 0 0
0.0941176 0.0117647 0.00784314
0.211765 0.0156863 0.0117647
0.345098 0.0313725 0.027451
0.509804 0.0627451 0.0627451
0.65098 0.0784314 0.0784314
0.780392 0.0980392 0.0941176
0.886275 0.121569 0.0980392
0.956863 0.133333 0.0980392
0.0117647 0.0313725 0.00784314
0.0941176 0.027451 0
0.211765 0.054902 0.0156863
0.352941 0.0980392 0.027451
0.529412 0.152941 0.0666667
0.67451 0.160784 0.0823529
0.784314 0.188235 0.0941176
0.890196 0.211765 0.0941176
0.960784 0.223529 0.0901961
0.00784314 0.184314 0.0313725
0.0980392 0.152941 0.0156863
0.203922 0.14902 0.0117647
0.341176 0.188235 0.0196078
0.529412 0.254902 0.0627451
0.666667 0.27451 0.0823529
0.792157 0.294118 0.0941176
0.890196 0.321569 0.0980392
0.972549 0.309804 0.0941176
0.027451 0.329412 0.054902
0.109804 0.317647 0.0431373
0.231373 0.341176 0.0470588
0.360784 0.313725 0.0313725
0.556863 0.364706 0.0666667
0.686275 0.388235 0.0823529
0.807843 0.411765 0.0901961
0.886275 0.431373 0.0901961
0.960784 0.435294 0.0901961
0.0313725 0.498039 0.105882
0.129412 0.501961 0.0941176
0.219608 0.498039 0.0823529
0.384314 0.529412 0.0823529
0.54902 0.482353 0.0666667
0.686275 0.501961 0.0862745
0.807843 0.533333 0.0941176
0.878431 0.537255 0.0862745
0.960784 0.533333 0.0823529
0.0431373 0.643137 0.145098
0.133333 0.643137 0.129412
0.243137 0.647059 0.113725
0.388235 0.666667 0.117647
0.564706 0.662745 0.0980392
0.694118 0.627451 0.0784314
0.8 0.639216 0.0901961
0.886275 0.647059 0.0862745
0.972549 0.643137 0.0862745
0.0627451 0.772549 0.168627
0.145098 0.768627 0.160784
0.258824 0.776471 0.145098
0.396078 0.780392 0.133333
0.580392 0.788235 0.121569
0.698039 0.784314 0.105882
0.803922 0.756863 0.0901961
0.886275 0.752941 0.0862745
0.956863 0.756863 0.0862745
0.0627451 0.890196 0.196078
0.152941 0.890196 0.176471
0.258824 0.898039 0.164706
0.403922 0.898039 0.160784
0.564706 0.901961 0.145098
0.686275 0.905882 0.141176
0.807843 0.898039 0.129412
0.886275 0.882353 0.0901961
0.964706 0.866667 0.0823529
0.0705882 0.968627 0.207843
0.160784 0.972549 0.196078
0.278431 0.972549 0.188235
0.396078 0.972549 0.168627
0.560784 0.968627 0.156863
0.686275 0.972549 0.156863
0.803922 0.968627 0.137255
0.898039 0.968627 0.129412
0.960784 0.968627 0.113725
0.00784314 0.00392157 0.0235294
0.0862745 0.00392157 0.0235294
0.2 0.0156863 0.0470588
0.333333 0.0352941 0.0862745
0.505882 0.0705882 0.137255
0.658824 0.0862745 0.168627
0.780392 0.101961 0.180392
0.890196 0.12549 0.188235
0.968627 0.133333 0.180392
0.00784314 0.0509804 0.027451
0.0901961 0.027451 0.027451
0.211765 0.054902 0.054902
0.345098 0.0941176 0.0862745
0.505882 0.152941 0.152941
0.654902 0.160784 0.164706
0.784314 0.188235 0.176471
0.886275 0.207843 0.184314
0.964706 0.219608 0.180392
0.00784314 0.176471 0.0666667
0.105882 0.156863 0.054902
0.203922 0.141176 0.0509804
0.356863 0.2 0.0980392
0.52549 0.258824 0.152941
0.666667 0.270588 0.160784
0.8 0.290196 0.188235
0.886275 0.301961 0.184314
0.964706 0.309804 0.176471
0.0196078 0.333333 0.117647
0.109804 0.333333 0.117647
0.207843 0.317647 0.0901961
0.352941 0.301961 0.0941176
0.52549 0.364706 0.152941
0.682353 0.388235 0.172549
0.792157 0.403922 0.172549
0.882353 0.431373 0.176471
0.960784 0.435294 0.176471
0.0196078 0.494118 0.180392
0.121569 0.490196 0.168627
0.219608 0.494118 0.156863
0.384314 0.529412 0.164706
0.54902 0.486275 0.152941
0.690196 0.501961 0.172549
0.8 0.529412 0.164706
0.890196 0.541176 0.180392
0.956863 0.537255 0.180392
0.0392157 0.65098 0.219608
0.121569 0.643137 0.215686
0.231373 0.65098 0.203922
0.360784 0.654902 0.192157
0.556863 0.670588 0.176471
0.690196 0.631373 0.164706
0.792157 0.631373 0.176471
0.886275 0.658824 0.176471
0.960784 0.65098 0.176471
0.0470588 0.776471 0.239216
0.137255 0.772549 0.235294
0.239216 0.776471 0.231373
0.384314 0.784314 0.219608
0.560784 0.796078 0.215686
0.690196 0.784314 0.196078
0.803922 0.756863 0.176471
0.890196 0.756863 0.172549
0.964706 0.756863 0.168627
0.0470588 0.886275 0.266667
0.152941 0.890196 0.266667
0.25098 0.878431 0.243137
0.4 0.890196 0.247059
0.552941 0.890196 0.219608
0.694118 0.905882 0.231373
0.811765 0.898039 0.219608
0.894118 0.87451 0.176471
0.960784 0.866667 0.168627
0.054902 0.960784 0.286275
0.156863 0.968627 0.27451
0.270588 0.972549 0.270588
0.396078 0.976471 0.25098
0.545098 0.968627 0.247059
0.67451 0.968627 0.243137
0.803922 0.972549 0.227451
0.898039 0.964706 0.219608
0.964706 0.964706 0.196078
0.0156863 0.0235294 0.117647
0.0941176 0.0196078 0.129412
0.188235 0.0156863 0.105882
0.317647 0.027451 0.156863
0.486275 0.0666667 0.231373
0.647059 0.0980392 0.25098
0.784314 0.109804 0.266667
0.886275 0.12549 0.270588
0.964706 0.133333 0.286275
0.0117647 0.0666667 0.109804
0.0823529 0.0666667 0.121569
0.184314 0.054902 0.121569
0.321569 0.0980392 0.172549
0.482353 0.156863 0.235294
0.658824 0.184314 0.25098
0.784314 0.2 0.27451
0.886275 0.215686 0.286275
0.960784 0.223529 0.266667
0.0117647 0.180392 0.129412
0.0823529 0.168627 0.121569
0.196078 0.156863 0.121569
0.345098 0.2 0.176471
0.509804 0.254902 0.231373
0.666667 0.266667 0.258824
0.784314 0.278431 0.254902
0.890196 0.298039 0.270588
0.968627 0.301961 0.27451
0.0156863 0.352941 0.215686
0.0901961 0.329412 0.196078
0.2 0.317647 0.176471
0.337255 0.294118 0.168627
0.541176 0.364706 0.243137
0.678431 0.380392 0.254902
0.792157 0.407843 0.262745
0.890196 0.423529 0.266667
0.960784 0.427451 0.270588
0.0156863 0.517647 0.286275
0.0901961 0.498039 0.266667
0.223529 0.501961 0.266667
0.352941 0.505882 0.243137
0.533333 0.478431 0.239216
0.670588 0.490196 0.247059
0.792157 0.521569 0.25098
0.882353 0.541176 0.262745
0.960784 0.545098 0.262745
0.0313725 0.658824 0.321569
0.101961 0.643137 0.309804
0.235294 0.647059 0.286275
0.352941 0.647059 0.282353
0.54902 0.670588 0.266667
0.682353 0.623529 0.25098
0.807843 0.639216 0.266667
0.882353 0.65098 0.258824
0.960784 0.654902 0.270588
0.0313725 0.780392 0.333333
0.109804 0.780392 0.329412
0.211765 0.772549 0.32549
0.368627 0.796078 0.305882
0.521569 0.792157 0.294118
0.682353 0.788235 0.282353
0.792157 0.760784 0.262745
0.886275 0.752941 0.270588
0.960784 0.756863 0.254902
0.0352941 0.886275 0.372549
0.117647 0.890196 0.337255
0.247059 0.886275 0.333333
0.376471 0.890196 0.333333
0.533333 0.894118 0.317647
0.678431 0.894118 0.321569
0.8 0.901961 0.309804
0.890196 0.870588 0.258824
0.964706 0.866667 0.258824
0.0313725 0.972549 0.380392
0.113725 0.968627 0.364706
0.25098 0.972549 0.345098
0.384314 0.976471 0.337255
0.533333 0.972549 0.337255
0.666667 0.972549 0.337255
0.796078 0.972549 0.317647
0.894118 0.960784 0.309804
0.964706 0.964706 0.290196
0.0117647 0.0509804 0.25098
0.0823529 0.0431373 0.25098
0.168627 0.0392157 0.254902
0.294118 0.0470588 0.278431
0.443137 0.0666667 0.313725
0.615686 0.105882 0.356863
0.764706 0.12549 0.372549
0.890196 0.14902 0.376471
0.968627 0.152941 0.368627
0.0117647 0.101961 0.262745
0.0745098 0.105882 0.258824
0.168627 0.101961 0.266667
0.294118 0.0941176 0.262745
0.447059 0.152941 0.313725
0.631373 0.196078 0.360784
0.772549 0.215686 0.364706
0.898039 0.239216 0.380392
0.964706 0.235294 0.356863
0.00784314 0.211765 0.298039
0.0705882 0.2 0.27451
0.164706 0.215686 0.282353
0.294118 0.211765 0.286275
0.470588 0.254902 0.329412
0.631373 0.282353 0.352941
0.784314 0.305882 0.356863
0.898039 0.32549 0.376471
0.968627 0.317647 0.364706
0.00784314 0.32549 0.290196
0.0627451 0.317647 0.301961
0.156863 0.32549 0.298039
0.305882 0.333333 0.305882
0.513725 0.360784 0.364706
0.666667 0.380392 0.356863
0.792157 0.392157 0.372549
0.886275 0.407843 0.34902
0.964706 0.415686 0.34902
0.0117647 0.494118 0.384314
0.0705882 0.521569 0.4
0.160784 0.501961 0.376471
0.333333 0.505882 0.364706
0.505882 0.482353 0.341176
0.682353 0.517647 0.368627
0.796078 0.533333 0.356863
0.890196 0.545098 0.34902
0.960784 0.54902 0.356863
0.0117647 0.666667 0.454902
0.0627451 0.662745 0.439216
0.164706 0.65098 0.403922
0.32549 0.666667 0.4
0.509804 0.658824 0.364706
0.670588 0.631373 0.34902
0.792157 0.643137 0.34902
0.886275 0.654902 0.34902
0.956863 0.658824 0.352941
0.0156863 0.780392 0.470588
0.0627451 0.776471 0.45098
0.172549 0.776471 0.439216
0.360784 0.780392 0.403922
0.509804 0.784314 0.4
0.682353 0.792157 0.392157
0.792157 0.756863 0.345098
0.894118 0.756863 0.34902
0.960784 0.752941 0.341176
0.0235294 0.894118 0.490196
0.0705882 0.886275 0.454902
0.176471 0.894118 0.447059
0.345098 0.890196 0.431373
0.517647 0.901961 0.419608
0.65098 0.894118 0.403922
0.792157 0.909804 0.4
0.882353 0.870588 0.34902
0.968627 0.866667 0.352941
0.0235294 0.972549 0.509804
0.0627451 0.972549 0.47451
0.172549 0.964706 0.466667
0.372549 0.976471 0.435294
0.513725 0.972549 0.431373
0.654902 0.972549 0.435294
0.776471 0.976471 0.415686
0.901961 0.968627 0.403922
0.960784 0.964706 0.396078
0.0156863 0.0784314 0.423529
0.0745098 0.0745098 0.419608
0.14902 0.0705882 0.403922
0.247059 0.0784314 0.4
0.419608 0.0745098 0.4
0.588235 0.101961 0.431373
0.756863 0.141176 0.458824
0.898039 0.164706 0.505882
0.968627 0.176471 0.52549
0.0117647 0.145098 0.423529
0.0588235 0.145098 0.443137
0.145098 0.145098 0.427451
0.231373 0.145098 0.4
0.4 0.164706 0.407843
0.588235 0.188235 0.435294
0.752941 0.223529 0.454902
0.878431 0.254902 0.505882
0.980392 0.266667 0.521569
0.0117647 0.258824 0.458824
0.0627451 0.247059 0.45098
0.141176 0.247059 0.462745
0.239216 0.231373 0.431373
0.419608 0.254902 0.411765
0.611765 0.294118 0.454902
0.764706 0.32549 0.47451
0.894118 0.34902 0.509804
0.968627 0.34902 0.509804
0.0117647 0.368627 0.47451
0.0470588 0.384314 0.482353
0.121569 0.360784 0.470588
0.235294 0.380392 0.486275
0.419608 0.368627 0.447059
0.639216 0.415686 0.490196
0.772549 0.431373 0.505882
0.898039 0.439216 0.494118
0.968627 0.435294 0.498039
0.00784314 0.486275 0.490196
0.0431373 0.486275 0.478431
0.117647 0.494118 0.486275
0.227451 0.498039 0.486275
0.458824 0.513725 0.513725
0.658824 0.537255 0.52549
0.792157 0.541176 0.505882
0.898039 0.54902 0.517647
0.972549 0.541176 0.498039
0.0117647 0.639216 0.545098
0.0392157 0.635294 0.552941
0.117647 0.658824 0.545098
0.227451 0.647059 0.529412
0.482353 0.662745 0.517647
0.666667 0.647059 0.498039
0.807843 0.670588 0.513725
0.905882 0.666667 0.490196
0.968627 0.666667 0.47451
0.0117647 0.788235 0.596078
0.0392157 0.796078 0.588235
0.109804 0.780392 0.572549
0.235294 0.776471 0.541176
0.478431 0.792157 0.537255
0.654902 0.788235 0.498039
0.792157 0.768627 0.462745
0.890196 0.764706 0.462745
0.968627 0.772549 0.462745
0.00784314 0.886275 0.611765
0.0431373 0.882353 0.592157
0.117647 0.890196 0.580392
0.239216 0.890196 0.568627
0.505882 0.894118 0.529412
0.654902 0.894118 0.521569
0.8 0.901961 0.513725
0.890196 0.87451 0.45098
0.956863 0.866667 0.443137
0.0117647 0.960784 0.631373
0.0352941 0.968627 0.603922
0.121569 0.964706 0.588235
0.266667 0.960784 0.54902
0.513725 0.968627 0.541176
0.643137 0.972549 0.537255
0.780392 0.972549 0.52549
0.901961 0.972549 0.513725
0.964706 0.972549 0.501961
0.00784314 0.0823529 0.584314
0.0509804 0.0862745 0.584314
0.121569 0.0901961 0.533333
0.215686 0.0980392 0.537255
0.360784 0.113725 0.521569
0.552941 0.129412 0.52549
0.741176 0.141176 0.556863
0.878431 0.164706 0.596078
0.972549 0.192157 0.658824
0.00392157 0.164706 0.580392
0.0509804 0.152941 0.588235
0.117647 0.14902 0.568627
0.227451 0.172549 0.545098
0.352941 0.176471 0.533333
0.584314 0.223529 0.52549
0.741176 0.227451 0.541176
0.886275 0.266667 0.607843
0.976471 0.278431 0.647059
0.00784314 0.294118 0.603922
0.0392157 0.286275 0.596078
0.113725 0.278431 0.607843
0.196078 0.262745 0.576471
0.34902 0.270588 0.54902
0.580392 0.309804 0.556863
0.752941 0.321569 0.560784
0.886275 0.356863 0.619608
0.980392 0.376471 0.658824
0.00784314 0.403922 0.615686
0.0352941 0.403922 0.615686
0.117647 0.403922 0.611765
0.196078 0.4 0.623529
0.356863 0.392157 0.607843
0.6 0.407843 0.584314
0.756863 0.431373 0.603922
0.898039 0.466667 0.658824
0.984314 0.466667 0.658824
0.00784314 0.517647 0.619608
0.0235294 0.509804 0.619608
0.0941176 0.521569 0.635294
0.184314 0.521569 0.627451
0.352941 0.529412 0.643137
0.607843 0.54902 0.623529
0.784314 0.576471 0.639216
0.894118 0.588235 0.643137
0.976471 0.584314 0.647059
0.00392157 0.619608 0.639216
0.0235294 0.623529 0.643137
0.0784314 0.627451 0.631373
0.180392 0.627451 0.631373
0.372549 0.654902 0.65098
0.654902 0.698039 0.631373
0.796078 0.713725 0.639216
0.909804 0.709804 0.627451
0.976471 0.701961 0.615686
0.00392157 0.776471 0.670588
0.0235294 0.764706 0.678431
0.0666667 0.756863 0.678431
0.196078 0.776471 0.67451
0.333333 0.772549 0.67451
0.670588 0.811765 0.623529
0.796078 0.796078 0.6
0.905882 0.803922 0.611765
0.968627 0.796078 0.580392
0.00784314 0.878431 0.717647
0.0196078 0.894118 0.709804
0.0588235 0.890196 0.701961
0.192157 0.890196 0.694118
0.368627 0.894118 0.686275
0.654902 0.909804 0.627451
0.780392 0.905882 0.611765
0.905882 0.886275 0.564706
0.968627 0.886275 0.560784
0.00392157 0.972549 0.729412
0.0196078 0.968627 0.721569
0.0705882 0.968627 0.709804
0.2 0.968627 0.694118
0.376471 0.968627 0.682353
0.654902 0.976471 0.631373
0.768627 0.972549 0.615686
0.905882 0.980392 0.607843
0.976471 0.968627 0.588235
0.00784314 0.0823529 0.713725
0.0392157 0.0862745 0.713725
0.0862745 0.0862745 0.698039
0.172549 0.113725 0.705882
0.294118 0.117647 0.67451
0.478431 0.14902 0.690196
0.709804 0.168627 0.698039
0.87451 0.184314 0.713725
0.972549 0.192157 0.752941
0.00784314 0.196078 0.729412
0.0352941 0.188235 0.733333
0.0901961 0.176471 0.717647
0.172549 0.160784 0.682353
0.301961 0.180392 0.686275
0.498039 0.227451 0.694118
0.72549 0.262745 0.701961
0.87451 0.27451 0.733333
0.976471 0.282353 0.737255
0.00392157 0.321569 0.741176
0.027451 0.305882 0.72549
0.0941176 0.305882 0.733333
0.160784 0.286275 0.721569
0.309804 0.282353 0.698039
0.490196 0.305882 0.713725
0.741176 0.34902 0.701961
0.882353 0.356863 0.729412
0.980392 0.376471 0.768627
0.00392157 0.435294 0.729412
0.0235294 0.435294 0.752941
0.0784314 0.419608 0.733333
0.160784 0.411765 0.752941
0.286275 0.411765 0.737255
0.501961 0.411765 0.733333
0.745098 0.447059 0.741176
0.882353 0.462745 0.737255
0.984314 0.47451 0.764706
0 0.54902 0.756863
0.0196078 0.545098 0.752941
0.0666667 0.533333 0.752941
0.168627 0.541176 0.760784
0.290196 0.533333 0.756863
0.533333 0.556863 0.760784
0.768627 0.560784 0.741176
0.890196 0.588235 0.760784
0.972549 0.603922 0.768627
0.00392157 0.65098 0.760784
0.0156863 0.647059 0.756863
0.0509804 0.639216 0.756863
0.156863 0.658824 0.772549
0.278431 0.65098 0.760784
0.592157 0.698039 0.772549
0.776471 0.713725 0.756863
0.913725 0.733333 0.772549
0.976471 0.721569 0.760784
0 0.760784 0.768627
0.0117647 0.74902 0.756863
0.0392157 0.756863 0.772549
0.145098 0.752941 0.760784
0.286275 0.764706 0.784314
0.580392 0.8 0.764706
0.796078 0.827451 0.745098
0.905882 0.831373 0.764706
0.976471 0.831373 0.74902
0.00392157 0.858824 0.792157
0.0156863 0.87451 0.788235
0.0313725 0.878431 0.796078
0.141176 0.870588 0.788235
0.298039 0.886275 0.788235
0.545098 0.894118 0.784314
0.803922 0.917647 0.745098
0.909804 0.901961 0.713725
0.976471 0.909804 0.72549
0 0.952941 0.807843
0.0117647 0.960784 0.803922
0.027451 0.960784 0.807843
0.14902 0.968627 0.796078
0.298039 0.968627 0.796078
0.564706 0.968627 0.772549
0.788235 0.976471 0.737255
0.905882 0.976471 0.737255
0.972549 0.972549 0.713725
0.00392157 0.0823529 0.847059
0.027451 0.0823529 0.854902
0.0705882 0.0823529 0.839216
0.141176 0.0980392 0.839216
0.266667 0.117647 0.831373
0.403922 0.141176 0.839216
0.647059 0.184314 0.866667
0.878431 0.207843 0.862745
0.980392 0.207843 0.870588
0.00784314 0.219608 0.847059
0.0235294 0.207843 0.85098
0.0666667 0.215686 0.854902
0.121569 0.188235 0.847059
0.258824 0.207843 0.85098
0.4 0.219608 0.847059
0.658824 0.270588 0.866667
0.866667 0.294118 0.862745
0.972549 0.294118 0.862745
0.00392157 0.345098 0.866667
0.0156863 0.337255 0.858824
0.0705882 0.317647 0.862745
0.129412 0.313725 0.854902
0.266667 0.301961 0.839216
0.423529 0.321569 0.854902
0.701961 0.368627 0.866667
0.87451 0.380392 0.862745
0.980392 0.384314 0.870588
0 0.454902 0.858824
0.0117647 0.454902 0.870588
0.0705882 0.435294 0.854902
0.145098 0.435294 0.862745
0.254902 0.423529 0.866667
0.439216 0.423529 0.866667
0.686275 0.45098 0.866667
0.890196 0.47451 0.866667
0.972549 0.482353 0.87451
0 0.560784 0.870588
0.0117647 0.560784 0.862745
0.054902 0.54902 0.878431
0.129412 0.54902 0.862745
0.254902 0.54902 0.87451
0.431373 0.552941 0.878431
0.717647 0.596078 0.870588
0.878431 0.596078 0.886275
0.972549 0.596078 0.87451
0 0.678431 0.878431
0.0117647 0.666667 0.87451
0.0470588 0.662745 0.878431
0.129412 0.654902 0.878431
0.254902 0.662745 0.870588
0.462745 0.670588 0.882353
0.741176 0.713725 0.886275
0.894118 0.713725 0.866667
0.972549 0.721569 0.870588
0.00392157 0.772549 0.866667
0.00784314 0.768627 0.87451
0.0196078 0.760784 0.878431
0.105882 0.764706 0.878431
0.243137 0.776471 0.890196
0.447059 0.776471 0.878431
0.764706 0.827451 0.878431
0.894118 0.823529 0.870588
0.972549 0.835294 0.866667
0.00392157 0.862745 0.878431
0 0.870588 0.882353
0.0196078 0.862745 0.882353
0.109804 0.866667 0.890196
0.247059 0.866667 0.870588
0.470588 0.878431 0.87451
0.764706 0.913725 0.870588
0.909804 0.92549 0.866667
0.980392 0.921569 0.870588
0 0.945098 0.890196
0.00392157 0.94902 0.890196
0.00784314 0.94902 0.890196
0.105882 0.956863 0.894118
0.247059 0.956863 0.894118
0.435294 0.964706 0.901961
0.737255 0.980392 0.878431
0.898039 0.980392 0.858824
0.976471 0.980392 0.854902
0 0.0823529 0.941176
0.0196078 0.0745098 0.945098
0.0509804 0.0705882 0.945098
0.117647 0.0862745 0.956863
0.231373 0.0980392 0.94902
0.360784 0.12549 0.952941
0.611765 0.176471 0.960784
0.862745 0.207843 0.968627
0.976471 0.215686 0.968627
0 0.219608 0.952941
0.0156863 0.207843 0.94902
0.054902 0.2 0.956863
0.117647 0.188235 0.952941
0.239216 0.196078 0.945098
0.364706 0.219608 0.952941
0.611765 0.254902 0.960784
0.862745 0.298039 0.972549
0.972549 0.305882 0.960784
0 0.341176 0.960784
0.00784314 0.329412 0.960784
0.0588235 0.321569 0.952941
0.109804 0.313725 0.941176
0.243137 0.309804 0.952941
0.388235 0.321569 0.960784
0.65098 0.360784 0.964706
0.870588 0.388235 0.964706
0.976471 0.392157 0.968627
0 0.466667 0.956863
0.00784314 0.45098 0.952941
0.0431373 0.443137 0.956863
0.113725 0.435294 0.956863
0.231373 0.435294 0.960784
0.364706 0.435294 0.964706
0.639216 0.458824 0.972549
0.862745 0.490196 0.976471
0.972549 0.490196 0.964706
0 0.568627 0.960784
0.00392157 0.564706 0.956863
0.0431373 0.556863 0.960784
0.117647 0.552941 0.960784
0.227451 0.552941 0.956863
0.360784 0.54902 0.960784
0.678431 0.588235 0.980392
0.862745 0.6 0.968627
0.972549 0.607843 0.976471
0 0.670588 0.956863
0.00392157 0.67451 0.956863
0.0235294 0.658824 0.960784
0.109804 0.666667 0.960784
0.219608 0.662745 0.964706
0.380392 0.666667 0.964706
0.690196 0.709804 0.968627
0.882353 0.717647 0.976471
0.980392 0.709804 0.976471
0 0.772549 0.964706
0.00392157 0.768627 0.952941
0.00784314 0.768627 0.964706
0.105882 0.768627 0.964706
0.231373 0.772549 0.952941
0.415686 0.768627 0.960784
0.72549 0.815686 0.976471
0.894118 0.831373 0.972549
0.972549 0.827451 0.972549
0 0.862745 0.964706
0 0.862745 0.960784
0.00784314 0.870588 0.968627
0.0941176 0.862745 0.960784
0.227451 0.870588 0.968627
0.4 0.862745 0.960784
0.745098 0.905882 0.980392
0.901961 0.92549 0.976471
0.976471 0.913725 0.972549
0 0.945098 0.952941
0 0.937255 0.956863
0 0.945098 0.960784
0.0901961 0.945098 0.960784
0.223529 0.94902 0.956863
0.435294 0.956863 0.968627
0.729412 0.960784 0.976471
0.898039 0.976471 0.972549
0.972549 0.976471 0.968627
