assets/luts/cinematic/CineMagic NT Film1.cube
#Generated by Picture Instruments - Unlimited Filters
TITLE "CineMagic NT Film1"
LUT_3D_SIZE 5
0.00392157 0.00784314 0.0156863
0.180392 0.00392157 0.0156863
0.478431 0.00784314 0.0156863
0.784314 0.00392157 0.0156863
0.992157 0.00392157 0.0156863
0 0.203922 0.0117647
0.172549 0.196078 0.00784314
0.478431 0.196078 0.00784314
0.776471 0.196078 0.00784314
0.996078 0.196078 0.0117647
0.00392157 0.498039 0.00392157
0.172549 0.494118 0
0.47451 0.494118 0
0.780392 0.501961 0
0.996078 0.490196 0
0.00784314 0.776471 0
0.180392 0.776471 0.00392157
0.486275 0.776471 0.00392157
0.784314 0.776471 0.00392157
0.996078 0.776471 0
0 0.980392 0
0.176471 0.976471 0
0.47451 0.976471 0
0.780392 0.972549 0
0.996078 0.976471 0
0 0.0313725 0.172549
0.176471 0.00784314 0.176471
0.482353 0.00784314 0.184314
0.788235 0.00392157 0.184314
0.996078 0.00784314 0.184314
0 0.215686 0.133333
0.172549 0.2 0.168627
0.482353 0.196078 0.172549
0.780392 0.196078 0.168627
0.992157 0.192157 0.168627
0 0.509804 0.133333
0.172549 0.501961 0.164706
0.478431 0.494118 0.164706
0.776471 0.494118 0.164706
0.996078 0.494118 0.164706
0 0.780392 0.117647
0.168627 0.780392 0.156863
0.47451 0.776471 0.156863
0.776471 0.776471 0.156863
0.992157 0.776471 0.152941
0 0.976471 0.117647
0.168627 0.976471 0.14902
0.478431 0.976471 0.152941
0.780392 0.976471 0.14902
0.996078 0.972549 0.152941
0.00392157 0.0666667 0.411765
0.141176 0.0392157 0.419608
0.482353 0.00784314 0.423529
0.788235 0.00392157 0.431373
0.992157 0.00392157 0.423529
0 0.247059 0.384314
0.133333 0.227451 0.407843
0.478431 0.192157 0.411765
0.780392 0.196078 0.415686
0.992157 0.196078 0.419608
0.00392157 0.521569 0.364706
0.129412 0.509804 0.372549
0.478431 0.490196 0.407843
0.776471 0.494118 0.407843
0.996078 0.494118 0.415686
0 0.788235 0.341176
0.129412 0.784314 0.368627
0.478431 0.780392 0.411765
0.780392 0.780392 0.403922
0.992157 0.776471 0.403922
0 0.968627 0.34902
0.129412 0.972549 0.368627
0.478431 0.976471 0.4
0.780392 0.976471 0.396078
0.996078 0.976471 0.403922
0.00392157 0.105882 0.67451
0.0941176 0.0823529 0.67451
0.454902 0.0352941 0.678431
0.776471 0.00392157 0.690196
0.996078 0 0.686275
0 0.27451 0.658824
0.105882 0.258824 0.670588
0.458824 0.223529 0.670588
0.784314 0.196078 0.678431
0.992157 0.196078 0.67451
0 0.541176 0.643137
0.0941176 0.529412 0.647059
0.45098 0.509804 0.670588
0.776471 0.490196 0.666667
0.988235 0.494118 0.670588
0.00392157 0.8 0.615686
0.0823529 0.792157 0.631373
0.415686 0.784314 0.643137
0.780392 0.776471 0.658824
0.996078 0.776471 0.662745
0.00392157 0.976471 0.615686
0.0823529 0.976471 0.627451
0.419608 0.976471 0.643137
0.784314 0.976471 0.658824
0.992157 0.972549 0.662745
0 0.129412 0.866667
0.0627451 0.105882 0.87451
0.435294 0.0627451 0.878431
0.772549 0.0196078 0.87451
0.996078 0 0.878431
0 0.294118 0.862745
0.0705882 0.278431 0.866667
0.443137 0.243137 0.87451
0.780392 0.207843 0.870588
0.992157 0.192157 0.870588
0 0.552941 0.85098
0.0588235 0.541176 0.85098
0.435294 0.521569 0.854902
0.780392 0.498039 0.866667
0.996078 0.494118 0.862745
0 0.8 0.831373
0.0509804 0.796078 0.839216
0.384314 0.788235 0.843137
0.772549 0.784314 0.854902
0.988235 0.776471 0.854902
0 0.976471 0.831373
0.0470588 0.976471 0.835294
0.360784 0.972549 0.835294
0.772549 0.972549 0.85098
0.988235 0.972549 0.85098
