assets/luts/cinematic/CineMagic NT Film1.cube
#Generated by Picture Instruments - Unlimited Filters
TITLE "CineMagic NT Film1"
LUT_3D_SIZE 17
0.00392157 0.00784314 0.0156863
0.0392157 0.00392157 0.0156863
0.0705882 0.00784314 0.0196078
0.117647 0.00392157 0.0196078
0.180392 0.00392157 0.0156863
0.243137 0.00392157 0.0235294
0.317647 0 0.0235294
0.4 0.00784314 0.0156863
0.478431 0.00784314 0.0156863
0.564706 0.00392157 0.0196078
0.643137 0.00392157 0.0156863
0.713725 0.00784314 0.0196078
0.784314 0.00392157 0.0156863
0.843137 0.00392157 0.0117647
0.901961 0.00392157 0.0156863
0.956863 0.00392157 0.0196078
0.992157 0.00392157 0.0156863
0 0.0431373 0.0117647
0.0352941 0.0392157 0.0156863
0.0745098 0.0392157 0.0196078
0.113725 0.0392157 0.0156863
0.180392 0.0431373 0.0196078
0.239216 0.0431373 0.0156863
0.309804 0.0392157 0.0196078
0.396078 0.0392157 0.0196078
0.478431 0.0431373 0.0156863
0.564706 0.0431373 0.0156863
0.639216 0.0392157 0.0156863
0.717647 0.0392157 0.0156863
0.780392 0.0392157 0.0156863
0.843137 0.0392157 0.0196078
0.898039 0.0392157 0.0156863
0.952941 0.0392157 0.0196078
0.996078 0.0392157 0.0196078
0.00392157 0.0862745 0.0117647
0.0352941 0.0862745 0.0196078
0.0705882 0.0823529 0.0156863
0.117647 0.0823529 0.0156863
0.184314 0.0823529 0.0156863
0.25098 0.0823529 0.0156863
0.321569 0.0823529 0.0117647
0.392157 0.0823529 0.0156863
0.486275 0.0823529 0.0156863
0.564706 0.0823529 0.0117647
0.643137 0.0823529 0.0156863
0.713725 0.0823529 0.0117647
0.784314 0.0784314 0.0117647
0.847059 0.0823529 0.0117647
0.905882 0.0823529 0.0156863
0.956863 0.0823529 0.0156863
0.996078 0.0823529 0.0156863
0.00392157 0.141176 0.0156863
0.0392157 0.137255 0.0117647
0.0705882 0.137255 0.0117647
0.121569 0.133333 0.0117647
0.176471 0.133333 0.00784314
0.243137 0.137255 0.0196078
0.317647 0.137255 0.00784314
0.396078 0.137255 0.0117647
0.486275 0.137255 0.0196078
0.564706 0.137255 0.0156863
0.643137 0.137255 0.0117647
0.713725 0.137255 0.00784314
0.784314 0.137255 0.0196078
0.843137 0.133333 0.0117647
0.901961 0.137255 0.0117647
0.956863 0.137255 0.0156863
0.992157 0.137255 0.0117647
0 0.203922 0.0117647
0.0313725 0.196078 0.00784314
0.0705882 0.196078 0.00392157
0.121569 0.196078 0.0156863
0.172549 0.196078 0.00784314
0.247059 0.2 0.0117647
0.317647 0.196078 0.0117647
0.396078 0.2 0.00784314
0.478431 0.196078 0.00784314
0.560784 0.2 0.0156863
0.635294 0.196078 0.00784314
0.713725 0.196078 0.00784314
0.776471 0.196078 0.00784314
0.843137 0.196078 0.0156863
0.905882 0.2 0.00784314
0.94902 0.196078 0.0117647
0.996078 0.196078 0.0117647
0 0.270588 0.0156863
0.0352941 0.266667 0.0156863
0.0745098 0.266667 0.00784314
0.117647 0.258824 0.00784314
0.180392 0.262745 0.00784314
0.247059 0.266667 0.00784314
0.321569 0.266667 0.0117647
0.403922 0.266667 0.0156863
0.478431 0.262745 0.0117647
0.560784 0.266667 0.00392157
0.639216 0.266667 0.00784314
0.717647 0.266667 0.0117647
0.784314 0.258824 0.0117647
0.847059 0.270588 0.00784314
0.905882 0.266667 0.0117647
0.952941 0.266667 0.00392157
0.996078 0.266667 0.0117647
0.00392157 0.337255 0.00392157
0.0313725 0.337255 0.00784314
0.0705882 0.337255 0.00392157
0.121569 0.337255 0.00784314
0.184314 0.341176 0.00392157
0.243137 0.337255 0.00784314
0.317647 0.341176 0.00392157
0.396078 0.337255 0.00392157
0.482353 0.341176 0.0117647
0.556863 0.337255 0.00392157
0.635294 0.337255 0.00784314
0.713725 0.337255 0.00784314
0.788235 0.337255 0.0117647
0.847059 0.337255 0.00784314
0.901961 0.337255 0
0.94902 0.337255 0.00392157
0.996078 0.337255 0.00392157
0.00392157 0.423529 0.00784314
0.0352941 0.423529 0
0.0705882 0.415686 0.00784314
0.117647 0.419608 0.00392157
0.176471 0.415686 0.00784314
0.243137 0.423529 0
0.317647 0.423529 0.0117647
0.396078 0.419608 0.00392157
0.47451 0.419608 0.00784314
0.564706 0.419608 0.00392157
0.643137 0.419608 0.00784314
0.709804 0.419608 0.00784314
0.784314 0.419608 0.0117647
0.843137 0.415686 0.00392157
0.901961 0.419608 0.00392157
0.952941 0.423529 0.00392157
0.996078 0.419608 0.00392157
0.00392157 0.498039 0.00392157
0.0392157 0.494118 0.00392157
0.0705882 0.505882 0.00392157
0.113725 0.501961 0.00392157
0.172549 0.494118 0
0.239216 0.494118 0
0.317647 0.501961 0
0.4 0.501961 0.00392157
0.47451 0.494118 0
0.552941 0.494118 0
0.635294 0.498039 0.00392157
0.709804 0.494118 0
0.780392 0.501961 0
0.839216 0.494118 0.00784314
0.898039 0.490196 0
0.956863 0.494118 0
0.996078 0.490196 0
0 0.572549 0.00392157
0.0313725 0.564706 0
0.0705882 0.572549 0.00392157
0.121569 0.572549 0
0.184314 0.572549 0.00392157
0.247059 0.572549 0.00784314
0.317647 0.572549 0
0.396078 0.572549 0.00392157
0.482353 0.576471 0.00392157
0.564706 0.572549 0
0.639216 0.576471 0
0.713725 0.572549 0
0.776471 0.572549 0
0.847059 0.572549 0
0.905882 0.572549 0.00392157
0.952941 0.564706 0
0.996078 0.568627 0
0 0.643137 0
0.0352941 0.643137 0
0.0705882 0.643137 0.00392157
0.113725 0.643137 0
0.180392 0.643137 0
0.243137 0.647059 0
0.321569 0.643137 0.00392157
0.4 0.643137 0.00392157
0.478431 0.647059 0
0.560784 0.643137 0.00392157
0.639216 0.643137 0
0.713725 0.647059 0
0.780392 0.643137 0
0.847059 0.643137 0
0.898039 0.643137 0
0.952941 0.643137 0.00392157
0.996078 0.643137 0.00392157
0 0.717647 0
0.0313725 0.717647 0
0.0705882 0.721569 0
0.113725 0.717647 0
0.180392 0.721569 0.00784314
0.243137 0.717647 0
0.321569 0.717647 0.00392157
0.4 0.717647 0
0.482353 0.721569 0.00392157
0.556863 0.721569 0
0.635294 0.717647 0
0.713725 0.717647 0.00392157
0.784314 0.721569 0.00392157
0.843137 0.717647 0
0.898039 0.717647 0.00392157
0.94902 0.717647 0.00392157
0.996078 0.717647 0
0.00784314 0.776471 0
0.0392157 0.776471 0
0.0745098 0.772549 0.00392157
0.117647 0.776471 0
0.180392 0.776471 0.00392157
0.247059 0.776471 0
0.317647 0.772549 0
0.396078 0.772549 0.00392157
0.486275 0.776471 0.00392157
0.564706 0.776471 0
0.643137 0.776471 0
0.717647 0.772549 0
0.784314 0.776471 0.00392157
0.847059 0.776471 0
0.905882 0.776471 0
0.956863 0.776471 0
0.996078 0.776471 0
0 0.835294 0.00392157
0.0352941 0.835294 0
0.0705882 0.835294 0
0.117647 0.835294 0
0.176471 0.839216 0.00392157
0.247059 0.835294 0
0.313725 0.835294 0
0.403922 0.835294 0
0.478431 0.831373 0
0.560784 0.839216 0
0.639216 0.835294 0
0.717647 0.835294 0.00392157
0.784314 0.835294 0.00392157
0.839216 0.835294 0
0.901961 0.835294 0.00392157
0.952941 0.839216 0
0.992157 0.835294 0
0 0.890196 0
0.027451 0.886275 0
0.0666667 0.886275 0
0.117647 0.890196 0
0.180392 0.890196 0
0.239216 0.886275 0
0.317647 0.886275 0.00392157
0.396078 0.886275 0
0.47451 0.886275 0.00392157
0.560784 0.882353 0
0.631373 0.886275 0
0.709804 0.886275 0
0.780392 0.886275 0.00392157
0.843137 0.886275 0
0.901961 0.890196 0
0.945098 0.886275 0
0.996078 0.886275 0
0.00392157 0.941176 0.00392157
0.0313725 0.937255 0
0.0705882 0.937255 0.00392157
0.117647 0.937255 0
0.180392 0.937255 0
0.243137 0.937255 0
0.321569 0.937255 0
0.396078 0.933333 0
0.486275 0.937255 0
0.564706 0.933333 0
0.643137 0.937255 0
0.713725 0.937255 0
0.780392 0.933333 0.00392157
0.847059 0.937255 0
0.901961 0.937255 0
0.956863 0.937255 0
0.996078 0.937255 0
0 0.980392 0
0.0352941 0.976471 0
0.0666667 0.976471 0
0.117647 0.980392 0
0.176471 0.976471 0
0.239216 0.976471 0
0.313725 0.976471 0
0.392157 0.980392 0
0.47451 0.976471 0
0.564706 0.976471 0
0.643137 0.976471 0
0.709804 0.976471 0
0.780392 0.972549 0
0.843137 0.976471 0
0.901961 0.980392 0
0.952941 0.976471 0
0.996078 0.976471 0
0 0.0117647 0.0392157
0.0352941 0.00392157 0.0470588
0.0705882 0 0.0470588
0.121569 0.00392157 0.0509804
0.172549 0.00392157 0.0431373
0.247059 0.00392157 0.054902
0.32549 0.00392157 0.0509804
0.396078 0.00392157 0.0509804
0.478431 0 0.0431373
0.568627 0 0.0509804
0.647059 0.00392157 0.0470588
0.717647 0.00392157 0.0509804
0.780392 0.00784314 0.0470588
0.843137 0.00392157 0.0431373
0.905882 0.00392157 0.0509804
0.960784 0.00392157 0.0509804
0.996078 0.00392157 0.0470588
0 0.0470588 0.0470588
0.0392157 0.0431373 0.0509804
0.0745098 0.0392157 0.0509804
0.117647 0.0392157 0.0470588
0.176471 0.0431373 0.0470588
0.243137 0.0392157 0.0470588
0.317647 0.0392157 0.054902
0.396078 0.0431373 0.0509804
0.486275 0.0431373 0.0509804
0.560784 0.0392157 0.0431373
0.639216 0.0392157 0.0470588
0.717647 0.0392157 0.0470588
0.780392 0.0431373 0.0470588
0.843137 0.0431373 0.0470588
0.901961 0.0392157 0.0470588
0.952941 0.0392157 0.0509804
0.996078 0.0392157 0.0509804
0 0.0941176 0.0392157
0.0352941 0.0901961 0.0392157
0.0705882 0.0823529 0.0470588
0.117647 0.0823529 0.0470588
0.176471 0.0784314 0.0509804
0.243137 0.0862745 0.0470588
0.309804 0.0823529 0.0392157
0.392157 0.0862745 0.0470588
0.478431 0.0823529 0.0431373
0.560784 0.0862745 0.0431373
0.639216 0.0862745 0.0470588
0.713725 0.0823529 0.0431373
0.780392 0.0823529 0.0431373
0.843137 0.0901961 0.0470588
0.901961 0.0862745 0.0470588
0.94902 0.0823529 0.0470588
0.996078 0.0823529 0.0392157
0.00392157 0.145098 0.0431373
0.0392157 0.141176 0.0431373
0.0784314 0.137255 0.0470588
0.117647 0.133333 0.0431373
0.176471 0.137255 0.0392157
0.247059 0.137255 0.0509804
0.321569 0.133333 0.0431373
0.403922 0.137255 0.0470588
0.478431 0.133333 0.0470588
0.568627 0.137255 0.0470588
0.647059 0.137255 0.0431373
0.721569 0.137255 0.0431373
0.780392 0.133333 0.0470588
0.843137 0.137255 0.0470588
0.905882 0.137255 0.0352941
0.956863 0.137255 0.0470588
0.996078 0.137255 0.0431373
0 0.2 0.0392157
0.0352941 0.203922 0.0352941
0.0705882 0.196078 0.0352941
0.117647 0.2 0.0470588
0.176471 0.196078 0.0392157
0.243137 0.196078 0.0392157
0.321569 0.196078 0.0431373
0.4 0.196078 0.0392157
0.478431 0.196078 0.0392157
0.564706 0.196078 0.0470588
0.639216 0.196078 0.0392157
0.713725 0.196078 0.0431373
0.780392 0.196078 0.0313725
0.847059 0.196078 0.0470588
0.898039 0.196078 0.0392157
0.952941 0.196078 0.0352941
0.992157 0.196078 0.0392157
0 0.27451 0.0392157
0.0352941 0.27451 0.0392157
0.0705882 0.266667 0.0352941
0.117647 0.266667 0.0352941
0.176471 0.270588 0.0431373
0.247059 0.266667 0.0392157
0.317647 0.270588 0.0431373
0.392157 0.266667 0.0431373
0.482353 0.266667 0.0431373
0.560784 0.266667 0.0392157
0.639216 0.266667 0.0470588
0.709804 0.266667 0.0392157
0.780392 0.270588 0.0431373
0.839216 0.266667 0.0352941
0.905882 0.266667 0.0431373
0.952941 0.270588 0.0352941
0.992157 0.266667 0.0392157
0.00784314 0.337255 0.0313725
0.0352941 0.345098 0.0352941
0.0745098 0.337255 0.0352941
0.12549 0.337255 0.0392157
0.176471 0.337255 0.0313725
0.247059 0.337255 0.0313725
0.321569 0.337255 0.0352941
0.403922 0.333333 0.0352941
0.482353 0.333333 0.0392157
0.560784 0.337255 0.0352941
0.643137 0.341176 0.0352941
0.717647 0.333333 0.0392157
0.780392 0.337255 0.0392157
0.847059 0.337255 0.0313725
0.909804 0.337255 0.0352941
0.956863 0.341176 0.0392157
0.996078 0.337255 0.0352941
0.00784314 0.423529 0.0392157
0.0392157 0.423529 0.0352941
0.0666667 0.419608 0.0431373
0.121569 0.419608 0.0352941
0.184314 0.419608 0.0352941
0.247059 0.419608 0.0352941
0.317647 0.411765 0.0352941
0.396078 0.419608 0.0352941
0.478431 0.415686 0.0392157
0.560784 0.419608 0.0392157
0.639216 0.411765 0.0313725
0.713725 0.415686 0.0313725
0.784314 0.419608 0.0431373
0.847059 0.423529 0.0392157
0.905882 0.419608 0.0352941
0.952941 0.419608 0.0313725
0.996078 0.419608 0.0313725
0 0.501961 0.0352941
0.0352941 0.498039 0.027451
0.0705882 0.498039 0.0313725
0.121569 0.494118 0.0392157
0.176471 0.494118 0.0313725
0.243137 0.490196 0.0313725
0.313725 0.501961 0.0313725
0.392157 0.501961 0.0352941
0.478431 0.490196 0.0313725
0.560784 0.494118 0.0313725
0.639216 0.494118 0.0352941
0.713725 0.490196 0.0352941
0.776471 0.494118 0.0235294
0.843137 0.494118 0.0392157
0.905882 0.494118 0.0352941
0.952941 0.498039 0.0313725
0.996078 0.494118 0.0313725
0 0.576471 0.0196078
0.0352941 0.576471 0.0313725
0.0705882 0.572549 0.0352941
0.117647 0.576471 0.027451
0.176471 0.576471 0.0352941
0.243137 0.572549 0.0313725
0.313725 0.576471 0.0313725
0.392157 0.576471 0.027451
0.482353 0.576471 0.0352941
0.556863 0.572549 0.0352941
0.635294 0.572549 0.027451
0.713725 0.572549 0.0392157
0.780392 0.572549 0.0313725
0.843137 0.580392 0.0313725
0.898039 0.568627 0.0392157
0.94902 0.572549 0.0313725
0.996078 0.572549 0.0313725
0.00392157 0.647059 0.0235294
0.0352941 0.647059 0.0235294
0.0745098 0.643137 0.027451
0.117647 0.643137 0.027451
0.184314 0.643137 0.0235294
0.247059 0.643137 0.0313725
0.32549 0.643137 0.0352941
0.392157 0.643137 0.027451
0.478431 0.639216 0.0196078
0.564706 0.643137 0.027451
0.643137 0.643137 0.0313725
0.713725 0.643137 0.0235294
0.780392 0.643137 0.0313725
0.839216 0.643137 0.027451
0.901961 0.643137 0.027451
0.956863 0.639216 0.0352941
0.992157 0.639216 0.0235294
0.00392157 0.721569 0.0235294
0.0352941 0.717647 0.0235294
0.0745098 0.717647 0.0313725
0.117647 0.717647 0.027451
0.176471 0.721569 0.027451
0.247059 0.717647 0.027451
0.317647 0.721569 0.0352941
0.396078 0.721569 0.0313725
0.482353 0.717647 0.027451
0.560784 0.721569 0.0235294
0.639216 0.717647 0.0313725
0.717647 0.717647 0.027451
0.780392 0.721569 0.027451
0.843137 0.721569 0.0313725
0.901961 0.717647 0.027451
0.952941 0.717647 0.027451
0.996078 0.713725 0.027451
0 0.780392 0.0196078
0.0313725 0.772549 0.0235294
0.0705882 0.776471 0.0196078
0.121569 0.776471 0.0235294
0.176471 0.780392 0.027451
0.243137 0.780392 0.027451
0.317647 0.776471 0.0196078
0.396078 0.776471 0.027451
0.482353 0.776471 0.027451
0.560784 0.780392 0.0235294
0.635294 0.772549 0.0235294
0.709804 0.776471 0.0235294
0.776471 0.776471 0.0235294
0.847059 0.780392 0.027451
0.898039 0.780392 0.027451
0.94902 0.772549 0.0235294
0.996078 0.772549 0.0196078
0.00392157 0.835294 0.0235294
0.0352941 0.835294 0.0156863
0.0784314 0.835294 0.0313725
0.117647 0.831373 0.0235294
0.176471 0.835294 0.0156863
0.25098 0.835294 0.027451
0.317647 0.835294 0.0235294
0.392157 0.831373 0.0156863
0.482353 0.831373 0.0313725
0.564706 0.839216 0.0235294
0.643137 0.835294 0.027451
0.717647 0.831373 0.0235294
0.780392 0.835294 0.0235294
0.843137 0.835294 0.0235294
0.905882 0.835294 0.027451
0.956863 0.835294 0.0313725
0.996078 0.835294 0.0196078
0 0.886275 0.0156863
0.0392157 0.886275 0.0196078
0.0705882 0.890196 0.0156863
0.117647 0.886275 0.0235294
0.180392 0.886275 0.0196078
0.243137 0.886275 0.0196078
0.317647 0.890196 0.027451
0.396078 0.882353 0.0196078
0.486275 0.886275 0.0196078
0.556863 0.886275 0.0235294
0.643137 0.886275 0.0196078
0.713725 0.886275 0.0196078
0.784314 0.886275 0.0196078
0.847059 0.886275 0.027451
0.901961 0.886275 0.0196078
0.956863 0.886275 0.0156863
0.996078 0.886275 0.0196078
0.00392157 0.937255 0.0196078
0.0352941 0.937255 0.0235294
0.0705882 0.937255 0.0156863
0.121569 0.937255 0.0196078
0.176471 0.937255 0.0196078
0.243137 0.941176 0.0235294
0.317647 0.937255 0.0156863
0.396078 0.937255 0.0235294
0.478431 0.933333 0.0196078
0.560784 0.937255 0.0196078
0.639216 0.937255 0.0235294
0.709804 0.937255 0.0196078
0.780392 0.937255 0.0196078
0.843137 0.937255 0.0196078
0.905882 0.937255 0.0235294
0.952941 0.937255 0.027451
0.996078 0.937255 0.0235294
0.00392157 0.980392 0.0196078
0.0352941 0.976471 0.0196078
0.0705882 0.976471 0.0196078
0.117647 0.976471 0.0156863
0.176471 0.976471 0.0235294
0.243137 0.976471 0.0196078
0.317647 0.972549 0.0156863
0.396078 0.980392 0.0235294
0.478431 0.976471 0.0196078
0.560784 0.976471 0.0156863
0.639216 0.972549 0.0235294
0.709804 0.976471 0.0196078
0.780392 0.980392 0.0196078
0.843137 0.980392 0.0196078
0.905882 0.980392 0.0235294
0.94902 0.976471 0.0235294
0.996078 0.976471 0.0235294
0 0.0235294 0.0862745
0.027451 0.0156863 0.0823529
0.0666667 0.00784314 0.0901961
0.113725 0.00392157 0.0901961
0.176471 0.00784314 0.0862745
0.239216 0.00784314 0.0862745
0.313725 0.00392157 0.0862745
0.392157 0.00392157 0.0862745
0.482353 0.00784314 0.0823529
0.560784 0.00392157 0.0901961
0.639216 0.00392157 0.0862745
0.705882 0.00392157 0.0862745
0.776471 0.00392157 0.0823529
0.839216 0.00392157 0.0823529
0.901961 0.0117647 0.0901961
0.952941 0.00392157 0.0901961
0.992157 0.00392157 0.0862745
0 0.0509804 0.0745098
0.0313725 0.0470588 0.0823529
0.0705882 0.0392157 0.0823529
0.117647 0.0392157 0.0862745
0.180392 0.0392157 0.0862745
0.243137 0.0392157 0.0862745
0.321569 0.0392157 0.0862745
0.403922 0.0392157 0.0823529
0.478431 0.0392157 0.0862745
0.564706 0.0392157 0.0823529
0.643137 0.0392157 0.0862745
0.721569 0.0352941 0.0862745
0.784314 0.0392157 0.0862745
0.847059 0.0392157 0.0862745
0.901961 0.0392157 0.0862745
0.956863 0.0392157 0.0901961
0.992157 0.0392157 0.0862745
0.00392157 0.0941176 0.0705882
0.0313725 0.0901961 0.0784314
0.0666667 0.0823529 0.0784314
0.121569 0.0823529 0.0862745
0.176471 0.0823529 0.0823529
0.243137 0.0784314 0.0823529
0.317647 0.0823529 0.0823529
0.396078 0.0823529 0.0862745
0.482353 0.0784314 0.0823529
0.564706 0.0862745 0.0823529
0.639216 0.0823529 0.0784314
0.717647 0.0784314 0.0823529
0.780392 0.0823529 0.0823529
0.843137 0.0823529 0.0823529
0.905882 0.0823529 0.0862745
0.952941 0.0784314 0.0823529
0.996078 0.0784314 0.0823529
0 0.14902 0.0666667
0.0352941 0.14902 0.0784314
0.0705882 0.141176 0.0784314
0.113725 0.137255 0.0823529
0.172549 0.137255 0.0784314
0.247059 0.137255 0.0901961
0.321569 0.141176 0.0823529
0.396078 0.137255 0.0823529
0.47451 0.137255 0.0862745
0.560784 0.137255 0.0862745
0.639216 0.141176 0.0823529
0.713725 0.141176 0.0823529
0.776471 0.133333 0.0862745
0.843137 0.137255 0.0823529
0.898039 0.141176 0.0823529
0.952941 0.137255 0.0862745
0.996078 0.137255 0.0823529
0.00392157 0.207843 0.0666667
0.0313725 0.203922 0.0666667
0.0705882 0.2 0.0784314
0.121569 0.196078 0.0784314
0.176471 0.196078 0.0784314
0.247059 0.192157 0.0784314
0.32549 0.192157 0.0823529
0.403922 0.196078 0.0745098
0.482353 0.192157 0.0784314
0.560784 0.192157 0.0823529
0.647059 0.196078 0.0823529
0.717647 0.192157 0.0784314
0.784314 0.192157 0.0784314
0.839216 0.192157 0.0823529
0.901961 0.192157 0.0784314
0.960784 0.196078 0.0784314
0.996078 0.196078 0.0784314
0.00392157 0.27451 0.0627451
0.0313725 0.266667 0.0666667
0.0666667 0.270588 0.0784314
0.117647 0.266667 0.0745098
0.176471 0.270588 0.0823529
0.243137 0.266667 0.0784314
0.317647 0.262745 0.0705882
0.392157 0.266667 0.0745098
0.478431 0.266667 0.0823529
0.556863 0.266667 0.0745098
0.643137 0.266667 0.0784314
0.717647 0.266667 0.0823529
0.780392 0.270588 0.0784314
0.843137 0.262745 0.0745098
0.901961 0.266667 0.0823529
0.952941 0.266667 0.0823529
0.996078 0.266667 0.0823529
0.00392157 0.345098 0.0666667
0.027451 0.341176 0.0627451
0.0666667 0.345098 0.0705882
0.113725 0.337255 0.0705882
0.176471 0.337255 0.0705882
0.247059 0.333333 0.0784314
0.317647 0.337255 0.0745098
0.396078 0.337255 0.0745098
0.47451 0.337255 0.0784314
0.560784 0.337255 0.0745098
0.639216 0.333333 0.0745098
0.717647 0.337255 0.0705882
0.780392 0.337255 0.0784314
0.843137 0.337255 0.0784314
0.901961 0.333333 0.0705882
0.952941 0.337255 0.0745098
0.996078 0.337255 0.0745098
0.00392157 0.419608 0.0666667
0.0352941 0.423529 0.0666667
0.0705882 0.423529 0.0705882
0.121569 0.419608 0.0745098
0.184314 0.419608 0.0745098
0.243137 0.407843 0.0705882
0.321569 0.407843 0.0745098
0.403922 0.419608 0.0784314
0.482353 0.419608 0.0745098
0.564706 0.419608 0.0745098
0.639216 0.415686 0.0745098
0.717647 0.419608 0.0745098
0.788235 0.419608 0.0745098
0.85098 0.419608 0.0784314
0.905882 0.411765 0.0705882
0.960784 0.419608 0.0705882
0.996078 0.419608 0.0705882
0 0.501961 0.0588235
0.0352941 0.498039 0.0666667
0.0705882 0.501961 0.0627451
0.117647 0.494118 0.0705882
0.176471 0.498039 0.0745098
0.247059 0.494118 0.0745098
0.321569 0.501961 0.0745098
0.4 0.490196 0.0745098
0.482353 0.494118 0.0745098
0.560784 0.494118 0.0705882
0.643137 0.494118 0.0745098
0.713725 0.490196 0.0705882
0.776471 0.494118 0.0627451
0.839216 0.494118 0.0705882
0.905882 0.494118 0.0666667
0.956863 0.494118 0.0705882
0.992157 0.494118 0.0666667
0 0.576471 0.054902
0.0313725 0.580392 0.0666667
0.0666667 0.572549 0.0666667
0.117647 0.576471 0.0666667
0.176471 0.572549 0.0705882
0.239216 0.572549 0.0666667
0.317647 0.572549 0.0705882
0.4 0.576471 0.0705882
0.478431 0.576471 0.0745098
0.564706 0.572549 0.0745098
0.639216 0.568627 0.0666667
0.709804 0.572549 0.0705882
0.780392 0.572549 0.0705882
0.843137 0.572549 0.0666667
0.901961 0.576471 0.0745098
0.952941 0.568627 0.0705882
0.996078 0.564706 0.0705882
0 0.65098 0.054902
0.027451 0.65098 0.054902
0.0666667 0.639216 0.0627451
0.117647 0.643137 0.0666667
0.176471 0.647059 0.0627451
0.243137 0.643137 0.0627451
0.313725 0.643137 0.0666667
0.392157 0.643137 0.0627451
0.478431 0.643137 0.0627451
0.560784 0.647059 0.0705882
0.635294 0.643137 0.0705882
0.709804 0.643137 0.0627451
0.776471 0.639216 0.0666667
0.847059 0.643137 0.0705882
0.905882 0.647059 0.0666667
0.952941 0.647059 0.0666667
0.996078 0.643137 0.0666667
0.00392157 0.721569 0.054902
0.0313725 0.721569 0.0588235
0.0705882 0.721569 0.0627451
0.117647 0.717647 0.0666667
0.180392 0.717647 0.0666667
0.25098 0.717647 0.0627451
0.321569 0.717647 0.0666667
0.407843 0.713725 0.0705882
0.478431 0.717647 0.0666667
0.564706 0.717647 0.0627451
0.643137 0.717647 0.0627451
0.721569 0.717647 0.0666667
0.784314 0.717647 0.0666667
0.847059 0.717647 0.0705882
0.901961 0.717647 0.0666667
0.956863 0.717647 0.0666667
0.996078 0.717647 0.0666667
0 0.780392 0.0470588
0.0313725 0.776471 0.054902
0.0627451 0.776471 0.0588235
0.117647 0.776471 0.0588235
0.176471 0.780392 0.0666667
0.247059 0.776471 0.0666667
0.313725 0.776471 0.0627451
0.392157 0.776471 0.0588235
0.482353 0.776471 0.0666667
0.560784 0.780392 0.0627451
0.639216 0.780392 0.0588235
0.717647 0.776471 0.0666667
0.780392 0.780392 0.0666667
0.843137 0.780392 0.0627451
0.901961 0.776471 0.0666667
0.952941 0.780392 0.0627451
0.992157 0.776471 0.0588235
0 0.843137 0.0509804
0.0313725 0.839216 0.0588235
0.0666667 0.835294 0.0588235
0.113725 0.835294 0.0666667
0.176471 0.835294 0.0627451
0.243137 0.831373 0.0627451
0.321569 0.839216 0.0666667
0.396078 0.835294 0.0588235
0.478431 0.831373 0.0627451
0.560784 0.839216 0.0627451
0.639216 0.835294 0.0666667
0.709804 0.835294 0.054902
0.780392 0.835294 0.0627451
0.843137 0.835294 0.0627451
0.901961 0.839216 0.0588235
0.952941 0.839216 0.0627451
0.996078 0.835294 0.0588235
0 0.886275 0.0470588
0.0313725 0.890196 0.0509804
0.0705882 0.890196 0.054902
0.12549 0.886275 0.0588235
0.180392 0.886275 0.0588235
0.243137 0.886275 0.0588235
0.321569 0.886275 0.0588235
0.403922 0.886275 0.054902
0.478431 0.886275 0.0588235
0.560784 0.882353 0.0627451
0.639216 0.886275 0.0588235
0.717647 0.886275 0.0588235
0.784314 0.886275 0.0588235
0.847059 0.886275 0.0588235
0.901961 0.886275 0.0588235
0.952941 0.886275 0.0627451
0.988235 0.886275 0.0588235
0.00784314 0.937255 0.0509804
0.0313725 0.937255 0.0509804
0.0666667 0.937255 0.054902
0.117647 0.937255 0.0588235
0.176471 0.941176 0.0627451
0.247059 0.937255 0.0627451
0.313725 0.937255 0.054902
0.392157 0.937255 0.054902
0.482353 0.937255 0.0627451
0.564706 0.937255 0.0588235
0.639216 0.933333 0.0588235
0.713725 0.933333 0.0588235
0.780392 0.941176 0.0627451
0.839216 0.937255 0.0588235
0.905882 0.937255 0.054902
0.952941 0.941176 0.0588235
0.992157 0.937255 0.054902
0.00392157 0.972549 0.0509804
0.0313725 0.980392 0.0509804
0.0666667 0.976471 0.054902
0.121569 0.976471 0.0588235
0.176471 0.976471 0.0588235
0.243137 0.968627 0.0588235
0.317647 0.976471 0.054902
0.4 0.976471 0.054902
0.482353 0.972549 0.0588235
0.560784 0.976471 0.054902
0.639216 0.972549 0.0588235
0.713725 0.972549 0.0588235
0.780392 0.976471 0.0588235
0.843137 0.976471 0.0588235
0.905882 0.972549 0.054902
0.952941 0.972549 0.0588235
0.992157 0.972549 0.054902
0 0.0313725 0.121569
0.0313725 0.0196078 0.12549
0.0666667 0.0156863 0.12549
0.113725 0.00784314 0.129412
0.176471 0.00784314 0.12549
0.239216 0.00784314 0.133333
0.317647 0.00784314 0.133333
0.396078 0.00784314 0.129412
0.478431 0.00392157 0.133333
0.556863 0.00392157 0.137255
0.635294 0.00392157 0.133333
0.713725 0.00392157 0.12549
0.780392 0.00392157 0.133333
0.843137 0.00784314 0.133333
0.905882 0.00784314 0.129412
0.94902 0.00392157 0.133333
