assets/luts/cinematic/CineMagic NT N30V1.cube
#Generated by Picture Instruments - Unlimited Filters
TITLE "CineMagic NT N30V1"
LUT_3D_SIZE 17
0.0901961 0.0509804 0.054902
0.0980392 0.0588235 0.0627451
0.12549 0.0705882 0.0705882
0.168627 0.0980392 0.0862745
0.211765 0.121569 0.0980392
0.27451 0.14902 0.0901961
0.329412 0.160784 0.0941176
0.427451 0.188235 0.117647
0.509804 0.211765 0.14902
0.615686 0.239216 0.168627
0.698039 0.262745 0.188235
0.764706 0.290196 0.207843
0.811765 0.32549 0.215686
0.85098 0.368627 0.235294
0.890196 0.411765 0.25098
0.909804 0.454902 0.254902
0.909804 0.478431 0.254902
0.0941176 0.0705882 0.0705882
0.0941176 0.0705882 0.0705882
0.12549 0.0705882 0.0705882
0.168627 0.0980392 0.0901961
0.203922 0.12549 0.0901961
0.27451 0.14902 0.0980392
0.329412 0.160784 0.0941176
0.431373 0.192157 0.121569
0.517647 0.207843 0.141176
0.627451 0.235294 0.172549
0.701961 0.262745 0.192157
0.768627 0.294118 0.211765
0.815686 0.32549 0.215686
0.854902 0.368627 0.235294
0.886275 0.407843 0.247059
0.909804 0.454902 0.254902
0.905882 0.486275 0.258824
0.0941176 0.0941176 0.0784314
0.0980392 0.0941176 0.0784314
0.121569 0.0901961 0.0784314
0.160784 0.101961 0.0901961
0.211765 0.133333 0.0980392
0.27451 0.160784 0.0901961
0.345098 0.184314 0.0980392
0.431373 0.203922 0.12549
0.54902 0.231373 0.14902
0.643137 0.266667 0.172549
0.72549 0.286275 0.2
0.772549 0.294118 0.203922
0.827451 0.32549 0.219608
0.866667 0.360784 0.235294
0.901961 0.4 0.247059
0.909804 0.447059 0.258824
0.909804 0.478431 0.258824
0.0941176 0.137255 0.0745098
0.109804 0.133333 0.0745098
0.121569 0.12549 0.0941176
0.160784 0.12549 0.0980392
0.211765 0.141176 0.0980392
0.27451 0.176471 0.0980392
0.341176 0.2 0.0980392
0.447059 0.235294 0.133333
0.545098 0.27451 0.152941
0.647059 0.298039 0.180392
0.72549 0.321569 0.2
0.788235 0.337255 0.215686
0.835294 0.364706 0.219608
0.87451 0.396078 0.243137
0.901961 0.427451 0.25098
0.913725 0.466667 0.262745
0.905882 0.486275 0.262745
0.0980392 0.2 0.0941176
0.0980392 0.188235 0.0980392
0.113725 0.184314 0.0980392
0.156863 0.192157 0.117647
0.2 0.160784 0.113725
0.27451 0.188235 0.101961
0.352941 0.215686 0.101961
0.458824 0.262745 0.133333
0.564706 0.298039 0.160784
0.666667 0.333333 0.188235
0.733333 0.360784 0.203922
0.796078 0.392157 0.215686
0.843137 0.419608 0.235294
0.878431 0.458824 0.247059
0.905882 0.490196 0.254902
0.909804 0.521569 0.258824
0.909804 0.545098 0.258824
0.101961 0.247059 0.113725
0.105882 0.247059 0.117647
0.117647 0.239216 0.117647
0.145098 0.247059 0.117647
0.211765 0.247059 0.133333
0.27451 0.211765 0.121569
0.368627 0.25098 0.117647
0.486275 0.290196 0.145098
0.596078 0.333333 0.168627
0.690196 0.364706 0.2
0.772549 0.4 0.211765
0.819608 0.439216 0.223529
0.854902 0.466667 0.243137
0.890196 0.505882 0.258824
0.909804 0.54902 0.262745
0.909804 0.584314 0.270588
0.909804 0.6 0.270588
0.0941176 0.301961 0.129412
0.0980392 0.305882 0.137255
0.109804 0.301961 0.12549
0.12549 0.317647 0.12549
0.2 0.333333 0.137255
0.290196 0.32549 0.141176
0.364706 0.290196 0.133333
0.486275 0.317647 0.14902
0.619608 0.356863 0.180392
0.713725 0.4 0.207843
0.776471 0.435294 0.211765
0.827451 0.47451 0.231373
0.87451 0.505882 0.254902
0.901961 0.545098 0.266667
0.909804 0.588235 0.266667
0.913725 0.623529 0.27451
0.909804 0.635294 0.266667
0.0745098 0.360784 0.141176
0.0823529 0.372549 0.141176
0.0941176 0.364706 0.141176
0.113725 0.392157 0.133333
0.160784 0.423529 0.137255
0.27451 0.439216 0.156863
0.4 0.423529 0.172549
0.490196 0.360784 0.152941
0.627451 0.392157 0.180392
0.72549 0.431373 0.207843
0.792157 0.470588 0.219608
0.847059 0.501961 0.243137
0.87451 0.541176 0.254902
0.901961 0.576471 0.262745
0.905882 0.615686 0.266667
0.905882 0.647059 0.270588
0.905882 0.654902 0.270588
0.0705882 0.447059 0.164706
0.0745098 0.45098 0.160784
0.0941176 0.462745 0.156863
0.113725 0.478431 0.145098
0.156863 0.505882 0.145098
0.254902 0.533333 0.156863
0.407843 0.552941 0.188235
0.537255 0.509804 0.192157
0.623529 0.447059 0.184314
0.729412 0.47451 0.207843
0.8 0.498039 0.227451
0.85098 0.541176 0.247059
0.882353 0.580392 0.258824
0.905882 0.607843 0.270588
0.905882 0.643137 0.266667
0.909804 0.678431 0.278431
0.909804 0.678431 0.278431
0.0666667 0.537255 0.176471
0.0784314 0.529412 0.168627
0.0941176 0.545098 0.172549
0.113725 0.552941 0.160784
0.164706 0.607843 0.160784
0.266667 0.631373 0.180392
0.407843 0.643137 0.196078
0.556863 0.639216 0.235294
0.666667 0.560784 0.203922
0.741176 0.537255 0.211765
0.807843 0.545098 0.239216
0.85098 0.572549 0.25098
0.890196 0.611765 0.258824
0.905882 0.647059 0.270588
0.909804 0.678431 0.278431
0.917647 0.694118 0.282353
0.913725 0.698039 0.282353
0.0745098 0.615686 0.188235
0.0823529 0.623529 0.184314
0.0980392 0.635294 0.188235
0.117647 0.647059 0.176471
0.160784 0.686275 0.172549
0.27451 0.713725 0.180392
0.411765 0.72549 0.203922
0.576471 0.737255 0.235294
0.682353 0.709804 0.262745
0.756863 0.631373 0.243137
0.807843 0.607843 0.25098
0.858824 0.627451 0.258824
0.898039 0.647059 0.266667
0.913725 0.670588 0.27451
0.917647 0.694118 0.282353
0.921569 0.717647 0.286275
0.921569 0.717647 0.286275
0.0784314 0.701961 0.2
0.0862745 0.705882 0.2
0.101961 0.717647 0.203922
0.129412 0.729412 0.180392
0.180392 0.760784 0.172549
0.286275 0.784314 0.188235
0.427451 0.8 0.211765
0.588235 0.803922 0.235294
0.694118 0.796078 0.27451
0.768627 0.776471 0.290196
0.807843 0.690196 0.25098
0.858824 0.67451 0.266667
0.898039 0.690196 0.27451
0.913725 0.701961 0.278431
0.913725 0.717647 0.282353
0.917647 0.733333 0.286275
0.913725 0.733333 0.286275
0.0901961 0.768627 0.203922
0.0980392 0.780392 0.203922
0.109804 0.788235 0.196078
0.133333 0.8 0.2
0.203922 0.827451 0.192157
0.309804 0.847059 0.2
0.439216 0.85098 0.215686
0.584314 0.854902 0.247059
0.721569 0.854902 0.282353
0.792157 0.847059 0.298039
0.839216 0.811765 0.290196
0.854902 0.733333 0.27451
0.894118 0.72549 0.282353
0.917647 0.733333 0.286275
0.917647 0.741176 0.282353
0.917647 0.760784 0.286275
0.917647 0.760784 0.286275
0.101961 0.847059 0.211765
0.105882 0.847059 0.211765
0.12549 0.858824 0.211765
0.156863 0.870588 0.196078
0.227451 0.882353 0.196078
0.333333 0.898039 0.207843
0.458824 0.898039 0.231373
0.6 0.901961 0.258824
0.705882 0.901961 0.278431
0.796078 0.898039 0.313725
0.847059 0.882353 0.329412
0.87451 0.858824 0.32549
0.898039 0.803922 0.286275
0.917647 0.784314 0.290196
0.917647 0.776471 0.294118
0.913725 0.780392 0.294118
0.913725 0.776471 0.294118
0.113725 0.901961 0.219608
0.113725 0.898039 0.231373
0.133333 0.905882 0.215686
0.168627 0.92549 0.203922
0.25098 0.933333 0.207843
0.333333 0.937255 0.215686
0.47451 0.94902 0.247059
0.596078 0.94902 0.266667
0.705882 0.945098 0.294118
0.784314 0.937255 0.321569
0.843137 0.933333 0.345098
0.886275 0.921569 0.368627
0.909804 0.901961 0.364706
0.929412 0.847059 0.286275
0.929412 0.827451 0.290196
0.92549 0.823529 0.290196
0.921569 0.811765 0.282353
0.121569 0.952941 0.243137
0.137255 0.952941 0.247059
0.164706 0.960784 0.227451
0.196078 0.968627 0.215686
0.278431 0.972549 0.223529
0.376471 0.972549 0.247059
0.505882 0.980392 0.270588
0.611765 0.980392 0.298039
0.705882 0.976471 0.305882
0.780392 0.980392 0.333333
0.835294 0.980392 0.360784
0.882353 0.980392 0.380392
0.921569 0.968627 0.403922
0.94902 0.945098 0.392157
0.933333 0.890196 0.294118
0.929412 0.862745 0.286275
0.92549 0.854902 0.286275
0.152941 0.976471 0.258824
0.160784 0.976471 0.254902
0.184314 0.976471 0.25098
0.219608 0.976471 0.243137
0.309804 0.976471 0.25098
0.4 0.976471 0.270588
0.498039 0.976471 0.290196
0.6 0.980392 0.317647
0.686275 0.976471 0.337255
0.760784 0.980392 0.337255
0.823529 0.980392 0.356863
0.866667 0.980392 0.372549
0.917647 0.972549 0.403922
0.952941 0.968627 0.423529
0.952941 0.960784 0.415686
0.945098 0.921569 0.333333
0.933333 0.898039 0.290196
0.0862745 0.0627451 0.0784314
0.0980392 0.0627451 0.0745098
0.113725 0.0745098 0.0784314
0.160784 0.0980392 0.0980392
0.207843 0.113725 0.0941176
0.278431 0.137255 0.0901961
0.345098 0.160784 0.0980392
0.427451 0.180392 0.121569
0.513725 0.203922 0.145098
0.615686 0.235294 0.172549
0.701961 0.27451 0.192157
0.760784 0.305882 0.207843
0.803922 0.337255 0.219608
0.85098 0.376471 0.231373
0.890196 0.415686 0.247059
0.909804 0.462745 0.258824
0.905882 0.486275 0.258824
0.0862745 0.0627451 0.0705882
0.0941176 0.0705882 0.0784314
0.121569 0.0745098 0.0823529
0.160784 0.0980392 0.0980392
0.207843 0.129412 0.0980392
0.266667 0.152941 0.0980392
0.333333 0.172549 0.0941176
0.423529 0.2 0.121569
0.52549 0.231373 0.14902
0.619608 0.254902 0.172549
0.709804 0.27451 0.196078
0.768627 0.290196 0.207843
0.815686 0.32549 0.215686
0.858824 0.372549 0.239216
0.890196 0.415686 0.247059
0.909804 0.454902 0.254902
0.905882 0.486275 0.258824
0.0980392 0.0980392 0.0980392
0.101961 0.0980392 0.0901961
0.117647 0.0941176 0.0941176
0.152941 0.109804 0.0941176
0.207843 0.133333 0.0941176
0.270588 0.164706 0.0980392
0.329412 0.180392 0.0980392
0.431373 0.203922 0.12549
0.533333 0.227451 0.141176
0.639216 0.262745 0.176471
0.721569 0.290196 0.2
0.772549 0.294118 0.203922
0.823529 0.321569 0.219608
0.866667 0.352941 0.235294
0.894118 0.4 0.243137
0.905882 0.443137 0.254902
0.905882 0.478431 0.258824
0.0941176 0.141176 0.0941176
0.113725 0.137255 0.0980392
0.121569 0.12549 0.0941176
0.152941 0.12549 0.0941176
0.211765 0.141176 0.101961
0.27451 0.176471 0.0980392
0.34902 0.203922 0.0980392
0.45098 0.239216 0.129412
0.541176 0.270588 0.152941
0.65098 0.301961 0.184314
0.729412 0.317647 0.2
0.788235 0.341176 0.207843
0.827451 0.356863 0.219608
0.870588 0.392157 0.239216
0.901961 0.427451 0.25098
0.909804 0.458824 0.258824
0.909804 0.478431 0.258824
0.101961 0.2 0.117647
0.105882 0.196078 0.105882
0.113725 0.188235 0.109804
0.156863 0.192157 0.117647
0.207843 0.172549 0.113725
0.278431 0.192157 0.109804
0.356863 0.219608 0.101961
0.458824 0.266667 0.137255
0.560784 0.301961 0.164706
0.670588 0.345098 0.188235
0.741176 0.364706 0.2
0.796078 0.403922 0.211765
0.839216 0.423529 0.231373
0.882353 0.45098 0.243137
0.905882 0.478431 0.258824
0.909804 0.505882 0.258824
0.909804 0.537255 0.262745
0.0901961 0.25098 0.129412
0.101961 0.254902 0.121569
0.109804 0.247059 0.121569
0.133333 0.247059 0.12549
0.2 0.25098 0.133333
0.270588 0.203922 0.12549
0.360784 0.247059 0.113725
0.470588 0.294118 0.141176
0.596078 0.333333 0.168627
0.686275 0.368627 0.192157
0.764706 0.403922 0.211765
0.807843 0.435294 0.223529
0.847059 0.470588 0.235294
0.890196 0.505882 0.258824
0.909804 0.541176 0.266667
0.909804 0.588235 0.266667
0.905882 0.596078 0.266667
0.0823529 0.298039 0.141176
0.0980392 0.301961 0.145098
0.105882 0.305882 0.137255
0.12549 0.309804 0.133333
0.184314 0.32549 0.133333
0.290196 0.313725 0.141176
0.372549 0.290196 0.12549
0.494118 0.32549 0.14902
0.619608 0.356863 0.180392
0.713725 0.4 0.207843
0.788235 0.439216 0.211765
0.827451 0.47451 0.231373
0.870588 0.509804 0.254902
0.901961 0.545098 0.266667
0.905882 0.588235 0.266667
0.909804 0.619608 0.270588
0.909804 0.635294 0.266667
0.0705882 0.360784 0.156863
0.0784314 0.368627 0.141176
0.0941176 0.372549 0.145098
0.109804 0.388235 0.141176
0.164706 0.423529 0.141176
0.278431 0.443137 0.160784
0.392157 0.407843 0.168627
0.486275 0.364706 0.152941
0.627451 0.392157 0.180392
0.721569 0.439216 0.207843
0.792157 0.47451 0.219608
0.839216 0.505882 0.243137
0.87451 0.545098 0.258824
0.905882 0.588235 0.266667
0.913725 0.623529 0.27451
0.905882 0.647059 0.270588
0.905882 0.662745 0.27451
0.0666667 0.447059 0.168627
0.0745098 0.45098 0.164706
0.0941176 0.462745 0.164706
0.109804 0.47451 0.156863
0.156863 0.505882 0.145098
0.258824 0.533333 0.156863
0.407843 0.552941 0.188235
0.537255 0.509804 0.192157
0.627451 0.45098 0.188235
0.733333 0.478431 0.211765
0.8 0.509804 0.231373
0.85098 0.545098 0.25098
0.878431 0.576471 0.254902
0.913725 0.623529 0.27451
0.905882 0.647059 0.270588
0.909804 0.682353 0.282353
0.913725 0.682353 0.278431
0.0666667 0.533333 0.180392
0.0784314 0.545098 0.184314
0.0941176 0.545098 0.176471
0.109804 0.564706 0.176471
0.160784 0.607843 0.164706
0.254902 0.619608 0.168627
0.396078 0.65098 0.196078
0.552941 0.643137 0.227451
0.658824 0.588235 0.203922
0.733333 0.533333 0.215686
0.803922 0.54902 0.235294
0.847059 0.580392 0.254902
0.890196 0.619608 0.262745
0.905882 0.647059 0.270588
0.909804 0.678431 0.278431
0.909804 0.698039 0.282353
0.913725 0.701961 0.282353
0.0705882 0.619608 0.192157
0.0784314 0.631373 0.192157
0.0980392 0.635294 0.188235
0.109804 0.65098 0.176471
0.160784 0.686275 0.172549
0.27451 0.709804 0.180392
0.411765 0.72549 0.203922
0.552941 0.729412 0.223529
0.678431 0.713725 0.262745
0.756863 0.643137 0.243137
0.815686 0.615686 0.254902
0.858824 0.627451 0.258824
0.898039 0.65098 0.270588
0.913725 0.682353 0.282353
0.913725 0.701961 0.278431
0.917647 0.721569 0.286275
0.917647 0.721569 0.286275
0.0745098 0.705882 0.2
0.0862745 0.709804 0.203922
0.101961 0.717647 0.196078
0.121569 0.729412 0.188235
0.172549 0.760784 0.176471
0.278431 0.776471 0.184314
0.419608 0.796078 0.207843
0.560784 0.803922 0.231373
0.694118 0.796078 0.27451
0.768627 0.776471 0.294118
0.811765 0.705882 0.254902
0.85098 0.682353 0.262745
0.898039 0.690196 0.27451
0.917647 0.705882 0.282353
0.921569 0.72549 0.286275
0.913725 0.737255 0.286275
0.913725 0.737255 0.282353
0.0901961 0.780392 0.203922
0.0941176 0.788235 0.2
0.109804 0.792157 0.2
0.137255 0.8 0.2
0.192157 0.819608 0.192157
0.294118 0.847059 0.203922
0.415686 0.847059 0.215686
0.576471 0.854902 0.239216
0.698039 0.854902 0.278431
0.776471 0.85098 0.294118
0.823529 0.831373 0.305882
0.854902 0.760784 0.27451
0.894118 0.733333 0.286275
0.917647 0.741176 0.282353
0.913725 0.74902 0.286275
0.917647 0.756863 0.294118
0.917647 0.760784 0.290196
0.105882 0.843137 0.215686
0.101961 0.85098 0.219608
0.129412 0.862745 0.215686
0.14902 0.866667 0.2
0.203922 0.878431 0.196078
0.313725 0.890196 0.207843
0.454902 0.898039 0.231373
0.580392 0.901961 0.262745
0.701961 0.901961 0.278431
0.792157 0.894118 0.309804
0.839216 0.882353 0.337255
0.87451 0.870588 0.32549
0.894118 0.807843 0.278431
0.917647 0.784314 0.290196
0.913725 0.780392 0.294118
0.917647 0.780392 0.294118
0.917647 0.776471 0.294118
0.113725 0.898039 0.231373
0.113725 0.901961 0.231373
0.133333 0.905882 0.223529
0.172549 0.92549 0.215686
0.243137 0.929412 0.211765
0.333333 0.933333 0.223529
0.454902 0.945098 0.247059
0.588235 0.94902 0.266667
0.698039 0.94902 0.290196
0.772549 0.933333 0.313725
0.839216 0.933333 0.345098
0.87451 0.921569 0.364706
0.901961 0.905882 0.372549
0.933333 0.85098 0.290196
0.92549 0.827451 0.290196
0.92549 0.823529 0.286275
0.921569 0.819608 0.286275
0.129412 0.94902 0.247059
0.141176 0.960784 0.254902
0.160784 0.960784 0.243137
0.188235 0.964706 0.231373
0.262745 0.964706 0.231373
0.360784 0.972549 0.247059
0.466667 0.980392 0.258824
0.576471 0.980392 0.286275
0.690196 0.980392 0.309804
0.756863 0.976471 0.32549
0.815686 0.980392 0.352941
0.87451 0.976471 0.376471
0.909804 0.964706 0.4
0.94902 0.952941 0.411765
0.933333 0.890196 0.286275
0.933333 0.870588 0.294118
0.92549 0.854902 0.290196
0.145098 0.976471 0.266667
0.160784 0.976471 0.254902
0.184314 0.976471 0.254902
0.215686 0.976471 0.247059
0.294118 0.976471 0.25098
0.380392 0.976471 0.266667
0.490196 0.980392 0.286275
0.596078 0.980392 0.317647
0.678431 0.980392 0.333333
0.752941 0.976471 0.341176
0.815686 0.980392 0.352941
0.862745 0.976471 0.372549
0.905882 0.972549 0.4
0.952941 0.968627 0.423529
0.952941 0.960784 0.411765
0.94902 0.933333 0.341176
0.937255 0.901961 0.290196
0.0901961 0.0941176 0.109804
0.0980392 0.0901961 0.101961
0.113725 0.0784314 0.0980392
0.133333 0.0941176 0.101961
0.184314 0.121569 0.121569
0.243137 0.145098 0.129412
0.309804 0.172549 0.117647
0.4 0.196078 0.113725
0.505882 0.219608 0.145098
0.607843 0.25098 0.168627
0.694118 0.282353 0.196078
0.756863 0.301961 0.203922
0.807843 0.333333 0.219608
0.854902 0.376471 0.231373
0.882353 0.415686 0.247059
0.913725 0.458824 0.258824
0.905882 0.486275 0.258824
0.0941176 0.0941176 0.101961
0.0980392 0.0941176 0.113725
0.117647 0.0823529 0.0941176
0.141176 0.0980392 0.113725
0.196078 0.12549 0.12549
0.258824 0.145098 0.121569
0.341176 0.160784 0.0980392
0.435294 0.188235 0.121569
0.52549 0.207843 0.141176
0.623529 0.243137 0.168627
0.709804 0.282353 0.192157
0.772549 0.309804 0.207843
0.815686 0.341176 0.219608
0.858824 0.380392 0.235294
0.894118 0.419608 0.25098
0.909804 0.462745 0.258824
0.905882 0.486275 0.258824
0.0941176 0.0941176 0.101961
0.0941176 0.0901961 0.101961
0.117647 0.0941176 0.105882
0.145098 0.113725 0.105882
0.203922 0.133333 0.117647
0.270588 0.168627 0.109804
0.333333 0.192157 0.0980392
0.435294 0.215686 0.12549
0.541176 0.25098 0.152941
0.643137 0.27451 0.176471
0.717647 0.294118 0.192157
0.772549 0.301961 0.207843
0.827451 0.321569 0.219608
0.866667 0.360784 0.239216
0.901961 0.407843 0.25098
0.909804 0.447059 0.258824
0.905882 0.47451 0.258824
0.0862745 0.145098 0.117647
0.0980392 0.152941 0.117647
0.121569 0.129412 0.117647
0.141176 0.12549 0.113725
0.2 0.145098 0.12549
0.270588 0.180392 0.12549
0.341176 0.2 0.105882
0.443137 0.231373 0.129412
0.545098 0.266667 0.152941
0.65098 0.294118 0.180392
0.72549 0.313725 0.2
0.792157 0.329412 0.211765
0.827451 0.345098 0.215686
0.866667 0.388235 0.243137
0.898039 0.423529 0.247059
0.909804 0.447059 0.254902
0.909804 0.470588 0.254902
0.0784314 0.196078 0.137255
0.101961 0.196078 0.133333
0.117647 0.192157 0.121569
0.141176 0.188235 0.133333
0.2 0.168627 0.12549
0.27451 0.192157 0.12549
0.356863 0.223529 0.113725
0.462745 0.270588 0.141176
0.568627 0.313725 0.164706
0.662745 0.341176 0.184314
0.733333 0.368627 0.2
0.796078 0.403922 0.211765
0.839216 0.415686 0.231373
0.870588 0.439216 0.247059
0.898039 0.470588 0.25098
0.909804 0.501961 0.262745
0.909804 0.52549 0.262745
0.0745098 0.254902 0.14902
0.0862745 0.254902 0.137255
0.113725 0.25098 0.133333
0.129412 0.25098 0.129412
0.196078 0.254902 0.14902
0.278431 0.219608 0.129412
0.360784 0.247059 0.121569
0.470588 0.294118 0.141176
0.588235 0.333333 0.168627
0.682353 0.376471 0.188235
0.752941 0.407843 0.211765
0.807843 0.443137 0.219608
0.847059 0.470588 0.235294
0.886275 0.501961 0.254902
0.905882 0.537255 0.262745
0.913725 0.560784 0.262745
0.909804 0.584314 0.262745
0.0666667 0.301961 0.164706
0.0745098 0.309804 0.156863
0.0941176 0.305882 0.14902
0.121569 0.309804 0.145098
0.172549 0.321569 0.137255
0.27451 0.333333 0.152941
0.360784 0.290196 0.133333
0.486275 0.317647 0.14902
0.603922 0.360784 0.176471
0.705882 0.407843 0.196078
0.772549 0.443137 0.215686
0.827451 0.482353 0.235294
0.858824 0.509804 0.25098
0.894118 0.541176 0.262745
0.909804 0.584314 0.270588
0.909804 0.611765 0.266667
0.909804 0.635294 0.266667
0.0627451 0.360784 0.176471
0.0745098 0.364706 0.164706
0.0901961 0.384314 0.156863
0.109804 0.388235 0.145098
0.14902 0.423529 0.137255
0.262745 0.431373 0.160784
0.392157 0.407843 0.168627
0.490196 0.368627 0.156863
0.635294 0.4 0.188235
0.72549 0.443137 0.211765
0.788235 0.478431 0.219608
0.843137 0.517647 0.243137
0.870588 0.54902 0.258824
0.901961 0.596078 0.270588
0.909804 0.619608 0.270588
0.909804 0.65098 0.27451
0.909804 0.662745 0.27451
0.0588235 0.447059 0.184314
0.0588235 0.45098 0.176471
0.0823529 0.458824 0.168627
0.109804 0.470588 0.168627
0.152941 0.505882 0.160784
0.254902 0.533333 0.164706
0.396078 0.552941 0.192157
0.52549 0.501961 0.196078
0.627451 0.458824 0.188235
0.733333 0.486275 0.215686
0.792157 0.517647 0.235294
0.835294 0.54902 0.247059
0.882353 0.592157 0.258824
0.905882 0.627451 0.266667
0.909804 0.658824 0.27451
0.913725 0.682353 0.282353
0.913725 0.682353 0.278431
0.0588235 0.537255 0.196078
0.0627451 0.537255 0.188235
0.0862745 0.54902 0.184314
0.105882 0.568627 0.176471
0.145098 0.588235 0.164706
0.25098 0.623529 0.172549
0.380392 0.643137 0.192157
0.545098 0.654902 0.227451
0.643137 0.603922 0.219608
0.729412 0.541176 0.219608
0.8 0.560784 0.235294
0.85098 0.592157 0.254902
0.878431 0.623529 0.262745
0.905882 0.654902 0.270588
0.913725 0.682353 0.282353
0.917647 0.705882 0.282353
0.913725 0.705882 0.278431
0.0745098 0.631373 0.207843
0.0745098 0.631373 0.2
0.0901961 0.643137 0.2
0.113725 0.662745 0.184314
0.152941 0.682353 0.176471
0.254902 0.713725 0.180392
0.368627 0.721569 0.203922
0.537255 0.729412 0.223529
0.666667 0.72549 0.266667
0.741176 0.670588 0.231373
0.8 0.619608 0.243137
0.85098 0.635294 0.254902
0.886275 0.658824 0.266667
0.909804 0.686275 0.282353
0.913725 0.709804 0.278431
0.921569 0.72549 0.290196
0.921569 0.72549 0.286275
0.0784314 0.705882 0.211765
0.0823529 0.713725 0.207843
0.0980392 0.72549 0.207843
0.121569 0.733333 0.2
0.168627 0.752941 0.180392
0.270588 0.772549 0.188235
0.407843 0.792157 0.215686
0.556863 0.803922 0.239216
0.686275 0.796078 0.266667
0.756863 0.780392 0.294118
0.807843 0.721569 0.254902
0.858824 0.686275 0.266667
0.898039 0.698039 0.278431
0.917647 0.713725 0.282353
0.913725 0.72549 0.290196
0.913725 0.741176 0.282353
0.913725 0.745098 0.282353
0.0901961 0.780392 0.219608
0.0901961 0.788235 0.215686
0.101961 0.796078 0.207843
0.137255 0.807843 0.2
0.176471 0.819608 0.196078
0.278431 0.835294 0.2
0.4 0.85098 0.211765
0.552941 0.854902 0.243137
0.682353 0.854902 0.270588
0.768627 0.85098 0.298039
0.823529 0.831373 0.301961
0.85098 0.776471 0.270588
0.890196 0.745098 0.286275
0.913725 0.74902 0.286275
0.913725 0.74902 0.286275
0.917647 0.764706 0.290196
0.917647 0.764706 0.290196
0.101961 0.85098 0.235294
0.105882 0.854902 0.227451
0.117647 0.858824 0.223529
0.145098 0.87451 0.211765
0.2 0.882353 0.203922
0.294118 0.886275 0.207843
0.415686 0.901961 0.223529
0.556863 0.905882 0.254902
0.678431 0.905882 0.270588
0.772549 0.898039 0.305882
0.831373 0.886275 0.329412
0.862745 0.878431 0.34902
0.882353 0.831373 0.278431
0.921569 0.788235 0.294118
0.913725 0.792157 0.294118
0.921569 0.788235 0.294118
0.921569 0.788235 0.294118
0.113725 0.898039 0.25098
0.113725 0.901961 0.25098
0.133333 0.921569 0.239216
0.168627 0.92549 0.215686
0.219608 0.921569 0.211765
0.309804 0.929412 0.219608
0.435294 0.941176 0.243137
0.568627 0.941176 0.266667
0.678431 0.941176 0.294118
0.760784 0.945098 0.313725
0.831373 0.937255 0.341176
0.87451 0.92549 0.368627
0.898039 0.905882 0.376471
0.929412 0.858824 0.294118
0.921569 0.831373 0.290196
0.929412 0.827451 0.290196
0.921569 0.819608 0.286275
0.129412 0.956863 0.278431
0.12549 0.952941 0.262745
0.160784 0.960784 0.243137
0.188235 0.964706 0.239216
0.25098 0.968627 0.235294
0.341176 0.968627 0.247059
0.454902 0.980392 0.266667
0.568627 0.976471 0.290196
0.670588 0.980392 0.309804
0.74902 0.980392 0.329412
0.815686 0.980392 0.352941
0.858824 0.980392 0.372549
0.898039 0.968627 0.396078
0.94902 0.956863 0.423529
0.933333 0.890196 0.290196
0.933333 0.870588 0.294118
0.92549 0.854902 0.290196
0.137255 0.976471 0.286275
0.145098 0.976471 0.278431
0.184314 0.976471 0.262745
0.215686 0.976471 0.262745
0.290196 0.976471 0.258824
0.356863 0.976471 0.266667
0.478431 0.980392 0.290196
0.572549 0.976471 0.313725
0.670588 0.980392 0.341176
0.733333 0.980392 0.345098
0.8 0.980392 0.352941
0.858824 0.980392 0.372549
0.898039 0.976471 0.396078
0.952941 0.968627 0.423529
0.952941 0.960784 0.415686
0.94902 0.933333 0.341176
0.937255 0.901961 0.290196
0.0823529 0.12549 0.141176
0.0941176 0.12549 0.137255
0.105882 0.117647 0.137255
0.12549 0.113725 0.12549
0.168627 0.121569 0.129412
0.207843 0.14902 0.14902
0.278431 0.180392 0.164706
0.356863 0.207843 0.156863
0.47451 0.254902 0.164706
0.584314 0.290196 0.164706
0.690196 0.305882 0.192157
0.764706 0.317647 0.211765
0.811765 0.34902 0.211765
0.85098 0.380392 0.235294
0.894118 0.419608 0.25098
0.909804 0.462745 0.258824
0.905882 0.486275 0.258824
0.0823529 0.12549 0.141176
0.0901961 0.12549 0.145098
0.105882 0.117647 0.137255
0.12549 0.117647 0.129412
0.164706 0.12549 0.129412
0.219608 0.156863 0.156863
0.294118 0.184314 0.168627
0.368627 0.203922 0.156863
0.482353 0.258824 0.152941
0.603922 0.286275 0.168627
0.694118 0.313725 0.188235
0.768627 0.32549 0.207843
0.811765 0.345098 0.219608
