assets/luts/cinematic/CineMagic 2.cube
#Generated by Picture Instruments - Unlimited Filters
TITLE "CineMajic 2"
LUT_3D_SIZE 9
0.0352941 0.0117647 0.027451
0.0901961 0.00784314 0.027451
0.2 0.00784314 0.0156863
0.329412 0.0117647 0.00784314
0.478431 0.00784314 0.0117647
0.666667 0.00784314 0.00784314
0.854902 0.00784314 0.0117647
0.976471 0.027451 0.0117647
0.976471 0.027451 0.0117647
0.027451 0.0470588 0.0235294
0.0941176 0.0235294 0.0156863
0.211765 0.0431373 0.0117647
0.337255 0.0627451 0.00392157
0.486275 0.0705882 0.00784314
0.67451 0.0823529 0.00784314
0.854902 0.0901961 0.00392157
0.968627 0.105882 0.00392157
0.968627 0.105882 0.00392157
0.027451 0.262745 0.0313725
0.0470588 0.235294 0.0235294
0.156863 0.145098 0.00784314
0.278431 0.152941 0.00392157
0.439216 0.196078 0.00392157
0.654902 0.2 0.00784314
0.862745 0.211765 0.00784314
0.964706 0.215686 0.00392157
0.972549 0.211765 0.00392157
0.0313725 0.454902 0.0588235
0.0392157 0.45098 0.054902
0.0862745 0.380392 0.0235294
0.223529 0.286275 0.00784314
0.372549 0.301961 0.0117647
0.576471 0.317647 0.00392157
0.807843 0.329412 0.00392157
0.960784 0.337255 0.00784314
0.964706 0.337255 0.00392157
0.0431373 0.596078 0.0941176
0.0627451 0.6 0.0823529
0.0705882 0.576471 0.0705882
0.180392 0.490196 0.0235294
0.372549 0.45098 0.00784314
0.572549 0.447059 0.0117647
0.780392 0.462745 0.00392157
0.952941 0.462745 0.00784314
0.976471 0.462745 0.00784314
0.0745098 0.713725 0.105882
0.0941176 0.721569 0.0980392
0.129412 0.709804 0.0901961
0.239216 0.654902 0.0470588
0.419608 0.611765 0.0156863
0.619608 0.596078 0.00784314
0.815686 0.596078 0.0117647
0.956863 0.603922 0.00784314
0.976471 0.592157 0.00784314
0.0980392 0.843137 0.121569
0.117647 0.839216 0.109804
0.164706 0.843137 0.105882
0.266667 0.8 0.0705882
0.470588 0.768627 0.0392157
0.658824 0.764706 0.0235294
0.843137 0.752941 0.00784314
0.960784 0.752941 0.00784314
0.976471 0.752941 0.00392157
0.121569 0.952941 0.141176
0.133333 0.94902 0.12549
0.180392 0.952941 0.113725
0.294118 0.933333 0.0784314
0.466667 0.917647 0.0431373
0.670588 0.909804 0.027451
0.847059 0.894118 0.0156863
0.960784 0.894118 0.00392157
0.976471 0.890196 0.00784314
0.117647 0.972549 0.137255
0.137255 0.972549 0.133333
0.188235 0.972549 0.121569
0.301961 0.972549 0.0862745
0.478431 0.972549 0.0431373
0.678431 0.968627 0.027451
0.847059 0.960784 0.0196078
0.960784 0.952941 0.00784314
0.980392 0.956863 0.0117647
0.027451 0.0431373 0.054902
0.054902 0.00784314 0.054902
0.176471 0.00784314 0.0823529
0.313725 0.0117647 0.0901961
0.47451 0.00784314 0.0862745
0.670588 0.00784314 0.0901961
0.854902 0.00784314 0.0941176
0.976471 0.00784314 0.0901961
0.976471 0.00784314 0.0901961
0.027451 0.0470588 0.0313725
0.054902 0.0470588 0.0509804
0.156863 0.0588235 0.0784314
0.294118 0.0745098 0.0784314
0.458824 0.0705882 0.0901961
0.658824 0.0705882 0.0745098
0.854902 0.0745098 0.0862745
0.972549 0.0745098 0.0862745
0.976471 0.0784314 0.0901961
0.0235294 0.239216 0.0745098
0.0313725 0.254902 0.0941176
0.14902 0.188235 0.0509804
0.298039 0.196078 0.0784314
0.470588 0.2 0.0784314
0.666667 0.196078 0.0901961
0.858824 0.2 0.0862745
0.968627 0.203922 0.0941176
0.972549 0.207843 0.0901961
0.027451 0.454902 0.0901961
0.027451 0.458824 0.109804
0.0666667 0.439216 0.109804
0.223529 0.32549 0.0588235
0.392157 0.321569 0.0627451
0.635294 0.329412 0.0745098
0.839216 0.337255 0.0823529
0.972549 0.337255 0.0862745
0.972549 0.337255 0.0862745
0.0431373 0.6 0.121569
0.0392157 0.596078 0.113725
0.0627451 0.588235 0.12549
0.156863 0.545098 0.0901961
0.360784 0.458824 0.0588235
0.576471 0.447059 0.0666667
0.803922 0.458824 0.0745098
0.972549 0.466667 0.101961
0.972549 0.466667 0.101961
0.0823529 0.72549 0.145098
0.0784314 0.717647 0.156863
0.109804 0.721569 0.14902
0.203922 0.686275 0.129412
0.380392 0.627451 0.0784314
0.584314 0.6 0.0627451
0.784314 0.592157 0.0784314
0.956863 0.619608 0.0901961
0.972549 0.6 0.0941176
0.105882 0.843137 0.164706
0.105882 0.843137 0.168627
0.141176 0.835294 0.172549
0.247059 0.835294 0.168627
0.407843 0.796078 0.133333
0.619608 0.760784 0.0862745
0.819608 0.756863 0.0784314
0.952941 0.756863 0.0901961
0.980392 0.756863 0.109804
0.121569 0.952941 0.184314
0.117647 0.94902 0.180392
0.160784 0.945098 0.188235
0.262745 0.94902 0.188235
0.423529 0.92549 0.133333
0.639216 0.909804 0.113725
0.831373 0.901961 0.0941176
0.956863 0.894118 0.0941176
0.976471 0.894118 0.105882
0.121569 0.972549 0.188235
0.121569 0.972549 0.184314
0.164706 0.972549 0.196078
0.266667 0.972549 0.188235
0.427451 0.968627 0.145098
0.623529 0.972549 0.117647
0.827451 0.964706 0.109804
0.960784 0.956863 0.105882
0.976471 0.956863 0.109804
0.0313725 0.0901961 0.258824
0.0352941 0.0627451 0.266667
0.113725 0.0117647 0.184314
0.235294 0.0156863 0.207843
0.415686 0.0196078 0.247059
0.643137 0.0235294 0.25098
0.847059 0.0156863 0.247059
0.972549 0.0117647 0.235294
0.968627 0.0117647 0.243137
0.0313725 0.117647 0.2
0.0352941 0.12549 0.247059
0.101961 0.0784314 0.223529
0.258824 0.0941176 0.235294
0.427451 0.0980392 0.243137
0.643137 0.0980392 0.231373
0.847059 0.101961 0.239216
0.968627 0.0901961 0.231373
0.968627 0.0901961 0.223529
0.0313725 0.176471 0.105882
0.0313725 0.211765 0.160784
0.0941176 0.247059 0.243137
0.25098 0.235294 0.239216
0.431373 0.207843 0.231373
0.643137 0.203922 0.215686
0.85098 0.2 0.196078
0.976471 0.2 0.203922
0.976471 0.196078 0.2
0.027451 0.396078 0.152941
0.0235294 0.431373 0.192157
0.054902 0.443137 0.258824
0.223529 0.376471 0.207843
0.439216 0.333333 0.219608
0.670588 0.32549 0.207843
0.862745 0.32549 0.2
0.980392 0.32549 0.196078
0.980392 0.321569 0.192157
0.0313725 0.580392 0.192157
0.0431373 0.6 0.215686
0.0470588 0.592157 0.227451
0.145098 0.576471 0.235294
0.341176 0.486275 0.184314
0.576471 0.45098 0.188235
0.815686 0.466667 0.207843
0.972549 0.462745 0.219608
0.976471 0.466667 0.227451
0.0823529 0.713725 0.207843
0.0823529 0.721569 0.223529
0.0941176 0.717647 0.223529
0.172549 0.713725 0.25098
0.341176 0.654902 0.203922
0.54902 0.6 0.188235
0.792157 0.603922 0.211765
0.960784 0.611765 0.211765
0.972549 0.615686 0.235294
0.105882 0.843137 0.231373
0.105882 0.839216 0.239216
0.121569 0.839216 0.25098
0.203922 0.839216 0.270588
0.352941 0.811765 0.25098
0.576471 0.768627 0.215686
0.788235 0.752941 0.219608
0.945098 0.752941 0.25098
0.980392 0.752941 0.258824
0.121569 0.952941 0.247059
0.121569 0.94902 0.254902
0.141176 0.94902 0.270588
0.227451 0.952941 0.290196
0.384314 0.941176 0.278431
0.576471 0.92549 0.258824
0.803922 0.905882 0.235294
0.952941 0.901961 0.25098
0.972549 0.898039 0.278431
0.12549 0.972549 0.247059
0.121569 0.972549 0.258824
0.141176 0.972549 0.270588
0.227451 0.972549 0.290196
0.388235 0.972549 0.290196
0.576471 0.972549 0.266667
0.796078 0.964706 0.25098
0.94902 0.960784 0.258824
0.972549 0.956863 0.278431
0.027451 0.133333 0.403922
0.0352941 0.109804 0.411765
0.054902 0.0666667 0.384314
0.172549 0.027451 0.329412
0.301961 0.0313725 0.34902
0.513725 0.0392157 0.388235
0.756863 0.0509804 0.407843
0.94902 0.0588235 0.411765
0.956863 0.0588235 0.411765
0.0235294 0.180392 0.384314
0.0235294 0.176471 0.407843
0.0470588 0.156863 0.411765
0.172549 0.0901961 0.341176
0.341176 0.101961 0.364706
0.576471 0.12549 0.388235
0.811765 0.137255 0.396078
0.960784 0.141176 0.4
0.960784 0.137255 0.384314
0.0235294 0.227451 0.282353
0.027451 0.262745 0.372549
0.054902 0.286275 0.403922
0.180392 0.243137 0.384314
0.396078 0.239216 0.376471
0.623529 0.231373 0.372549
0.831373 0.239216 0.368627
0.968627 0.243137 0.376471
0.968627 0.239216 0.372549
0.0235294 0.321569 0.180392
0.0313725 0.345098 0.247059
0.054902 0.4 0.337255
0.235294 0.423529 0.407843
0.427451 0.372549 0.384314
0.647059 0.337255 0.34902
0.847059 0.333333 0.337255
0.976471 0.333333 0.329412
0.976471 0.333333 0.337255
0.027451 0.501961 0.231373
0.0235294 0.54902 0.270588
0.0431373 0.576471 0.317647
0.168627 0.572549 0.364706
0.396078 0.52549 0.356863
0.654902 0.466667 0.34902
0.87451 0.45098 0.337255
0.980392 0.454902 0.333333
0.980392 0.454902 0.333333
0.0666667 0.666667 0.258824
0.0784314 0.686275 0.278431
0.101961 0.717647 0.313725
0.152941 0.717647 0.337255
0.329412 0.701961 0.34902
0.552941 0.619608 0.305882
0.792157 0.603922 0.32549
0.968627 0.607843 0.352941
0.976471 0.607843 0.364706
0.0980392 0.803922 0.27451
0.105882 0.835294 0.305882
0.121569 0.843137 0.329412
0.176471 0.839216 0.34902
0.329412 0.839216 0.364706
0.529412 0.796078 0.329412
0.768627 0.756863 0.337255
0.956863 0.760784 0.372549
0.976471 0.756863 0.392157
0.12549 0.933333 0.294118
0.12549 0.94902 0.317647
0.14902 0.952941 0.337255
0.203922 0.94902 0.360784
0.34902 0.952941 0.384314
0.529412 0.933333 0.372549
0.776471 0.909804 0.368627
0.941176 0.901961 0.388235
0.972549 0.898039 0.403922
0.12549 0.972549 0.301961
0.12549 0.972549 0.317647
0.152941 0.972549 0.341176
0.2 0.972549 0.352941
0.345098 0.968627 0.388235
0.537255 0.976471 0.388235
0.760784 0.964706 0.380392
0.94902 0.956863 0.4
0.976471 0.960784 0.411765
0.0313725 0.172549 0.541176
0.0352941 0.14902 0.541176
0.0470588 0.113725 0.521569
0.12549 0.0666667 0.478431
0.270588 0.0392157 0.454902
0.435294 0.0470588 0.482353
0.698039 0.0627451 0.533333
0.917647 0.0705882 0.552941
0.929412 0.0745098 0.552941
0.0313725 0.219608 0.517647
0.027451 0.211765 0.52549
0.0352941 0.196078 0.541176
0.113725 0.152941 0.501961
0.254902 0.113725 0.466667
0.462745 0.12549 0.482353
0.733333 0.14902 0.517647
0.929412 0.164706 0.541176
0.941176 0.164706 0.537255
0.027451 0.290196 0.458824
0.0235294 0.298039 0.501961
0.0313725 0.290196 0.517647
0.105882 0.286275 0.52549
0.27451 0.223529 0.466667
0.513725 0.231373 0.478431
0.784314 0.254902 0.513725
0.952941 0.270588 0.505882
0.956863 0.27451 0.505882
0.027451 0.345098 0.34902
0.027451 0.376471 0.423529
0.0352941 0.392157 0.498039
0.113725 0.415686 0.52549
0.317647 0.384314 0.501961
0.611765 0.364706 0.470588
0.823529 0.364706 0.478431
0.972549 0.372549 0.482353
0.972549 0.372549 0.490196
0.027451 0.47451 0.333333
0.0235294 0.486275 0.352941
0.0235294 0.501961 0.396078
0.141176 0.541176 0.454902
0.498039 0.545098 0.505882
0.662745 0.490196 0.478431
0.85098 0.466667 0.454902
0.972549 0.462745 0.454902
0.976471 0.466667 0.454902
0.0509804 0.627451 0.34902
0.054902 0.631373 0.364706
0.0745098 0.662745 0.384314
0.160784 0.686275 0.415686
0.337255 0.709804 0.458824
0.576471 0.643137 0.439216
0.85098 0.607843 0.454902
0.976471 0.607843 0.458824
0.976471 0.603922 0.458824
0.0901961 0.780392 0.356863
0.0980392 0.792157 0.384314
0.121569 0.815686 0.407843
0.188235 0.835294 0.435294
0.305882 0.839216 0.454902
0.501961 0.819608 0.458824
0.756863 0.764706 0.439216
0.952941 0.760784 0.47451
0.976471 0.760784 0.494118
0.113725 0.917647 0.380392
0.121569 0.933333 0.403922
0.141176 0.941176 0.423529
0.215686 0.945098 0.447059
0.317647 0.945098 0.458824
0.509804 0.941176 0.490196
0.760784 0.917647 0.470588
0.945098 0.901961 0.490196
0.972549 0.898039 0.521569
0.12549 0.972549 0.388235
0.121569 0.976471 0.403922
0.14902 0.968627 0.435294
0.215686 0.972549 0.45098
0.321569 0.972549 0.470588
0.505882 0.968627 0.490196
0.752941 0.972549 0.486275
0.94902 0.960784 0.505882
0.976471 0.960784 0.533333
0.0352941 0.203922 0.647059
0.0352941 0.188235 0.654902
0.0431373 0.152941 0.643137
0.109804 0.109804 0.615686
0.235294 0.0745098 0.584314
0.415686 0.0588235 0.603922
0.67451 0.0705882 0.643137
0.898039 0.0823529 0.670588
0.921569 0.0862745 0.690196
0.0313725 0.25098 0.627451
0.0313725 0.239216 0.639216
0.0352941 0.223529 0.647059
0.0980392 0.2 0.631373
0.219608 0.152941 0.592157
0.415686 0.141176 0.596078
0.682353 0.156863 0.639216
0.905882 0.176471 0.67451
0.92549 0.180392 0.666667
0.027451 0.329412 0.603922
0.0352941 0.32549 0.619608
0.0313725 0.317647 0.627451
0.0823529 0.309804 0.631373
0.2 0.27451 0.611765
0.407843 0.239216 0.584314
0.694118 0.262745 0.611765
0.921569 0.290196 0.654902
0.941176 0.301961 0.658824
0.0235294 0.396078 0.513725
0.0235294 0.403922 0.580392
0.0313725 0.403922 0.623529
0.0823529 0.403922 0.623529
0.196078 0.4 0.623529
0.45098 0.352941 0.580392
0.745098 0.368627 0.607843
0.945098 0.392157 0.65098
0.952941 0.4 0.65098
0.0235294 0.494118 0.454902
0.0392157 0.494118 0.482353
0.054902 0.490196 0.52549
0.105882 0.498039 0.6
0.270588 0.521569 0.627451
0.537255 0.494118 0.611765
0.815686 0.501961 0.615686
0.968627 0.501961 0.627451
0.972549 0.505882 0.631373
0.054902 0.627451 0.45098
0.0627451 0.623529 0.458824
0.0627451 0.619608 0.470588
0.129412 0.627451 0.513725
0.329412 0.654902 0.576471
0.733333 0.678431 0.643137
0.87451 0.6 0.592157
0.976471 0.592157 0.580392
0.976471 0.592157 0.580392
0.0980392 0.776471 0.466667
0.101961 0.776471 0.486275
0.109804 0.772549 0.509804
0.188235 0.796078 0.529412
0.32549 0.815686 0.556863
0.584314 0.827451 0.580392
0.819608 0.768627 0.560784
0.980392 0.756863 0.588235
0.972549 0.756863 0.596078
0.121569 0.917647 0.494118
0.121569 0.917647 0.498039
0.141176 0.917647 0.533333
0.211765 0.92549 0.552941
0.352941 0.937255 0.576471
0.537255 0.94902 0.580392
0.768627 0.92549 0.576471
0.94902 0.898039 0.592157
0.972549 0.898039 0.627451
0.121569 0.972549 0.501961
0.12549 0.972549 0.517647
0.152941 0.972549 0.541176
0.227451 0.972549 0.564706
0.352941 0.972549 0.576471
0.537255 0.972549 0.584314
0.752941 0.968627 0.576471
0.952941 0.960784 0.619608
0.972549 0.960784 0.647059
0.027451 0.235294 0.752941
0.0352941 0.219608 0.760784
0.0470588 0.196078 0.756863
0.0980392 0.160784 0.741176
0.192157 0.109804 0.709804
0.388235 0.0901961 0.721569
0.647059 0.0823529 0.760784
0.894118 0.0980392 0.796078
0.909804 0.0980392 0.796078
0.0313725 0.294118 0.745098
0.0313725 0.286275 0.74902
0.0392157 0.266667 0.756863
0.0823529 0.239216 0.752941
0.184314 0.211765 0.729412
0.388235 0.184314 0.717647
0.658824 0.172549 0.74902
0.898039 0.2 0.788235
0.917647 0.2 0.788235
0.0313725 0.364706 0.729412
0.027451 0.352941 0.729412
0.0352941 0.345098 0.74902
0.0705882 0.337255 0.745098
0.172549 0.317647 0.733333
0.380392 0.294118 0.717647
0.682353 0.290196 0.737255
0.909804 0.305882 0.776471
0.929412 0.321569 0.788235
0.0313725 0.423529 0.658824
0.0352941 0.435294 0.72549
0.0352941 0.435294 0.729412
0.0666667 0.423529 0.741176
0.152941 0.419608 0.737255
0.372549 0.403922 0.729412
0.686275 0.388235 0.733333
0.929412 0.419608 0.772549
0.945098 0.435294 0.780392
0.0509804 0.513725 0.623529
0.0313725 0.517647 0.658824
0.0392157 0.517647 0.701961
0.0823529 0.517647 0.737255
0.160784 0.513725 0.74902
0.388235 0.513725 0.737255
0.709804 0.494118 0.721569
0.941176 0.52549 0.768627
0.960784 0.537255 0.772549
0.0980392 0.635294 0.603922
0.0980392 0.627451 0.603922
0.105882 0.623529 0.619608
0.168627 0.627451 0.666667
0.286275 0.631373 0.72549
0.552941 0.627451 0.752941
0.788235 0.611765 0.741176
0.964706 0.631373 0.760784
0.972549 0.631373 0.756863
0.105882 0.780392 0.631373
0.105882 0.776471 0.65098
0.117647 0.780392 0.666667
0.176471 0.776471 0.666667
0.313725 0.768627 0.678431
0.592157 0.776471 0.709804
0.894118 0.8 0.752941
0.976471 0.745098 0.729412
0.976471 0.745098 0.721569
0.117647 0.913725 0.662745
0.117647 0.917647 0.670588
0.141176 0.917647 0.686275
0.211765 0.913725 0.694118
0.372549 0.917647 0.709804
0.596078 0.921569 0.701961
0.811765 0.929412 0.686275
0.960784 0.898039 0.705882
0.976471 0.894118 0.737255
0.121569 0.972549 0.662745
0.12549 0.972549 0.678431
0.152941 0.972549 0.698039
0.239216 0.972549 0.698039
0.4 0.972549 0.717647
0.627451 0.972549 0.713725
0.803922 0.968627 0.686275
0.956863 0.960784 0.72549
0.972549 0.956863 0.764706
0.0313725 0.27451 0.85098
0.0352941 0.25098 0.858824
0.0509804 0.219608 0.862745
0.0862745 0.192157 0.854902
0.168627 0.152941 0.839216
0.364706 0.129412 0.85098
0.592157 0.109804 0.87451
0.882353 0.109804 0.909804
0.901961 0.109804 0.909804
0.0352941 0.32549 0.847059
0.0313725 0.321569 0.85098
0.0392157 0.301961 0.854902
0.0745098 0.278431 0.858824
0.156863 0.247059 0.854902
0.345098 0.219608 0.843137
0.592157 0.219608 0.866667
0.886275 0.215686 0.905882
0.905882 0.219608 0.905882
0.0352941 0.392157 0.843137
0.0352941 0.384314 0.847059
0.0313725 0.380392 0.85098
0.0705882 0.364706 0.854902
0.14902 0.34902 0.847059
0.34902 0.341176 0.85098
0.615686 0.333333 0.858824
0.898039 0.333333 0.898039
0.921569 0.341176 0.901961
0.0313725 0.458824 0.815686
0.0313725 0.454902 0.835294
0.0352941 0.454902 0.839216
0.0588235 0.439216 0.843137
0.133333 0.439216 0.847059
0.356863 0.435294 0.862745
0.619608 0.431373 0.862745
0.921569 0.447059 0.898039
0.937255 0.462745 0.898039
0.027451 0.545098 0.788235
0.0352941 0.541176 0.8
0.0392157 0.537255 0.839216
0.0745098 0.533333 0.843137
0.133333 0.529412 0.843137
0.341176 0.541176 0.858824
0.654902 0.545098 0.87451
0.92549 0.556863 0.901961
0.945098 0.568627 0.894118
0.0941176 0.65098 0.8
0.0901961 0.65098 0.807843
0.0784314 0.647059 0.823529
0.113725 0.647059 0.85098
0.231373 0.643137 0.862745
0.466667 0.631373 0.866667
0.713725 0.647059 0.894118
0.945098 0.647059 0.890196
0.960784 0.666667 0.894118
0.141176 0.784314 0.792157
0.141176 0.780392 0.8
0.156863 0.780392 0.803922
0.211765 0.780392 0.815686
0.364706 0.780392 0.835294
0.584314 0.764706 0.866667
0.792157 0.768627 0.898039
0.968627 0.768627 0.890196
0.972549 0.792157 0.886275
0.12549 0.913725 0.839216
0.12549 0.913725 0.839216
0.145098 0.917647 0.847059
0.247059 0.913725 0.85098
0.423529 0.909804 0.85098
0.65098 0.909804 0.854902
0.85098 0.905882 0.847059
0.980392 0.913725 0.878431
0.972549 0.894118 0.862745
0.117647 0.972549 0.839216
0.12549 0.972549 0.85098
0.14902 0.972549 0.858824
0.254902 0.972549 0.862745
0.462745 0.972549 0.870588
0.698039 0.968627 0.858824
0.87451 0.968627 0.847059
0.964706 0.964706 0.835294
0.976471 0.960784 0.882353
0.027451 0.294118 0.901961
0.0352941 0.266667 0.901961
0.0431373 0.239216 0.909804
0.0862745 0.211765 0.905882
0.14902 0.180392 0.921569
0.345098 0.152941 0.921569
0.576471 0.133333 0.933333
0.866667 0.113725 0.968627
0.894118 0.113725 0.972549
0.0313725 0.337255 0.901961
0.0313725 0.329412 0.901961
0.0352941 0.313725 0.901961
0.0666667 0.294118 0.898039
0.145098 0.270588 0.905882
0.345098 0.254902 0.92549
0.576471 0.243137 0.933333
0.878431 0.227451 0.972549
0.901961 0.223529 0.968627
0.0313725 0.403922 0.898039
0.027451 0.396078 0.890196
0.027451 0.392157 0.898039
0.0588235 0.376471 0.905882
0.137255 0.364706 0.898039
0.345098 0.360784 0.92549
0.588235 0.34902 0.937255
0.898039 0.352941 0.972549
0.913725 0.356863 0.972549
0.027451 0.47451 0.894118
0.0313725 0.470588 0.894118
0.0313725 0.458824 0.894118
0.0509804 0.454902 0.890196
0.121569 0.458824 0.901961
0.333333 0.454902 0.913725
0.584314 0.462745 0.94902
0.905882 0.466667 0.976471
0.929412 0.478431 0.968627
0.027451 0.556863 0.894118
0.0313725 0.552941 0.894118
0.0392157 0.54902 0.894118
0.0666667 0.541176 0.886275
0.121569 0.541176 0.894118
0.333333 0.552941 0.909804
0.592157 0.572549 0.952941
0.921569 0.572549 0.964706
0.941176 0.584314 0.972549
0.0352941 0.666667 0.921569
0.0392157 0.670588 0.92549
0.0431373 0.662745 0.921569
0.0823529 0.662745 0.921569
0.180392 0.65098 0.917647
0.423529 0.639216 0.921569
0.670588 0.666667 0.952941
0.937255 0.670588 0.972549
0.952941 0.686275 0.964706
0.141176 0.796078 0.941176
0.141176 0.788235 0.937255
0.14902 0.788235 0.937255
0.215686 0.788235 0.941176
0.356863 0.780392 0.941176
0.588235 0.776471 0.937255
0.768627 0.776471 0.952941
0.960784 0.796078 0.968627
0.968627 0.811765 0.960784
0.152941 0.917647 0.94902
0.152941 0.913725 0.945098
0.164706 0.913725 0.945098
0.270588 0.909804 0.941176
0.470588 0.909804 0.941176
0.698039 0.905882 0.945098
0.870588 0.905882 0.945098
0.968627 0.905882 0.952941
0.976471 0.92549 0.952941
0.14902 0.972549 0.956863
0.14902 0.972549 0.956863
0.160784 0.972549 0.952941
0.282353 0.968627 0.956863
0.533333 0.968627 0.952941
0.756863 0.968627 0.94902
0.913725 0.960784 0.945098
0.972549 0.964706 0.945098
0.972549 0.964706 0.945098
