assets/luts/cinematic/CineMagic 2.cube
#Generated by Picture Instruments - Unlimited Filters
TITLE "CineMajic 2"
LUT_3D_SIZE 5
0.0352941 0.0117647 0.027451
0.2 0.00784314 0.0156863
0.478431 0.00784314 0.0117647
0.854902 0.00784314 0.0117647
0.976471 0.027451 0.0117647
0.027451 0.262745 0.0313725
0.156863 0.145098 0.00784314
0.439216 0.196078 0.00392157
0.862745 0.211765 0.00784314
0.972549 0.211765 0.00392157
0.0431373 0.596078 0.0941176
0.0705882 0.576471 0.0705882
0.372549 0.45098 0.00784314
0.780392 0.462745 0.00392157
0.976471 0.462745 0.00784314
0.0980392 0.843137 0.121569
0.164706 0.843137 0.105882
0.470588 0.768627 0.0392157
0.843137 0.752941 0.00784314
0.976471 0.752941 0.00392157
0.117647 0.972549 0.137255
0.188235 0.972549 0.121569
0.478431 0.972549 0.0431373
0.847059 0.960784 0.0196078
0.980392 0.956863 0.0117647
0.0313725 0.0901961 0.258824
0.113725 0.0117647 0.184314
0.415686 0.0196078 0.247059
0.847059 0.0156863 0.247059
0.968627 0.0117647 0.243137
0.0313725 0.176471 0.105882
0.0941176 0.247059 0.243137
0.431373 0.207843 0.231373
0.85098 0.2 0.196078
0.976471 0.196078 0.2
0.0313725 0.580392 0.192157
0.0470588 0.592157 0.227451
0.341176 0.486275 0.184314
0.815686 0.466667 0.207843
0.976471 0.466667 0.227451
0.105882 0.843137 0.231373
0.121569 0.839216 0.25098
0.352941 0.811765 0.25098
0.788235 0.752941 0.219608
0.980392 0.752941 0.258824
0.12549 0.972549 0.247059
0.141176 0.972549 0.270588
0.388235 0.972549 0.290196
0.796078 0.964706 0.25098
0.972549 0.956863 0.278431
0.0313725 0.172549 0.541176
0.0470588 0.113725 0.521569
0.270588 0.0392157 0.454902
0.698039 0.0627451 0.533333
0.929412 0.0745098 0.552941
0.027451 0.290196 0.458824
0.0313725 0.290196 0.517647
0.27451 0.223529 0.466667
0.784314 0.254902 0.513725
0.956863 0.27451 0.505882
0.027451 0.47451 0.333333
0.0235294 0.501961 0.396078
0.498039 0.545098 0.505882
0.85098 0.466667 0.454902
0.976471 0.466667 0.454902
0.0901961 0.780392 0.356863
0.121569 0.815686 0.407843
0.305882 0.839216 0.454902
0.756863 0.764706 0.439216
0.976471 0.760784 0.494118
0.12549 0.972549 0.388235
0.14902 0.968627 0.435294
0.321569 0.972549 0.470588
0.752941 0.972549 0.486275
0.976471 0.960784 0.533333
0.027451 0.235294 0.752941
0.0470588 0.196078 0.756863
0.192157 0.109804 0.709804
0.647059 0.0823529 0.760784
0.909804 0.0980392 0.796078
0.0313725 0.364706 0.729412
0.0352941 0.345098 0.74902
0.172549 0.317647 0.733333
0.682353 0.290196 0.737255
0.929412 0.321569 0.788235
0.0509804 0.513725 0.623529
0.0392157 0.517647 0.701961
0.160784 0.513725 0.74902
0.709804 0.494118 0.721569
0.960784 0.537255 0.772549
0.105882 0.780392 0.631373
0.117647 0.780392 0.666667
0.313725 0.768627 0.678431
0.894118 0.8 0.752941
0.976471 0.745098 0.721569
0.121569 0.972549 0.662745
0.152941 0.972549 0.698039
0.4 0.972549 0.717647
0.803922 0.968627 0.686275
0.972549 0.956863 0.764706
0.027451 0.294118 0.901961
0.0431373 0.239216 0.909804
0.14902 0.180392 0.921569
0.576471 0.133333 0.933333
0.894118 0.113725 0.972549
0.0313725 0.403922 0.898039
0.027451 0.392157 0.898039
0.137255 0.364706 0.898039
0.588235 0.34902 0.937255
0.913725 0.356863 0.972549
0.027451 0.556863 0.894118
0.0392157 0.54902 0.894118
0.121569 0.541176 0.894118
0.592157 0.572549 0.952941
0.941176 0.584314 0.972549
0.141176 0.796078 0.941176
0.14902 0.788235 0.937255
0.356863 0.780392 0.941176
0.768627 0.776471 0.952941
0.968627 0.811765 0.960784
0.14902 0.972549 0.956863
0.160784 0.972549 0.952941
0.533333 0.968627 0.952941
0.913725 0.960784 0.945098
0.972549 0.964706 0.945098
