assets/luts/cinematic/CineMagic NT N30P.cube
#Generated by Picture Instruments - Unlimited Filters
TITLE "CineMagic NT N30P"
LUT_3D_SIZE 5
0.00392157 0 0
0.14902 0.00784314 0.00784314
0.537255 0.0313725 0.0313725
0.835294 0.0509804 0.0509804
0.945098 0.0784314 0.0588235
0.00784314 0.109804 0.00392157
0.141176 0.0941176 0.00784314
0.560784 0.192157 0.0313725
0.843137 0.235294 0.0470588
0.945098 0.266667 0.0588235
0.0196078 0.486275 0.0156863
0.160784 0.498039 0.0196078
0.584314 0.498039 0.0313725
0.85098 0.564706 0.0509804
0.941176 0.564706 0.0431373
0.0392157 0.815686 0.027451
0.2 0.819608 0.0313725
0.623529 0.835294 0.0509804
0.847059 0.815686 0.0509804
0.937255 0.811765 0.0431373
0.0352941 0.941176 0.0352941
0.219608 0.945098 0.0352941
0.6 0.945098 0.0470588
0.85098 0.945098 0.0705882
0.941176 0.945098 0.0666667
0.00784314 0.0117647 0.0901961
0.12549 0.00392157 0.0627451
0.505882 0.0352941 0.172549
0.839216 0.0627451 0.207843
0.941176 0.0823529 0.223529
0.00784314 0.129412 0.0705882
0.133333 0.0980392 0.0705882
0.537255 0.192157 0.164706
0.839216 0.219608 0.196078
0.941176 0.25098 0.215686
0.0117647 0.556863 0.207843
0.156863 0.509804 0.164706
0.564706 0.494118 0.172549
0.843137 0.556863 0.188235
0.937255 0.588235 0.203922
0.0196078 0.835294 0.223529
0.152941 0.819608 0.196078
0.556863 0.839216 0.203922
0.843137 0.819608 0.2
0.941176 0.815686 0.192157
0.0235294 0.941176 0.266667
0.196078 0.945098 0.196078
0.568627 0.945098 0.215686
0.847059 0.945098 0.231373
0.937255 0.937255 0.235294
0.0117647 0.0666667 0.545098
0.12549 0.0470588 0.490196
0.407843 0.0470588 0.388235
0.815686 0.0862745 0.47451
0.945098 0.113725 0.552941
0.0117647 0.286275 0.537255
0.109804 0.25098 0.541176
0.411765 0.188235 0.396078
0.827451 0.278431 0.486275
0.945098 0.313725 0.541176
0.00392157 0.564706 0.541176
0.0862745 0.556863 0.521569
0.470588 0.54902 0.552941
0.843137 0.576471 0.52549
0.941176 0.580392 0.513725
0.0156863 0.854902 0.654902
0.0862745 0.847059 0.607843
0.494118 0.839216 0.541176
0.847059 0.827451 0.470588
0.945098 0.827451 0.470588
0.0156863 0.937255 0.682353
0.0901961 0.945098 0.619608
0.545098 0.945098 0.517647
0.839216 0.945098 0.529412
0.945098 0.941176 0.521569
0.00784314 0.156863 0.835294
0.101961 0.109804 0.827451
0.329412 0.0980392 0.788235
0.780392 0.109804 0.764706
0.945098 0.129412 0.811765
0.00392157 0.411765 0.839216
0.0901961 0.364706 0.839216
0.337255 0.309804 0.803922
0.807843 0.309804 0.772549
0.952941 0.34902 0.827451
0.00392157 0.67451 0.843137
0.0705882 0.65098 0.839216
0.298039 0.631373 0.843137
0.827451 0.603922 0.803922
0.941176 0.658824 0.827451
0.00392157 0.843137 0.843137
0.054902 0.839216 0.839216
0.270588 0.843137 0.843137
0.85098 0.866667 0.811765
0.952941 0.870588 0.815686
0.00392157 0.941176 0.862745
0.0470588 0.937255 0.858824
0.286275 0.945098 0.847059
0.839216 0.94902 0.792157
0.941176 0.945098 0.780392
0.00392157 0.2 0.941176
0.0901961 0.160784 0.945098
0.298039 0.14902 0.937255
0.709804 0.172549 0.94902
0.94902 0.152941 0.945098
0.00784314 0.470588 0.941176
0.0705882 0.431373 0.945098
0.305882 0.392157 0.941176
0.741176 0.396078 0.941176
0.94902 0.376471 0.945098
0.00392157 0.705882 0.945098
0.054902 0.690196 0.945098
0.266667 0.666667 0.945098
0.768627 0.678431 0.94902
0.945098 0.666667 0.945098
0 0.858824 0.941176
0.0352941 0.85098 0.941176
0.235294 0.847059 0.941176
0.8 0.862745 0.94902
0.945098 0.866667 0.941176
0.00392157 0.937255 0.941176
0.027451 0.937255 0.941176
0.215686 0.937255 0.937255
0.8 0.937255 0.945098
0.945098 0.94902 0.941176
