assets/luts/cinematic/CineMagic NT Film2.cube
#Generated by Picture Instruments - Unlimited Filters
TITLE "CineMagic NT Film2"
LUT_3D_SIZE 9
0 0 0
0.0745098 0 0.00784314
0.176471 0.00392157 0.00784314
0.317647 0.00392157 0.0156863
0.478431 0.00784314 0.0156863
0.643137 0.00392157 0.0156863
0.784314 0.00392157 0.0156863
0.901961 0.00392157 0.0156863
0.992157 0.00392157 0.0156863
0 0.0196078 0.00392157
0.0705882 0.0117647 0
0.184314 0.0313725 0.00392157
0.321569 0.054902 0.0117647
0.482353 0.0784314 0.0117647
0.643137 0.0823529 0.0156863
0.784314 0.0784314 0.0117647
0.905882 0.0823529 0.0156863
0.996078 0.0823529 0.0156863
0 0.160784 0.00392157
0.0705882 0.14902 0.00392157
0.176471 0.156863 0.00784314
0.313725 0.168627 0.00392157
0.478431 0.196078 0.00784314
0.635294 0.196078 0.00784314
0.776471 0.196078 0.00784314
0.905882 0.2 0.00784314
0.996078 0.196078 0.0117647
0 0.321569 0
0.0705882 0.317647 0.00784314
0.184314 0.321569 0.00784314
0.321569 0.317647 0.00392157
0.482353 0.333333 0.00784314
0.635294 0.337255 0.00784314
0.788235 0.337255 0.0117647
0.901961 0.337255 0
0.996078 0.337255 0.00392157
0.00392157 0.498039 0.00392157
0.0705882 0.505882 0.00392157
0.172549 0.494118 0
0.317647 0.501961 0
0.47451 0.494118 0
0.635294 0.498039 0.00392157
0.780392 0.501961 0
0.898039 0.490196 0
0.996078 0.490196 0
0 0.643137 0
0.0705882 0.643137 0.00392157
0.180392 0.643137 0
0.321569 0.643137 0.00392157
0.478431 0.647059 0
0.639216 0.643137 0
0.780392 0.643137 0
0.898039 0.643137 0
0.996078 0.643137 0.00392157
0.00784314 0.776471 0
0.0745098 0.772549 0.00392157
0.180392 0.776471 0.00392157
0.317647 0.772549 0
0.486275 0.776471 0.00392157
0.643137 0.776471 0
0.784314 0.776471 0.00392157
0.905882 0.776471 0
0.996078 0.776471 0
0 0.890196 0
0.0666667 0.886275 0
0.180392 0.890196 0
0.317647 0.886275 0.00392157
0.47451 0.886275 0.00392157
0.631373 0.886275 0
0.780392 0.886275 0.00392157
0.901961 0.890196 0
0.996078 0.886275 0
0 0.980392 0
0.0666667 0.976471 0
0.176471 0.976471 0
0.313725 0.976471 0
0.47451 0.976471 0
0.643137 0.976471 0
0.780392 0.972549 0
0.901961 0.980392 0
0.996078 0.976471 0
0 0.00392157 0.0235294
0.0666667 0 0.0313725
0.172549 0.00392157 0.0431373
0.309804 0.00392157 0.0588235
0.482353 0.00784314 0.0823529
0.639216 0.00392157 0.0862745
0.776471 0.00392157 0.0823529
0.901961 0.0117647 0.0901961
0.992157 0.00392157 0.0862745
0.00392157 0.027451 0.0117647
0.0666667 0.0196078 0.027451
0.180392 0.027451 0.0392157
0.321569 0.0509804 0.0627451
0.482353 0.0784314 0.0823529
0.639216 0.0823529 0.0784314
0.780392 0.0823529 0.0823529
0.905882 0.0823529 0.0862745
0.996078 0.0784314 0.0823529
0 0.160784 0.027451
0.0745098 0.156863 0.0352941
0.176471 0.14902 0.0392157
0.32549 0.172549 0.0588235
0.486275 0.192157 0.0784314
0.647059 0.196078 0.0823529
0.784314 0.192157 0.0784314
0.901961 0.192157 0.0784314
0.996078 0.196078 0.0784314
0 0.32549 0.0431373
0.0666667 0.32549 0.0470588
0.176471 0.313725 0.0470588
0.317647 0.313725 0.0509804
0.478431 0.333333 0.0666667
0.639216 0.333333 0.0745098
0.780392 0.337255 0.0784314
0.901961 0.333333 0.0705882
0.996078 0.337255 0.0745098
0 0.501961 0.0588235
0.0705882 0.501961 0.0627451
0.176471 0.498039 0.0745098
0.321569 0.501961 0.0745098
0.482353 0.494118 0.0745098
0.643137 0.494118 0.0745098
0.776471 0.494118 0.0627451
0.905882 0.494118 0.0666667
0.992157 0.494118 0.0666667
0 0.65098 0.054902
0.0666667 0.639216 0.0627451
0.176471 0.647059 0.0627451
0.313725 0.643137 0.0666667
0.478431 0.643137 0.0627451
0.635294 0.643137 0.0705882
0.776471 0.639216 0.0666667
0.905882 0.647059 0.0666667
0.996078 0.643137 0.0666667
0 0.780392 0.0470588
0.0627451 0.776471 0.0588235
0.176471 0.780392 0.0666667
0.313725 0.776471 0.0627451
0.482353 0.776471 0.0666667
0.639216 0.780392 0.0588235
0.780392 0.780392 0.0666667
0.901961 0.776471 0.0666667
0.992157 0.776471 0.0588235
0 0.886275 0.0470588
0.0705882 0.890196 0.054902
0.180392 0.886275 0.0588235
0.321569 0.886275 0.0588235
0.478431 0.886275 0.0588235
0.639216 0.886275 0.0588235
0.784314 0.886275 0.0588235
0.901961 0.886275 0.0588235
0.988235 0.886275 0.0588235
0.00392157 0.972549 0.0509804
0.0666667 0.976471 0.054902
0.176471 0.976471 0.0588235
0.317647 0.976471 0.054902
0.482353 0.972549 0.0588235
0.639216 0.972549 0.0588235
0.780392 0.976471 0.0588235
0.905882 0.972549 0.054902
0.992157 0.972549 0.054902
0 0.0117647 0.133333
0.0627451 0.00784314 0.145098
0.176471 0.00392157 0.141176
0.321569 0.00392157 0.164706
0.482353 0.00784314 0.176471
0.639216 0.00784314 0.180392
0.788235 0.00392157 0.184314
0.905882 0.00784314 0.176471
0.996078 0.00784314 0.184314
0 0.054902 0.105882
0.0627451 0.0509804 0.133333
0.168627 0.0352941 0.141176
0.313725 0.054902 0.160784
0.478431 0.0784314 0.172549
0.643137 0.0862745 0.172549
0.784314 0.0862745 0.180392
0.898039 0.0823529 0.176471
0.996078 0.0823529 0.172549
0 0.176471 0.0980392
0.0627451 0.168627 0.109804
0.176471 0.156863 0.133333
0.317647 0.168627 0.156863
0.478431 0.192157 0.168627
0.639216 0.196078 0.172549
0.780392 0.196078 0.168627
0.905882 0.192157 0.176471
0.992157 0.192157 0.168627
0.00392157 0.337255 0.113725
0.0627451 0.329412 0.129412
0.176471 0.317647 0.145098
0.321569 0.313725 0.152941
0.482353 0.337255 0.172549
0.643137 0.333333 0.164706
0.788235 0.337255 0.164706
0.909804 0.341176 0.168627
0.996078 0.337255 0.168627
0 0.509804 0.133333
0.0666667 0.501961 0.141176
0.172549 0.501961 0.164706
0.317647 0.494118 0.160784
0.478431 0.494118 0.164706
0.635294 0.494118 0.164706
0.776471 0.494118 0.164706
0.894118 0.494118 0.164706
0.996078 0.494118 0.164706
0 0.65098 0.12549
0.0627451 0.647059 0.145098
0.172549 0.643137 0.156863
0.321569 0.639216 0.164706
0.482353 0.647059 0.160784
0.643137 0.643137 0.164706
0.784314 0.643137 0.164706
0.901961 0.643137 0.160784
0.996078 0.643137 0.164706
0 0.780392 0.117647
0.0666667 0.784314 0.133333
0.168627 0.780392 0.156863
0.321569 0.780392 0.156863
0.47451 0.776471 0.156863
0.639216 0.780392 0.152941
0.776471 0.776471 0.156863
0.894118 0.776471 0.156863
0.992157 0.776471 0.152941
0.00392157 0.890196 0.121569
0.0627451 0.886275 0.121569
0.168627 0.886275 0.14902
0.321569 0.886275 0.164706
0.478431 0.890196 0.152941
0.643137 0.886275 0.160784
0.784314 0.886275 0.152941
0.901961 0.886275 0.152941
0.996078 0.882353 0.14902
0 0.976471 0.117647
0.0627451 0.972549 0.12549
0.168627 0.976471 0.14902
0.317647 0.972549 0.152941
0.478431 0.976471 0.152941
0.639216 0.976471 0.156863
0.780392 0.976471 0.14902
0.898039 0.976471 0.152941
0.996078 0.972549 0.152941
0.00392157 0.027451 0.262745
0.0470588 0.0235294 0.27451
0.156863 0.0117647 0.27451
0.317647 0.00392157 0.282353
0.482353 0.00392157 0.290196
0.639216 0.00392157 0.298039
0.776471 0.00784314 0.298039
0.898039 0.00392157 0.298039
0.996078 0.00392157 0.301961
0.00392157 0.0862745 0.254902
0.054902 0.0823529 0.262745
0.156863 0.0666667 0.278431
0.321569 0.0509804 0.27451
0.482353 0.0784314 0.294118
0.643137 0.0823529 0.294118
0.780392 0.0784314 0.294118
0.909804 0.0823529 0.298039
0.996078 0.0823529 0.290196
0 0.203922 0.235294
0.054902 0.188235 0.235294
0.156863 0.184314 0.258824
0.309804 0.168627 0.270588
0.478431 0.196078 0.282353
0.635294 0.196078 0.290196
0.780392 0.2 0.286275
0.901961 0.196078 0.294118
0.996078 0.192157 0.290196
0 0.352941 0.215686
0.054902 0.341176 0.227451
0.152941 0.329412 0.247059
0.317647 0.317647 0.270588
0.482353 0.333333 0.290196
0.643137 0.337255 0.290196
0.780392 0.333333 0.290196
0.901961 0.341176 0.286275
0.996078 0.337255 0.286275
0 0.509804 0.235294
0.0588235 0.509804 0.247059
0.152941 0.498039 0.258824
0.321569 0.498039 0.282353
0.478431 0.490196 0.282353
0.639216 0.494118 0.286275
0.780392 0.494118 0.286275
0.905882 0.494118 0.278431
0.996078 0.494118 0.278431
0 0.658824 0.231373
0.054902 0.654902 0.239216
0.156863 0.65098 0.258824
0.317647 0.643137 0.282353
0.482353 0.643137 0.27451
0.639216 0.643137 0.278431
0.780392 0.643137 0.282353
0.901961 0.643137 0.27451
0.996078 0.643137 0.278431
0.00392157 0.784314 0.223529
0.0509804 0.784314 0.231373
0.14902 0.784314 0.254902
0.317647 0.776471 0.266667
0.478431 0.780392 0.278431
0.643137 0.780392 0.270588
0.780392 0.776471 0.278431
0.905882 0.772549 0.278431
0.996078 0.772549 0.270588
0 0.894118 0.223529
0.054902 0.890196 0.231373
0.14902 0.890196 0.247059
0.305882 0.886275 0.27451
0.478431 0.894118 0.27451
0.635294 0.886275 0.270588
0.784314 0.894118 0.266667
0.898039 0.886275 0.270588
0.996078 0.886275 0.270588
0 0.972549 0.223529
0.0588235 0.976471 0.231373
0.145098 0.976471 0.247059
0.313725 0.972549 0.266667
0.47451 0.976471 0.270588
0.639216 0.980392 0.27451
0.780392 0.976471 0.270588
0.905882 0.976471 0.27451
0.996078 0.976471 0.270588
0 0.054902 0.403922
0.0392157 0.0509804 0.415686
0.141176 0.0352941 0.415686
0.301961 0.0196078 0.411765
0.482353 0.00784314 0.423529
0.639216 0.00392157 0.431373
0.788235 0.00392157 0.431373
0.905882 0.00392157 0.427451
0.992157 0.00392157 0.423529
0.00392157 0.12549 0.388235
0.0470588 0.117647 0.407843
0.133333 0.105882 0.411765
0.301961 0.0862745 0.411765
0.482353 0.0784314 0.435294
0.639216 0.0823529 0.419608
0.780392 0.0823529 0.427451
0.898039 0.0823529 0.419608
0.996078 0.0823529 0.423529
0.00392157 0.231373 0.376471
0.0470588 0.223529 0.388235
0.133333 0.215686 0.4
0.305882 0.2 0.415686
0.478431 0.188235 0.419608
0.639216 0.196078 0.415686
0.780392 0.196078 0.415686
0.898039 0.196078 0.415686
0.992157 0.196078 0.419608
0.00392157 0.364706 0.360784
0.0431373 0.360784 0.372549
0.133333 0.34902 0.376471
0.294118 0.341176 0.403922
0.470588 0.333333 0.411765
0.643137 0.341176 0.419608
0.776471 0.341176 0.415686
0.901961 0.341176 0.411765
0.996078 0.337255 0.419608
0.00392157 0.521569 0.364706
0.0431373 0.517647 0.356863
0.129412 0.509804 0.372549
0.282353 0.501961 0.396078
0.478431 0.490196 0.407843
0.639216 0.494118 0.419608
0.776471 0.494118 0.407843
0.905882 0.494118 0.419608
0.996078 0.494118 0.415686
0.00784314 0.662745 0.34902
0.0470588 0.658824 0.372549
0.129412 0.654902 0.376471
0.278431 0.65098 0.392157
0.482353 0.643137 0.407843
0.639216 0.643137 0.407843
0.784314 0.643137 0.415686
0.901961 0.643137 0.407843
0.992157 0.643137 0.407843
0 0.788235 0.341176
0.0431373 0.788235 0.356863
0.129412 0.784314 0.368627
0.27451 0.780392 0.388235
0.478431 0.780392 0.411765
0.639216 0.780392 0.403922
0.780392 0.780392 0.403922
0.898039 0.780392 0.403922
0.992157 0.776471 0.403922
0 0.890196 0.337255
0.0470588 0.890196 0.352941
0.129412 0.890196 0.368627
0.27451 0.886275 0.388235
0.478431 0.886275 0.396078
0.643137 0.886275 0.403922
0.788235 0.890196 0.4
0.901961 0.886275 0.396078
0.992157 0.886275 0.396078
0 0.968627 0.34902
0.0431373 0.972549 0.34902
0.129412 0.972549 0.368627
0.278431 0.976471 0.380392
0.478431 0.976471 0.4
0.635294 0.976471 0.407843
0.780392 0.976471 0.396078
0.901961 0.976471 0.396078
0.996078 0.976471 0.403922
0.00392157 0.0862745 0.545098
0.0392157 0.0784314 0.552941
0.117647 0.0627451 0.545098
0.286275 0.0470588 0.556863
0.470588 0.0235294 0.560784
0.643137 0.00392157 0.564706
0.780392 0.00784314 0.564706
0.901961 0.00392157 0.560784
0.992157 0.00392157 0.564706
0 0.156863 0.533333
0.0352941 0.14902 0.541176
0.121569 0.137255 0.556863
0.290196 0.117647 0.552941
0.466667 0.0941176 0.556863
0.643137 0.0784314 0.552941
0.780392 0.0823529 0.560784
0.905882 0.0823529 0.564706
0.996078 0.0823529 0.556863
0 0.262745 0.529412
0.0313725 0.254902 0.533333
0.113725 0.243137 0.545098
0.286275 0.227451 0.552941
0.466667 0.207843 0.552941
0.639216 0.196078 0.556863
0.780392 0.196078 0.54902
0.901961 0.196078 0.552941
0.996078 0.196078 0.552941
0 0.388235 0.509804
0.0352941 0.384314 0.517647
0.117647 0.372549 0.529412
0.278431 0.360784 0.545098
0.466667 0.34902 0.552941
0.639216 0.337255 0.54902
0.780392 0.337255 0.54902
0.905882 0.337255 0.552941
0.996078 0.337255 0.552941
0 0.533333 0.494118
0.0352941 0.52549 0.501961
0.101961 0.529412 0.509804
0.243137 0.509804 0.521569
0.458824 0.509804 0.541176
0.635294 0.494118 0.541176
0.784314 0.501961 0.54902
0.901961 0.490196 0.545098
0.992157 0.494118 0.545098
0 0.666667 0.482353
0.0352941 0.666667 0.494118
0.105882 0.658824 0.494118
0.231373 0.654902 0.513725
0.454902 0.647059 0.529412
0.643137 0.658824 0.560784
0.780392 0.662745 0.568627
0.901961 0.658824 0.560784
0.996078 0.654902 0.560784
0.00392157 0.792157 0.478431
0.0352941 0.788235 0.486275
0.101961 0.784314 0.501961
0.239216 0.784314 0.517647
0.454902 0.776471 0.52549
0.647059 0.784314 0.556863
0.784314 0.780392 0.560784
0.905882 0.784314 0.560784
0.996078 0.784314 0.552941
0.00392157 0.894118 0.482353
0.0313725 0.894118 0.478431
0.105882 0.894118 0.494118
0.231373 0.894118 0.505882
0.45098 0.886275 0.517647
0.643137 0.894118 0.556863
0.780392 0.890196 0.54902
0.905882 0.890196 0.54902
0.996078 0.894118 0.552941
0 0.980392 0.478431
0.0352941 0.976471 0.482353
0.105882 0.972549 0.494118
0.235294 0.972549 0.505882
0.443137 0.976471 0.521569
0.639216 0.976471 0.556863
0.776471 0.976471 0.545098
0.905882 0.976471 0.552941
0.996078 0.972549 0.556863
0.00392157 0.105882 0.67451
0.0235294 0.101961 0.678431
0.0941176 0.0823529 0.67451
0.270588 0.0705882 0.686275
0.454902 0.0352941 0.678431
0.635294 0.0156863 0.690196
0.776471 0.00392157 0.690196
0.898039 0.00392157 0.682353
0.996078 0 0.686275
0 0.176471 0.666667
0.027451 0.164706 0.67451
0.0980392 0.152941 0.67451
0.266667 0.133333 0.67451
0.458824 0.117647 0.678431
0.639216 0.0941176 0.686275
0.784314 0.0823529 0.686275
0.901961 0.0823529 0.686275
0.996078 0.0784314 0.682353
0 0.27451 0.658824
0.0235294 0.266667 0.654902
0.105882 0.258824 0.670588
0.270588 0.239216 0.678431
0.458824 0.223529 0.670588
0.635294 0.2 0.67451
0.784314 0.196078 0.678431
0.898039 0.192157 0.682353
0.992157 0.196078 0.67451
0 0.4 0.643137
0.027451 0.392157 0.654902
0.0941176 0.388235 0.654902
0.262745 0.372549 0.662745
0.454902 0.356863 0.67451
0.635294 0.345098 0.678431
0.780392 0.341176 0.678431
0.901961 0.337255 0.670588
0.996078 0.333333 0.678431
0 0.541176 0.643137
0.027451 0.537255 0.639216
0.0941176 0.529412 0.647059
0.235294 0.521569 0.65098
0.45098 0.509804 0.670588
0.639216 0.498039 0.678431
0.776471 0.490196 0.666667
0.898039 0.494118 0.670588
0.988235 0.494118 0.670588
0 0.67451 0.627451
0.027451 0.670588 0.627451
0.0823529 0.670588 0.635294
0.196078 0.662745 0.647059
0.419608 0.654902 0.647059
0.643137 0.701961 0.713725
0.784314 0.701961 0.721569
0.905882 0.709804 0.721569
0.996078 0.701961 0.717647
0.00392157 0.8 0.615686
0.027451 0.792157 0.619608
0.0823529 0.792157 0.631373
0.196078 0.784314 0.635294
0.415686 0.784314 0.643137
0.635294 0.807843 0.701961
0.784314 0.815686 0.721569
0.905882 0.819608 0.729412
0.996078 0.811765 0.721569
0.00392157 0.894118 0.615686
0.027451 0.898039 0.611765
0.0901961 0.894118 0.623529
0.188235 0.890196 0.635294
0.419608 0.890196 0.647059
0.635294 0.901961 0.701961
0.792157 0.905882 0.717647
0.909804 0.905882 0.717647
0.996078 0.905882 0.721569
0.00392157 0.976471 0.615686
0.027451 0.976471 0.615686
0.0823529 0.976471 0.627451
0.192157 0.976471 0.631373
0.419608 0.976471 0.643137
0.639216 0.976471 0.701961
0.788235 0.980392 0.713725
0.905882 0.980392 0.721569
0.992157 0.976471 0.717647
0 0.121569 0.780392
0.0196078 0.113725 0.784314
0.0901961 0.0941176 0.784314
0.262745 0.0745098 0.788235
0.443137 0.0509804 0.780392
0.631373 0.027451 0.796078
0.780392 0.00784314 0.796078
0.909804 0.00392157 0.796078
0.996078 0 0.792157
0.00392157 0.188235 0.768627
0.0196078 0.180392 0.776471
0.0823529 0.172549 0.784314
0.25098 0.14902 0.784314
0.447059 0.129412 0.784314
0.623529 0.105882 0.780392
0.784314 0.0901961 0.788235
0.898039 0.0862745 0.788235
0.996078 0.0823529 0.792157
0.00392157 0.282353 0.768627
0.0156863 0.282353 0.772549
0.0823529 0.266667 0.776471
0.262745 0.254902 0.784314
0.447059 0.235294 0.776471
0.627451 0.215686 0.784314
0.784314 0.203922 0.784314
0.901961 0.196078 0.788235
0.996078 0.192157 0.784314
0 0.403922 0.764706
0.0156863 0.403922 0.768627
0.0823529 0.396078 0.768627
0.254902 0.388235 0.780392
0.45098 0.368627 0.780392
0.635294 0.352941 0.784314
0.780392 0.341176 0.780392
0.901961 0.337255 0.780392
0.992157 0.337255 0.780392
0 0.54902 0.756863
0.0156863 0.537255 0.756863
0.0705882 0.537255 0.764706
0.215686 0.52549 0.756863
0.439216 0.513725 0.772549
0.627451 0.509804 0.784314
0.780392 0.501961 0.776471
0.898039 0.494118 0.780392
0.996078 0.494118 0.780392
0 0.678431 0.745098
0.0235294 0.678431 0.74902
0.0745098 0.670588 0.752941
0.188235 0.666667 0.756863
0.419608 0.658824 0.768627
0.631373 0.698039 0.8
0.784314 0.705882 0.815686
0.909804 0.701961 0.803922
0.996078 0.701961 0.807843
0.00392157 0.8 0.72549
0.0196078 0.796078 0.737255
0.0627451 0.792157 0.741176
0.160784 0.796078 0.752941
0.392157 0.788235 0.756863
0.607843 0.807843 0.788235
0.784314 0.847059 0.835294
0.901961 0.839216 0.839216
0.996078 0.843137 0.831373
0 0.894118 0.733333
0.0156863 0.898039 0.733333
0.0627451 0.894118 0.737255
0.160784 0.890196 0.745098
0.388235 0.894118 0.745098
0.615686 0.901961 0.784314
0.784314 0.917647 0.823529
0.905882 0.917647 0.835294
0.996078 0.917647 0.831373
0 0.976471 0.733333
0.0235294 0.976471 0.733333
0.0627451 0.976471 0.741176
0.160784 0.976471 0.745098
0.380392 0.976471 0.752941
0.603922 0.984314 0.788235
0.784314 0.984314 0.831373
0.901961 0.984314 0.831373
0.996078 0.984314 0.835294
0 0.129412 0.866667
0.0156863 0.12549 0.870588
0.0627451 0.105882 0.87451
0.243137 0.0901961 0.870588
0.435294 0.0627451 0.878431
0.627451 0.0392157 0.878431
0.772549 0.0196078 0.87451
0.901961 0.00392157 0.87451
0.996078 0 0.878431
0 0.196078 0.866667
0.0117647 0.188235 0.866667
0.0666667 0.180392 0.870588
0.25098 0.156863 0.870588
0.439216 0.137255 0.87451
0.627451 0.113725 0.87451
0.772549 0.0980392 0.870588
0.901961 0.0823529 0.87451
0.992157 0.0823529 0.87451
0 0.294118 0.862745
0.0117647 0.286275 0.862745
0.0705882 0.278431 0.866667
0.247059 0.254902 0.862745
0.443137 0.243137 0.87451
0.627451 0.223529 0.866667
0.780392 0.207843 0.870588
0.905882 0.196078 0.870588
0.992157 0.192157 0.870588
0 0.423529 0.854902
0.0156863 0.407843 0.854902
0.0627451 0.4 0.854902
0.239216 0.388235 0.862745
0.439216 0.372549 0.862745
0.623529 0.360784 0.870588
0.776471 0.345098 0.866667
0.901961 0.337255 0.870588
0.996078 0.333333 0.866667
0 0.552941 0.85098
0.0117647 0.545098 0.85098
0.0588235 0.541176 0.85098
0.211765 0.529412 0.85098
0.435294 0.521569 0.854902
0.623529 0.517647 0.866667
0.780392 0.498039 0.866667
0.901961 0.494118 0.862745
0.996078 0.494118 0.862745
0 0.678431 0.843137
0.0117647 0.678431 0.847059
0.0470588 0.67451 0.847059
0.176471 0.670588 0.847059
0.4 0.662745 0.854902
0.631373 0.701961 0.878431
0.776471 0.705882 0.878431
0.905882 0.701961 0.878431
0.996078 0.701961 0.87451
0 0.8 0.831373
0.0117647 0.796078 0.843137
0.0509804 0.796078 0.839216
0.156863 0.792157 0.839216
0.384314 0.788235 0.843137
0.615686 0.807843 0.866667
0.780392 0.85098 0.901961
0.901961 0.847059 0.901961
0.992157 0.847059 0.898039
0 0.894118 0.835294
0.0117647 0.894118 0.835294
0.0509804 0.894118 0.831373
0.129412 0.894118 0.835294
0.364706 0.890196 0.843137
0.588235 0.901961 0.854902
0.780392 0.921569 0.894118
0.909804 0.92549 0.901961
0.996078 0.92549 0.905882
0 0.976471 0.831373
0.0117647 0.968627 0.835294
0.0470588 0.976471 0.835294
0.133333 0.972549 0.839216
0.360784 0.972549 0.835294
0.596078 0.980392 0.858824
0.776471 0.980392 0.890196
0.905882 0.980392 0.905882
0.988235 0.984314 0.905882
