assets/luts/cinematic/CineMagic NT N30V2.cube
#Generated by Picture Instruments - Unlimited Filters
TITLE "CineMagic NT N30V2"
LUT_3D_SIZE 5
0.054902 0.054902 0.054902
0.329412 0.0745098 0.0862745
0.709804 0.0862745 0.164706
0.862745 0.164706 0.219608
0.937255 0.25098 0.270588
0.0784314 0.168627 0.0901961
0.176471 0.172549 0.0941176
0.607843 0.227451 0.14902
0.890196 0.235294 0.211765
0.956863 0.360784 0.278431
0.109804 0.341176 0.160784
0.168627 0.356863 0.160784
0.490196 0.466667 0.219608
0.898039 0.596078 0.305882
0.956863 0.678431 0.341176
0.160784 0.584314 0.25098
0.203922 0.592157 0.258824
0.360784 0.705882 0.305882
0.831373 0.819608 0.376471
0.933333 0.847059 0.384314
0.231373 0.8 0.341176
0.254902 0.8 0.341176
0.360784 0.854902 0.364706
0.717647 0.996078 0.462745
0.929412 0.996078 0.443137
0.0980392 0.0980392 0.184314
0.258824 0.0980392 0.168627
0.709804 0.0941176 0.176471
0.854902 0.172549 0.278431
0.94902 0.321569 0.352941
0.0666667 0.160784 0.160784
0.164706 0.196078 0.207843
0.65098 0.247059 0.258824
0.898039 0.298039 0.317647
0.956863 0.396078 0.356863
0.109804 0.372549 0.25098
0.14902 0.380392 0.254902
0.505882 0.513725 0.321569
0.878431 0.607843 0.376471
0.960784 0.67451 0.407843
0.168627 0.619608 0.34902
0.203922 0.639216 0.337255
0.341176 0.737255 0.376471
0.831373 0.858824 0.443137
0.933333 0.862745 0.454902
0.235294 0.831373 0.439216
0.262745 0.831373 0.419608
0.341176 0.87451 0.45098
0.709804 1 0.521569
0.929412 0.996078 0.486275
0.133333 0.235294 0.392157
0.196078 0.247059 0.4
0.45098 0.196078 0.313725
0.85098 0.172549 0.282353
0.941176 0.262745 0.286275
0.0941176 0.298039 0.384314
0.207843 0.337255 0.458824
0.45098 0.258824 0.345098
0.913725 0.262745 0.313725
0.960784 0.443137 0.454902
0.0980392 0.372549 0.380392
0.156863 0.403922 0.423529
0.396078 0.552941 0.572549
0.886275 0.631373 0.615686
0.976471 0.666667 0.647059
0.176471 0.686275 0.576471
0.223529 0.721569 0.584314
0.32549 0.764706 0.607843
0.831373 0.882353 0.607843
0.972549 0.901961 0.639216
0.239216 0.854902 0.662745
0.270588 0.85098 0.639216
0.333333 0.898039 0.666667
0.713725 0.996078 0.670588
0.956863 0.992157 0.611765
0.2 0.423529 0.639216
0.298039 0.411765 0.576471
0.517647 0.380392 0.443137
0.729412 0.321569 0.419608
0.945098 0.341176 0.376471
0.164706 0.494118 0.666667
0.294118 0.505882 0.690196
0.666667 0.501961 0.65098
0.811765 0.384314 0.458824
0.956863 0.447059 0.478431
0.160784 0.564706 0.662745
0.2 0.584314 0.690196
0.435294 0.643137 0.780392
0.839216 0.54902 0.615686
0.976471 0.666667 0.647059
0.160784 0.647059 0.67451
0.2 0.678431 0.698039
0.301961 0.741176 0.74902
0.827451 0.901961 0.878431
0.976471 0.92549 0.901961
0.227451 0.843137 0.788235
0.254902 0.854902 0.788235
0.317647 0.894118 0.819608
0.682353 0.992157 0.862745
0.964706 0.996078 0.839216
0.266667 0.572549 0.823529
0.396078 0.54902 0.792157
0.882353 0.564706 0.831373
0.933333 0.482353 0.643137
0.937255 0.447059 0.568627
0.231373 0.631373 0.843137
0.34902 0.627451 0.847059
0.741176 0.588235 0.85098
0.937255 0.533333 0.741176
0.94902 0.486275 0.619608
0.211765 0.705882 0.854902
0.247059 0.709804 0.858824
0.545098 0.737255 0.92549
0.968627 0.682353 0.945098
0.976471 0.662745 0.807843
0.211765 0.768627 0.854902
0.247059 0.776471 0.854902
0.352941 0.819608 0.898039
0.878431 0.929412 1
0.984314 0.909804 0.956863
0.227451 0.839216 0.862745
0.25098 0.839216 0.858824
0.313725 0.870588 0.878431
0.678431 0.976471 0.968627
0.972549 1 0.996078
