assets/luts/cinematic/CineMagic NT N30V2.cube
#Generated by Picture Instruments - Unlimited Filters
TITLE "CineMagic NT N30V2"
LUT_3D_SIZE 17
0.054902 0.054902 0.054902
0.117647 0.054902 0.0588235
0.172549 0.0588235 0.0745098
0.247059 0.0666667 0.0745098
0.329412 0.0745098 0.0862745
0.415686 0.0784314 0.0901961
0.52549 0.0784314 0.109804
0.631373 0.0823529 0.12549
0.709804 0.0862745 0.164706
0.772549 0.109804 0.2
0.803922 0.133333 0.203922
0.835294 0.14902 0.207843
0.862745 0.164706 0.219608
0.890196 0.192157 0.239216
0.909804 0.203922 0.247059
0.929412 0.235294 0.258824
0.937255 0.25098 0.270588
0.0509804 0.0705882 0.054902
0.0745098 0.0705882 0.054902
0.129412 0.0705882 0.0666667
0.196078 0.0862745 0.0705882
0.27451 0.0901961 0.0745098
0.352941 0.0980392 0.0745098
0.470588 0.0901961 0.0941176
0.580392 0.0980392 0.109804
0.678431 0.0941176 0.145098
0.752941 0.0980392 0.168627
0.8 0.109804 0.192157
0.839216 0.152941 0.203922
0.862745 0.172549 0.211765
0.894118 0.203922 0.235294
0.917647 0.215686 0.239216
0.933333 0.25098 0.258824
0.941176 0.27451 0.27451
0.0666667 0.0941176 0.0666667
0.0901961 0.0980392 0.0666667
0.109804 0.0980392 0.0705882
0.164706 0.0980392 0.0666667
0.239216 0.109804 0.0745098
0.321569 0.113725 0.0901961
0.427451 0.109804 0.0901961
0.556863 0.101961 0.101961
0.662745 0.105882 0.12549
0.737255 0.105882 0.164706
0.803922 0.113725 0.188235
0.839216 0.152941 0.2
0.870588 0.192157 0.207843
0.901961 0.215686 0.231373
0.92549 0.243137 0.247059
0.937255 0.266667 0.254902
0.941176 0.294118 0.270588
0.0745098 0.129412 0.0705882
0.0901961 0.129412 0.0705882
0.109804 0.133333 0.0784314
0.137255 0.12549 0.0784314
0.203922 0.133333 0.0784314
0.286275 0.156863 0.0901961
0.376471 0.156863 0.0980392
0.513725 0.152941 0.109804
0.643137 0.141176 0.129412
0.737255 0.137255 0.14902
0.796078 0.145098 0.184314
0.839216 0.168627 0.192157
0.882353 0.207843 0.207843
0.905882 0.231373 0.219608
0.929412 0.266667 0.239216
0.945098 0.301961 0.262745
0.945098 0.329412 0.270588
0.0784314 0.168627 0.0901961
0.0980392 0.164706 0.0901961
0.113725 0.164706 0.0941176
0.133333 0.168627 0.0941176
0.176471 0.172549 0.0941176
0.266667 0.176471 0.105882
0.352941 0.192157 0.105882
0.490196 0.211765 0.12549
0.607843 0.227451 0.14902
0.729412 0.211765 0.164706
0.796078 0.211765 0.188235
0.847059 0.231373 0.2
0.890196 0.235294 0.211765
0.921569 0.254902 0.227451
0.933333 0.298039 0.254902
0.945098 0.329412 0.266667
0.956863 0.360784 0.278431
0.0901961 0.207843 0.105882
0.0980392 0.211765 0.101961
0.117647 0.207843 0.105882
0.145098 0.207843 0.105882
0.168627 0.219608 0.117647
0.239216 0.235294 0.117647
0.341176 0.235294 0.117647
0.498039 0.258824 0.145098
0.611765 0.278431 0.164706
0.72549 0.313725 0.196078
0.803922 0.329412 0.215686
0.85098 0.329412 0.231373
0.890196 0.341176 0.235294
0.92549 0.356863 0.25098
0.937255 0.364706 0.270588
0.952941 0.384314 0.278431
0.956863 0.396078 0.278431
0.0980392 0.254902 0.121569
0.109804 0.254902 0.121569
0.117647 0.254902 0.12549
0.145098 0.25098 0.121569
0.168627 0.262745 0.129412
0.211765 0.278431 0.137255
0.290196 0.298039 0.145098
0.435294 0.301961 0.152941
0.615686 0.345098 0.192157
0.721569 0.360784 0.207843
0.8 0.403922 0.239216
0.847059 0.427451 0.254902
0.894118 0.454902 0.27451
0.929412 0.482353 0.286275
0.941176 0.494118 0.298039
0.960784 0.517647 0.298039
0.960784 0.521569 0.301961
0.105882 0.298039 0.141176
0.117647 0.298039 0.145098
0.121569 0.298039 0.137255
0.14902 0.298039 0.137255
0.168627 0.305882 0.14902
0.2 0.329412 0.160784
0.262745 0.368627 0.168627
0.380392 0.380392 0.180392
0.572549 0.384314 0.196078
0.717647 0.427451 0.235294
0.796078 0.470588 0.258824
0.843137 0.494118 0.27451
0.901961 0.537255 0.298039
0.929412 0.568627 0.313725
0.941176 0.596078 0.317647
0.956863 0.619608 0.32549
0.960784 0.619608 0.32549
0.109804 0.341176 0.160784
0.117647 0.345098 0.156863
0.133333 0.34902 0.156863
0.14902 0.352941 0.160784
0.168627 0.356863 0.160784
0.196078 0.368627 0.168627
0.25098 0.411765 0.184314
0.337255 0.482353 0.219608
0.490196 0.466667 0.219608
0.682353 0.478431 0.239216
0.784314 0.517647 0.270588
0.843137 0.556863 0.290196
0.898039 0.596078 0.305882
0.92549 0.639216 0.329412
0.937255 0.654902 0.333333
0.941176 0.678431 0.337255
0.956863 0.678431 0.341176
0.113725 0.388235 0.176471
0.117647 0.388235 0.172549
0.137255 0.396078 0.176471
0.156863 0.396078 0.172549
0.172549 0.411765 0.184314
0.196078 0.423529 0.192157
0.239216 0.454902 0.2
0.309804 0.513725 0.231373
0.447059 0.6 0.27451
0.65098 0.556863 0.262745
0.768627 0.588235 0.294118
0.843137 0.623529 0.321569
0.890196 0.65098 0.32549
0.913725 0.690196 0.337255
0.933333 0.717647 0.345098
0.941176 0.72549 0.360784
0.956863 0.729412 0.352941
0.133333 0.454902 0.203922
0.137255 0.45098 0.203922
0.14902 0.458824 0.203922
0.156863 0.454902 0.2
0.172549 0.462745 0.203922
0.207843 0.486275 0.211765
0.235294 0.509804 0.227451
0.298039 0.560784 0.247059
0.380392 0.635294 0.278431
0.560784 0.705882 0.32549
0.72549 0.662745 0.317647
0.819608 0.682353 0.329412
0.882353 0.713725 0.345098
0.905882 0.741176 0.356863
0.92549 0.760784 0.368627
0.941176 0.780392 0.368627
0.952941 0.768627 0.368627
0.14902 0.513725 0.235294
0.160784 0.517647 0.243137
0.160784 0.521569 0.235294
0.172549 0.52549 0.235294
0.192157 0.529412 0.235294
0.207843 0.529412 0.239216
0.25098 0.572549 0.25098
0.294118 0.607843 0.258824
0.368627 0.670588 0.294118
0.494118 0.752941 0.329412
0.670588 0.784314 0.352941
0.784314 0.737255 0.352941
0.862745 0.764706 0.360784
0.901961 0.776471 0.372549
0.917647 0.788235 0.368627
0.929412 0.811765 0.372549
0.941176 0.811765 0.376471
0.160784 0.584314 0.25098
0.168627 0.592157 0.254902
0.176471 0.584314 0.25098
0.188235 0.584314 0.25098
0.203922 0.592157 0.258824
0.227451 0.6 0.254902
0.247059 0.611765 0.266667
0.298039 0.666667 0.286275
0.360784 0.705882 0.305882
0.482353 0.788235 0.34902
0.639216 0.85098 0.380392
0.741176 0.85098 0.376471
0.831373 0.819608 0.376471
0.901961 0.823529 0.384314
0.917647 0.839216 0.388235
0.929412 0.847059 0.388235
0.933333 0.847059 0.384314
0.180392 0.639216 0.282353
0.192157 0.643137 0.278431
0.2 0.643137 0.282353
0.211765 0.647059 0.278431
0.207843 0.643137 0.282353
0.235294 0.647059 0.282353
0.258824 0.67451 0.290196
0.301961 0.713725 0.309804
0.352941 0.745098 0.321569
0.423529 0.803922 0.352941
0.580392 0.870588 0.380392
0.717647 0.913725 0.411765
0.815686 0.905882 0.396078
0.878431 0.878431 0.4
0.905882 0.882353 0.403922
0.92549 0.886275 0.403922
0.933333 0.882353 0.4
0.2 0.713725 0.305882
0.203922 0.709804 0.305882
0.211765 0.709804 0.305882
0.215686 0.705882 0.305882
0.235294 0.713725 0.301961
0.239216 0.713725 0.301961
0.258824 0.72549 0.317647
0.309804 0.752941 0.329412
0.356863 0.788235 0.337255
0.407843 0.831373 0.360784
0.505882 0.882353 0.388235
0.682353 0.941176 0.419608
0.792157 0.964706 0.439216
0.85098 0.956863 0.435294
0.905882 0.933333 0.415686
0.921569 0.92549 0.415686
0.929412 0.921569 0.415686
0.211765 0.760784 0.333333
0.219608 0.760784 0.32549
0.239216 0.756863 0.329412
0.239216 0.756863 0.329412
0.247059 0.756863 0.329412
0.254902 0.756863 0.329412
0.270588 0.764706 0.333333
0.305882 0.788235 0.341176
0.360784 0.827451 0.356863
0.407843 0.862745 0.372549
0.490196 0.905882 0.4
0.639216 0.968627 0.427451
0.756863 0.996078 0.45098
0.85098 1 0.470588
0.905882 1 0.45098
0.917647 0.964706 0.423529
0.929412 0.956863 0.423529
0.231373 0.8 0.341176
0.235294 0.803922 0.345098
0.243137 0.803922 0.341176
0.247059 0.803922 0.341176
0.254902 0.8 0.341176
0.266667 0.803922 0.345098
0.278431 0.807843 0.345098
0.309804 0.815686 0.34902
0.360784 0.854902 0.364706
0.403922 0.890196 0.376471
0.466667 0.92549 0.403922
0.572549 0.968627 0.427451
0.717647 0.996078 0.462745
0.823529 1 0.482353
0.898039 1 0.498039
0.92549 0.996078 0.462745
0.929412 0.996078 0.443137
0.0745098 0.054902 0.0862745
0.121569 0.054902 0.0823529
0.172549 0.0588235 0.0745098
0.235294 0.0666667 0.0980392
0.321569 0.0745098 0.109804
0.396078 0.0745098 0.121569
0.513725 0.0784314 0.141176
0.592157 0.0901961 0.14902
0.686275 0.105882 0.184314
0.756863 0.109804 0.219608
0.796078 0.133333 0.231373
0.827451 0.14902 0.243137
0.858824 0.160784 0.247059
0.894118 0.192157 0.270588
0.917647 0.215686 0.266667
0.933333 0.243137 0.286275
0.941176 0.270588 0.294118
0.054902 0.0705882 0.0745098
0.0705882 0.0705882 0.0784314
0.137255 0.0705882 0.0941176
0.203922 0.0862745 0.0941176
0.298039 0.0941176 0.101961
0.388235 0.0941176 0.109804
0.513725 0.0941176 0.117647
0.631373 0.0941176 0.156863
0.721569 0.0941176 0.188235
0.776471 0.12549 0.203922
0.815686 0.156863 0.223529
0.85098 0.164706 0.231373
0.882353 0.184314 0.247059
0.905882 0.207843 0.25098
0.929412 0.235294 0.258824
0.937255 0.258824 0.27451
0.941176 0.278431 0.286275
0.0588235 0.0941176 0.0901961
0.0745098 0.0901961 0.0862745
0.109804 0.0941176 0.0862745
0.168627 0.101961 0.0941176
0.247059 0.109804 0.105882
0.333333 0.113725 0.0980392
0.443137 0.109804 0.105882
0.576471 0.109804 0.117647
0.694118 0.101961 0.160784
0.768627 0.109804 0.2
0.807843 0.14902 0.215686
0.847059 0.176471 0.211765
0.890196 0.2 0.243137
0.909804 0.215686 0.247059
0.929412 0.247059 0.254902
0.941176 0.27451 0.27451
0.941176 0.298039 0.290196
0.0705882 0.133333 0.0901961
0.0901961 0.137255 0.0980392
0.109804 0.133333 0.0941176
0.133333 0.133333 0.0941176
0.211765 0.137255 0.109804
0.309804 0.152941 0.105882
0.419608 0.152941 0.109804
0.564706 0.137255 0.117647
0.682353 0.137255 0.156863
0.764706 0.133333 0.192157
0.823529 0.152941 0.203922
0.858824 0.176471 0.215686
0.890196 0.211765 0.235294
0.921569 0.247059 0.239216
0.937255 0.27451 0.262745
0.945098 0.305882 0.278431
0.94902 0.329412 0.286275
0.0745098 0.160784 0.109804
0.0941176 0.168627 0.109804
0.113725 0.168627 0.109804
0.141176 0.172549 0.113725
0.192157 0.184314 0.109804
0.286275 0.188235 0.109804
0.376471 0.2 0.117647
0.517647 0.215686 0.137255
0.654902 0.211765 0.168627
0.760784 0.2 0.184314
0.819608 0.196078 0.203922
0.866667 0.2 0.211765
0.898039 0.223529 0.231373
0.933333 0.270588 0.25098
0.937255 0.317647 0.270588
0.952941 0.337255 0.278431
0.956863 0.364706 0.298039
0.0823529 0.207843 0.117647
0.0941176 0.215686 0.121569
0.113725 0.215686 0.117647
0.141176 0.219608 0.121569
0.172549 0.235294 0.133333
0.239216 0.25098 0.145098
0.360784 0.243137 0.133333
0.501961 0.262745 0.152941
0.643137 0.301961 0.196078
0.756863 0.32549 0.215686
0.815686 0.321569 0.231373
0.870588 0.32549 0.243137
0.898039 0.321569 0.243137
0.929412 0.329412 0.258824
0.941176 0.341176 0.270588
0.960784 0.372549 0.278431
0.960784 0.384314 0.294118
0.0980392 0.258824 0.141176
0.105882 0.258824 0.137255
0.121569 0.266667 0.145098
0.141176 0.262745 0.141176
0.172549 0.270588 0.145098
0.231373 0.294118 0.160784
0.317647 0.32549 0.164706
0.494118 0.321569 0.168627
0.647059 0.356863 0.211765
0.760784 0.380392 0.243137
0.823529 0.419608 0.258824
0.862745 0.435294 0.266667
0.898039 0.454902 0.282353
0.929412 0.462745 0.294118
0.945098 0.482353 0.301961
0.964706 0.47451 0.301961
0.964706 0.494118 0.313725
0.101961 0.298039 0.152941
0.109804 0.305882 0.156863
0.121569 0.305882 0.160784
0.14902 0.313725 0.156863
0.172549 0.321569 0.168627
0.207843 0.337255 0.172549
0.262745 0.372549 0.184314
0.403922 0.407843 0.203922
0.611765 0.407843 0.219608
0.752941 0.45098 0.254902
0.811765 0.47451 0.27451
0.870588 0.521569 0.294118
0.917647 0.552941 0.313725
0.929412 0.580392 0.321569
0.945098 0.603922 0.32549
0.960784 0.607843 0.329412
0.960784 0.607843 0.337255
0.109804 0.337255 0.176471
0.113725 0.356863 0.172549
0.129412 0.360784 0.172549
0.152941 0.364706 0.168627
0.164706 0.368627 0.176471
0.196078 0.384314 0.188235
0.247059 0.431373 0.2
0.345098 0.498039 0.243137
0.54902 0.498039 0.247059
0.72549 0.513725 0.270588
0.8 0.545098 0.294118
0.866667 0.580392 0.313725
0.913725 0.623529 0.32549
0.929412 0.643137 0.341176
0.933333 0.666667 0.341176
0.956863 0.682353 0.34902
0.956863 0.678431 0.360784
0.113725 0.392157 0.192157
0.121569 0.415686 0.196078
0.133333 0.419608 0.2
0.152941 0.427451 0.203922
0.164706 0.431373 0.2
0.196078 0.447059 0.207843
0.235294 0.470588 0.219608
0.313725 0.541176 0.243137
0.462745 0.643137 0.298039
0.643137 0.607843 0.298039
0.784314 0.607843 0.313725
0.85098 0.647059 0.333333
0.905882 0.682353 0.341176
0.92549 0.713725 0.356863
0.937255 0.729412 0.360784
0.952941 0.733333 0.360784
0.952941 0.733333 0.368627
0.129412 0.462745 0.215686
0.141176 0.482353 0.215686
0.152941 0.47451 0.215686
0.160784 0.486275 0.219608
0.172549 0.490196 0.223529
0.203922 0.498039 0.235294
0.25098 0.537255 0.25098
0.298039 0.584314 0.262745
0.411765 0.67451 0.301961
0.588235 0.745098 0.34902
0.760784 0.694118 0.341176
0.843137 0.705882 0.345098
0.894118 0.737255 0.360784
0.917647 0.764706 0.368627
0.933333 0.780392 0.376471
0.94902 0.780392 0.372549
0.94902 0.776471 0.376471
0.14902 0.521569 0.247059
0.156863 0.552941 0.247059
0.168627 0.552941 0.25098
0.176471 0.556863 0.254902
0.192157 0.552941 0.25098
0.207843 0.564706 0.254902
0.25098 0.596078 0.266667
0.294118 0.623529 0.278431
0.376471 0.698039 0.313725
0.52549 0.784314 0.360784
0.694118 0.823529 0.380392
0.8 0.788235 0.368627
0.882353 0.796078 0.380392
0.909804 0.803922 0.384314
0.92549 0.815686 0.384314
0.941176 0.823529 0.384314
0.941176 0.811765 0.388235
0.156863 0.596078 0.266667
0.168627 0.611765 0.27451
0.180392 0.611765 0.27451
0.196078 0.607843 0.27451
0.203922 0.611765 0.278431
0.219608 0.627451 0.278431
0.25098 0.639216 0.286275
0.298039 0.690196 0.305882
0.360784 0.733333 0.32549
0.454902 0.8 0.360784
0.643137 0.870588 0.396078
0.756863 0.890196 0.407843
0.858824 0.854902 0.4
0.901961 0.85098 0.4
0.921569 0.862745 0.403922
0.933333 0.858824 0.396078
0.937255 0.858824 0.403922
0.184314 0.647059 0.294118
0.196078 0.682353 0.298039
0.203922 0.678431 0.298039
0.207843 0.678431 0.298039
0.215686 0.678431 0.298039
0.235294 0.682353 0.298039
0.262745 0.701961 0.309804
0.305882 0.733333 0.321569
0.352941 0.768627 0.337255
0.431373 0.823529 0.364706
0.603922 0.901961 0.407843
0.752941 0.937255 0.427451
0.831373 0.937255 0.423529
0.890196 0.909804 0.411765
0.917647 0.901961 0.419608
0.929412 0.898039 0.411765
0.929412 0.886275 0.411765
0.203922 0.713725 0.321569
0.207843 0.737255 0.32549
0.219608 0.741176 0.329412
0.231373 0.741176 0.32549
0.239216 0.737255 0.32549
0.247059 0.741176 0.321569
0.266667 0.745098 0.329412
0.298039 0.772549 0.333333
0.356863 0.815686 0.356863
0.407843 0.843137 0.368627
0.517647 0.909804 0.4
0.694118 0.972549 0.431373
0.807843 0.988235 0.458824
0.87451 0.984314 0.45098
0.905882 0.952941 0.419608
0.933333 0.945098 0.423529
0.933333 0.921569 0.427451
0.211765 0.760784 0.341176
0.235294 0.796078 0.34902
0.239216 0.792157 0.34902
0.25098 0.792157 0.345098
0.254902 0.792157 0.345098
0.258824 0.796078 0.345098
0.270588 0.792157 0.341176
0.305882 0.811765 0.356863
0.364706 0.85098 0.372549
0.407843 0.882353 0.384314
0.482353 0.92549 0.407843
0.623529 0.980392 0.435294
0.764706 1 0.47451
0.862745 1 0.498039
0.917647 1 0.478431
0.92549 0.992157 0.439216
0.929412 0.960784 0.439216
0.231373 0.807843 0.356863
0.239216 0.803922 0.356863
0.247059 0.807843 0.356863
0.25098 0.807843 0.352941
0.254902 0.807843 0.356863
0.270588 0.807843 0.360784
0.278431 0.807843 0.364706
0.309804 0.827451 0.360784
0.364706 0.858824 0.376471
0.407843 0.890196 0.392157
0.462745 0.92549 0.407843
0.580392 0.972549 0.439216
0.72549 1 0.47451
0.819608 1 0.498039
0.898039 1 0.505882
0.92549 0.992157 0.47451
0.929412 0.992157 0.447059
0.0823529 0.0627451 0.117647
0.137255 0.0627451 0.137255
0.164706 0.0627451 0.105882
0.235294 0.0666667 0.101961
0.329412 0.0745098 0.0901961
0.411765 0.0745098 0.109804
0.498039 0.0745098 0.129412
0.584314 0.0941176 0.160784
0.654902 0.113725 0.211765
0.733333 0.129412 0.25098
0.796078 0.137255 0.262745
0.815686 0.152941 0.270588
0.85098 0.168627 0.27451
0.894118 0.196078 0.294118
0.917647 0.223529 0.294118
0.933333 0.247059 0.305882
0.941176 0.286275 0.313725
0.054902 0.0705882 0.105882
0.109804 0.0705882 0.12549
0.152941 0.0745098 0.109804
0.243137 0.0784314 0.0941176
0.301961 0.0901961 0.113725
0.364706 0.0980392 0.141176
0.494118 0.0941176 0.14902
0.596078 0.105882 0.172549
0.690196 0.113725 0.211765
0.768627 0.121569 0.247059
0.811765 0.152941 0.254902
0.843137 0.168627 0.254902
0.87451 0.180392 0.266667
0.905882 0.211765 0.282353
0.929412 0.239216 0.286275
0.941176 0.270588 0.298039
0.941176 0.294118 0.309804
0.054902 0.0941176 0.0980392
0.0745098 0.0941176 0.105882
0.105882 0.0980392 0.109804
0.156863 0.101961 0.113725
0.25098 0.113725 0.137255
0.345098 0.117647 0.113725
0.482353 0.105882 0.137255
0.596078 0.0980392 0.164706
0.686275 0.113725 0.196078
0.760784 0.141176 0.239216
0.815686 0.160784 0.239216
0.854902 0.184314 0.254902
0.890196 0.203922 0.270588
0.913725 0.223529 0.27451
0.933333 0.25098 0.290196
0.941176 0.278431 0.298039
0.941176 0.301961 0.298039
0.0627451 0.129412 0.109804
0.0862745 0.137255 0.109804
0.105882 0.129412 0.113725
0.133333 0.137255 0.117647
0.207843 0.137255 0.121569
0.313725 0.14902 0.133333
0.419608 0.164706 0.141176
0.537255 0.152941 0.141176
0.662745 0.152941 0.176471
0.764706 0.137255 0.215686
0.819608 0.172549 0.239216
0.85098 0.2 0.239216
0.894118 0.227451 0.258824
0.917647 0.247059 0.270588
0.941176 0.278431 0.290196
0.945098 0.301961 0.298039
0.945098 0.329412 0.309804
0.0705882 0.160784 0.121569
0.0901961 0.168627 0.12549
0.105882 0.168627 0.12549
0.137255 0.172549 0.137255
0.176471 0.176471 0.137255
0.282353 0.188235 0.141176
0.388235 0.207843 0.145098
0.541176 0.211765 0.160784
0.670588 0.2 0.188235
0.764706 0.196078 0.207843
0.835294 0.192157 0.231373
0.870588 0.203922 0.247059
0.901961 0.239216 0.258824
0.92549 0.278431 0.270588
0.941176 0.317647 0.294118
0.956863 0.345098 0.298039
0.956863 0.368627 0.313725
0.0784314 0.211765 0.145098
0.0901961 0.211765 0.141176
0.109804 0.215686 0.141176
0.141176 0.215686 0.141176
0.172549 0.231373 0.156863
0.239216 0.247059 0.160784
0.352941 0.243137 0.156863
0.505882 0.270588 0.168627
0.643137 0.298039 0.211765
0.74902 0.313725 0.235294
0.827451 0.305882 0.239216
0.862745 0.301961 0.247059
0.898039 0.305882 0.262745
0.933333 0.321569 0.27451
0.94902 0.337255 0.290196
0.960784 0.368627 0.301961
0.960784 0.388235 0.321569
0.0823529 0.25098 0.156863
0.0941176 0.262745 0.156863
0.109804 0.262745 0.160784
0.133333 0.262745 0.156863
0.172549 0.27451 0.168627
0.211765 0.294118 0.180392
0.309804 0.317647 0.192157
0.462745 0.321569 0.188235
0.627451 0.352941 0.219608
0.74902 0.384314 0.25098
0.815686 0.411765 0.27451
0.854902 0.427451 0.290196
0.894118 0.45098 0.298039
0.937255 0.458824 0.313725
0.941176 0.454902 0.313725
0.960784 0.45098 0.317647
0.960784 0.47451 0.32549
0.0941176 0.294118 0.164706
0.105882 0.313725 0.172549
0.113725 0.309804 0.172549
0.141176 0.313725 0.176471
0.172549 0.317647 0.184314
0.2 0.321569 0.188235
0.27451 0.376471 0.2
0.411765 0.403922 0.219608
0.596078 0.403922 0.243137
0.733333 0.45098 0.27451
0.807843 0.486275 0.298039
0.866667 0.52549 0.317647
0.909804 0.541176 0.329412
0.937255 0.572549 0.341176
0.952941 0.584314 0.341176
0.960784 0.592157 0.341176
0.960784 0.6 0.352941
0.0980392 0.341176 0.188235
0.109804 0.352941 0.192157
0.117647 0.352941 0.192157
0.137255 0.360784 0.192157
0.164706 0.364706 0.196078
0.196078 0.380392 0.2
0.25098 0.419608 0.211765
0.341176 0.482353 0.243137
0.52549 0.494118 0.254902
0.713725 0.509804 0.282353
0.796078 0.552941 0.313725
0.854902 0.576471 0.333333
0.901961 0.611765 0.333333
0.933333 0.643137 0.356863
0.937255 0.654902 0.360784
0.952941 0.67451 0.368627
0.952941 0.67451 0.372549
0.105882 0.396078 0.203922
0.117647 0.419608 0.215686
0.12549 0.411765 0.203922
0.145098 0.419608 0.207843
0.160784 0.427451 0.215686
0.196078 0.443137 0.223529
0.239216 0.47451 0.239216
0.313725 0.533333 0.254902
0.447059 0.631373 0.313725
0.65098 0.603922 0.313725
0.784314 0.615686 0.32549
0.85098 0.643137 0.345098
0.905882 0.682353 0.360784
0.921569 0.709804 0.364706
0.937255 0.72549 0.372549
0.952941 0.737255 0.384314
0.956863 0.737255 0.392157
0.121569 0.466667 0.239216
0.141176 0.490196 0.239216
0.145098 0.482353 0.243137
0.164706 0.486275 0.243137
0.172549 0.494118 0.239216
0.203922 0.501961 0.25098
0.239216 0.537255 0.254902
0.294118 0.576471 0.278431
0.388235 0.654902 0.313725
0.580392 0.741176 0.364706
0.729412 0.698039 0.345098
0.835294 0.701961 0.352941
0.886275 0.733333 0.368627
0.921569 0.752941 0.380392
0.933333 0.776471 0.396078
0.945098 0.780392 0.388235
0.952941 0.776471 0.396078
0.14902 0.52549 0.262745
0.160784 0.552941 0.266667
0.168627 0.552941 0.266667
0.172549 0.54902 0.258824
0.192157 0.552941 0.258824
0.207843 0.564706 0.266667
0.243137 0.592157 0.278431
0.298039 0.631373 0.298039
0.368627 0.686275 0.321569
0.52549 0.784314 0.368627
0.690196 0.823529 0.4
0.815686 0.784314 0.380392
0.882353 0.792157 0.388235
0.909804 0.803922 0.4
0.92549 0.819608 0.4
0.937255 0.827451 0.4
0.941176 0.819608 0.403922
0.164706 0.588235 0.290196
0.172549 0.619608 0.286275
0.172549 0.611765 0.282353
0.192157 0.611765 0.290196
0.2 0.611765 0.282353
0.219608 0.619608 0.290196
0.25098 0.643137 0.305882
0.294118 0.682353 0.317647
0.34902 0.72549 0.329412
0.458824 0.796078 0.368627
0.639216 0.870588 0.4
0.768627 0.890196 0.423529
0.843137 0.854902 0.403922
0.901961 0.858824 0.407843
0.921569 0.862745 0.411765
0.937255 0.858824 0.415686
0.937255 0.854902 0.415686
0.192157 0.654902 0.317647
0.196078 0.690196 0.321569
0.2 0.686275 0.317647
0.211765 0.686275 0.313725
0.211765 0.678431 0.309804
0.231373 0.682353 0.317647
0.254902 0.701961 0.32549
0.298039 0.733333 0.333333
0.34902 0.772549 0.345098
0.419608 0.823529 0.372549
0.568627 0.886275 0.407843
0.729412 0.933333 0.439216
0.819608 0.945098 0.454902
0.890196 0.905882 0.423529
0.909804 0.901961 0.431373
0.937255 0.901961 0.427451
0.937255 0.886275 0.427451
0.2 0.717647 0.337255
0.207843 0.745098 0.337255
0.211765 0.741176 0.337255
0.227451 0.741176 0.333333
0.243137 0.741176 0.337255
0.243137 0.741176 0.329412
0.254902 0.745098 0.337255
0.301961 0.780392 0.352941
0.352941 0.811765 0.364706
0.411765 0.847059 0.376471
0.52549 0.901961 0.411765
0.705882 0.968627 0.45098
0.811765 0.992157 0.466667
0.870588 0.980392 0.458824
0.905882 0.952941 0.439216
0.933333 0.945098 0.439216
0.933333 0.92549 0.439216
0.219608 0.772549 0.364706
0.235294 0.796078 0.352941
0.235294 0.792157 0.360784
0.247059 0.796078 0.356863
0.25098 0.792157 0.356863
0.262745 0.784314 0.356863
0.27451 0.792157 0.360784
0.298039 0.811765 0.364706
0.360784 0.85098 0.380392
0.411765 0.882353 0.396078
0.478431 0.917647 0.415686
0.623529 0.976471 0.45098
0.764706 1 0.482353
0.858824 1 0.505882
0.917647 1 0.486275
0.92549 0.992157 0.45098
0.929412 0.960784 0.45098
0.231373 0.811765 0.372549
0.235294 0.807843 0.372549
0.247059 0.811765 0.368627
0.254902 0.811765 0.372549
0.270588 0.811765 0.372549
0.266667 0.807843 0.368627
0.27451 0.803922 0.368627
0.313725 0.835294 0.384314
0.360784 0.866667 0.392157
0.407843 0.890196 0.403922
0.462745 0.92549 0.415686
0.584314 0.976471 0.45098
0.721569 0.996078 0.486275
0.819608 1 0.509804
0.890196 1 0.521569
0.929412 0.996078 0.494118
0.929412 0.996078 0.454902
0.0941176 0.0823529 0.156863
0.137255 0.0784314 0.168627
0.172549 0.0784314 0.172549
0.207843 0.0745098 0.133333
0.317647 0.0745098 0.113725
0.388235 0.0745098 0.109804
0.513725 0.0784314 0.105882
0.611765 0.0745098 0.145098
0.678431 0.109804 0.176471
0.745098 0.113725 0.235294
0.792157 0.133333 0.262745
0.811765 0.164706 0.282353
0.847059 0.188235 0.290196
0.878431 0.239216 0.321569
0.917647 0.247059 0.321569
0.933333 0.27451 0.341176
0.94902 0.305882 0.337255
0.0588235 0.0980392 0.137255
0.0941176 0.101961 0.152941
0.14902 0.0941176 0.184314
0.2 0.0901961 0.145098
0.321569 0.0901961 0.113725
0.439216 0.0901961 0.105882
0.556863 0.0862745 0.141176
0.615686 0.101961 0.168627
0.686275 0.121569 0.223529
0.72549 0.184314 0.262745
0.788235 0.192157 0.27451
0.835294 0.2 0.294118
0.87451 0.2 0.301961
0.905882 0.231373 0.317647
0.929412 0.254902 0.321569
