assets/luts/cinematic/CineMagic NT N30P.cube
#Generated by Picture Instruments - Unlimited Filters
TITLE "CineMagic NT N30P"
LUT_3D_SIZE 9
0.00392157 0 0
0.054902 0.00784314 0.00784314
0.14902 0.00784314 0.00784314
0.305882 0.0156863 0.0117647
0.537255 0.0313725 0.0313725
0.717647 0.0431373 0.0431373
0.835294 0.0509804 0.0509804
0.901961 0.0705882 0.054902
0.945098 0.0784314 0.0588235
0.00784314 0.0156863 0.00392157
0.054902 0.0196078 0
0.152941 0.0313725 0.0117647
0.321569 0.054902 0.0117647
0.564706 0.0941176 0.0313725
0.741176 0.105882 0.0470588
0.835294 0.12549 0.0509804
0.901961 0.152941 0.0509804
0.941176 0.160784 0.0509804
0.00784314 0.109804 0.00392157
0.0588235 0.0941176 0.0117647
0.141176 0.0941176 0.00784314
0.305882 0.129412 0.0156863
0.560784 0.192157 0.0313725
0.729412 0.215686 0.0431373
0.843137 0.235294 0.0470588
0.905882 0.27451 0.0588235
0.945098 0.266667 0.0588235
0.0117647 0.266667 0.00784314
0.0588235 0.247059 0.00392157
0.168627 0.290196 0.0156863
0.32549 0.266667 0.0117647
0.6 0.333333 0.0392157
0.752941 0.364706 0.0470588
0.854902 0.403922 0.054902
0.901961 0.419608 0.0509804
0.941176 0.431373 0.0588235
0.0196078 0.486275 0.0156863
0.0745098 0.498039 0.0196078
0.160784 0.498039 0.0196078
0.356863 0.552941 0.0235294
0.584314 0.498039 0.0313725
0.752941 0.521569 0.0509804
0.85098 0.564706 0.0509804
0.898039 0.576471 0.0470588
0.941176 0.564706 0.0431373
0.0235294 0.686275 0.027451
0.0823529 0.682353 0.0235294
0.176471 0.694118 0.0235294
0.368627 0.721569 0.0352941
0.611765 0.729412 0.0470588
0.760784 0.686275 0.0431373
0.847059 0.701961 0.0509804
0.898039 0.709804 0.0431373
0.945098 0.705882 0.0470588
0.0392157 0.815686 0.027451
0.0862745 0.811765 0.027451
0.2 0.819608 0.0313725
0.376471 0.823529 0.0313725
0.623529 0.835294 0.0509804
0.768627 0.839216 0.054902
0.847059 0.815686 0.0509804
0.905882 0.811765 0.0509804
0.937255 0.811765 0.0431373
0.0392157 0.901961 0.0313725
0.0941176 0.894118 0.0235294
0.203922 0.905882 0.0313725
0.384314 0.905882 0.0392157
0.607843 0.909804 0.0470588
0.752941 0.913725 0.0588235
0.854902 0.905882 0.0745098
0.905882 0.901961 0.0588235
0.941176 0.894118 0.0470588
0.0352941 0.941176 0.0352941
0.101961 0.945098 0.0313725
0.219608 0.945098 0.0352941
0.376471 0.945098 0.0352941
0.6 0.945098 0.0470588
0.74902 0.945098 0.0627451
0.85098 0.945098 0.0705882
0.905882 0.945098 0.0627451
0.941176 0.945098 0.0666667
0.00392157 0.00392157 0.0117647
0.0470588 0.00784314 0.0117647
0.133333 0.00784314 0.027451
0.290196 0.0156863 0.0470588
0.533333 0.0392157 0.0862745
0.72549 0.0509804 0.113725
0.831373 0.054902 0.121569
0.905882 0.0745098 0.121569
0.945098 0.0823529 0.113725
0.00392157 0.027451 0.0117647
0.054902 0.0156863 0.0196078
0.14902 0.0313725 0.0313725
0.305882 0.054902 0.0470588
0.529412 0.0901961 0.0980392
0.721569 0.101961 0.0980392
0.839216 0.12549 0.113725
0.898039 0.141176 0.121569
0.945098 0.160784 0.121569
0.00784314 0.109804 0.027451
0.0627451 0.0980392 0.0313725
0.145098 0.0823529 0.0235294
0.32549 0.137255 0.0588235
0.556863 0.2 0.0941176
0.737255 0.211765 0.0980392
0.843137 0.235294 0.117647
0.905882 0.25098 0.117647
0.941176 0.266667 0.117647
0.00784314 0.282353 0.0470588
0.0588235 0.270588 0.0431373
0.14902 0.262745 0.0431373
0.317647 0.247059 0.0509804
0.556863 0.32549 0.0980392
0.74902 0.364706 0.109804
0.839216 0.392157 0.113725
0.898039 0.423529 0.105882
0.941176 0.431373 0.117647
0.0117647 0.505882 0.0745098
0.0666667 0.482353 0.0627451
0.156863 0.494118 0.0666667
0.356863 0.54902 0.0901961
0.592157 0.501961 0.0941176
0.756863 0.52549 0.109804
0.843137 0.556863 0.105882
0.901961 0.572549 0.117647
0.937255 0.572549 0.113725
0.0235294 0.705882 0.0901961
0.0705882 0.686275 0.0862745
0.168627 0.698039 0.0862745
0.329412 0.701961 0.0901961
0.596078 0.733333 0.0980392
0.752941 0.694118 0.101961
0.843137 0.698039 0.109804
0.898039 0.72549 0.109804
0.941176 0.713725 0.117647
0.0235294 0.823529 0.0901961
0.0823529 0.819608 0.0941176
0.180392 0.819608 0.0941176
0.360784 0.827451 0.0901961
0.603922 0.839216 0.117647
0.760784 0.839216 0.113725
0.85098 0.815686 0.113725
0.901961 0.815686 0.105882
0.937255 0.815686 0.105882
0.0313725 0.898039 0.105882
0.0941176 0.901961 0.0980392
0.192157 0.894118 0.0901961
0.380392 0.901961 0.105882
0.592157 0.901961 0.105882
0.760784 0.909804 0.137255
0.854902 0.909804 0.137255
0.905882 0.894118 0.113725
0.937255 0.890196 0.105882
0.0313725 0.941176 0.109804
0.101961 0.945098 0.0980392
0.215686 0.941176 0.0980392
0.384314 0.94902 0.101961
0.588235 0.94902 0.117647
0.741176 0.941176 0.133333
0.85098 0.941176 0.141176
0.909804 0.941176 0.141176
0.945098 0.941176 0.137255
0.00784314 0.0117647 0.0901961
0.054902 0.00784314 0.0862745
0.12549 0.00392157 0.0627451
0.270588 0.0156863 0.101961
0.505882 0.0352941 0.172549
0.713725 0.054902 0.192157
0.839216 0.0627451 0.207843
0.901961 0.0745098 0.207843
0.941176 0.0823529 0.223529
0.00784314 0.0431373 0.0784314
0.0470588 0.0352941 0.0745098
0.121569 0.0313725 0.0705882
0.27451 0.0509804 0.109804
0.490196 0.0941176 0.172549
0.729412 0.121569 0.184314
0.839216 0.137255 0.219608
0.901961 0.14902 0.223529
0.941176 0.160784 0.211765
0.00784314 0.129412 0.0705882
0.0470588 0.109804 0.0705882
0.133333 0.0980392 0.0705882
0.305882 0.137255 0.113725
0.537255 0.192157 0.164706
0.733333 0.207843 0.2
0.839216 0.219608 0.196078
0.901961 0.243137 0.207843
0.941176 0.25098 0.215686
0.0117647 0.333333 0.145098
0.0588235 0.290196 0.117647
0.141176 0.262745 0.101961
0.301961 0.239216 0.109804
0.576471 0.333333 0.180392
0.745098 0.356863 0.192157
0.847059 0.392157 0.2
0.905882 0.411765 0.211765
0.941176 0.415686 0.211765
0.0117647 0.556863 0.207843
0.0588235 0.517647 0.172549
0.156863 0.509804 0.164706
0.317647 0.517647 0.156863
0.564706 0.494118 0.172549
0.733333 0.513725 0.188235
0.843137 0.556863 0.188235
0.901961 0.576471 0.2
0.937255 0.588235 0.203922
0.0196078 0.72549 0.231373
0.0627451 0.701961 0.203922
0.168627 0.694118 0.172549
0.317647 0.698039 0.176471
0.588235 0.733333 0.188235
0.752941 0.682353 0.188235
0.854902 0.698039 0.211765
0.901961 0.713725 0.196078
0.945098 0.721569 0.211765
0.0196078 0.835294 0.223529
0.0705882 0.831373 0.207843
0.152941 0.819608 0.196078
0.337255 0.835294 0.188235
0.556863 0.839216 0.203922
0.752941 0.839216 0.207843
0.843137 0.819608 0.2
0.901961 0.811765 0.203922
0.941176 0.815686 0.192157
0.027451 0.898039 0.258824
0.0745098 0.901961 0.207843
0.180392 0.894118 0.184314
0.34902 0.901961 0.207843
0.572549 0.901961 0.211765
0.741176 0.905882 0.231373
0.847059 0.909804 0.239216
0.905882 0.894118 0.2
0.945098 0.890196 0.196078
0.0235294 0.941176 0.266667
0.0745098 0.945098 0.227451
0.196078 0.945098 0.196078
0.360784 0.94902 0.2
0.568627 0.945098 0.215686
0.733333 0.945098 0.239216
0.847059 0.945098 0.231373
0.905882 0.941176 0.25098
0.937255 0.937255 0.235294
0.0117647 0.0313725 0.290196
0.0470588 0.0235294 0.27451
0.113725 0.0156863 0.239216
0.239216 0.027451 0.219608
0.443137 0.0313725 0.254902
0.67451 0.0588235 0.321569
0.823529 0.0745098 0.345098
0.901961 0.0941176 0.345098
0.945098 0.0941176 0.333333
0.00392157 0.0823529 0.278431
0.0470588 0.0705882 0.27451
0.117647 0.0627451 0.254902
0.239216 0.0509804 0.2
0.45098 0.0941176 0.266667
0.694118 0.137255 0.32549
0.827451 0.156863 0.333333
0.909804 0.176471 0.352941
0.945098 0.168627 0.321569
0.00784314 0.207843 0.290196
0.0470588 0.168627 0.247059
0.113725 0.172549 0.262745
0.239216 0.145098 0.231373
0.482353 0.2 0.286275
0.694118 0.231373 0.32549
0.835294 0.25098 0.32549
0.901961 0.278431 0.34902
0.941176 0.270588 0.333333
0.00392157 0.32549 0.239216
0.0470588 0.305882 0.262745
0.105882 0.294118 0.247059
0.254902 0.278431 0.25098
0.533333 0.333333 0.329412
0.733333 0.352941 0.32549
0.839216 0.376471 0.337255
0.901961 0.392157 0.305882
0.941176 0.4 0.317647
0.0117647 0.54902 0.376471
0.054902 0.576471 0.376471
0.117647 0.541176 0.34902
0.294118 0.52549 0.313725
0.537255 0.498039 0.305882
0.74902 0.541176 0.337255
0.843137 0.568627 0.32549
0.905882 0.580392 0.309804
0.941176 0.584314 0.317647
0.0156863 0.756863 0.447059
0.0431373 0.741176 0.411765
0.121569 0.721569 0.364706
0.278431 0.72549 0.341176
0.529412 0.721569 0.309804
0.741176 0.694118 0.309804
0.843137 0.705882 0.313725
0.901961 0.729412 0.317647
0.933333 0.721569 0.317647
0.0156863 0.843137 0.462745
0.054902 0.839216 0.419608
0.121569 0.839216 0.392157
0.321569 0.827451 0.313725
0.533333 0.827451 0.337255
0.74902 0.847059 0.34902
0.843137 0.815686 0.305882
0.905882 0.815686 0.313725
0.941176 0.811765 0.301961
0.0235294 0.909804 0.478431
0.0588235 0.905882 0.407843
0.129412 0.905882 0.376471
0.305882 0.901961 0.341176
0.545098 0.909804 0.337255
0.713725 0.901961 0.345098
0.843137 0.909804 0.360784
0.901961 0.894118 0.317647
0.945098 0.890196 0.317647
0.0156863 0.94902 0.490196
0.0509804 0.945098 0.439216
0.121569 0.941176 0.411765
0.341176 0.94902 0.32549
0.545098 0.945098 0.345098
0.721569 0.945098 0.376471
0.831373 0.945098 0.368627
0.913725 0.945098 0.376471
0.941176 0.941176 0.372549
0.0117647 0.0666667 0.545098
0.054902 0.054902 0.537255
0.12549 0.0470588 0.490196
0.219608 0.0431373 0.435294
0.407843 0.0470588 0.388235
0.643137 0.0627451 0.431373
0.815686 0.0862745 0.47451
0.905882 0.109804 0.533333
0.945098 0.113725 0.552941
0.0117647 0.156863 0.513725
0.0392157 0.14902 0.541176
0.121569 0.121569 0.513725
0.211765 0.101961 0.443137
0.388235 0.105882 0.403922
0.647059 0.129412 0.427451
0.811765 0.160784 0.458824
0.898039 0.192157 0.533333
0.94902 0.207843 0.545098
0.0117647 0.286275 0.537255
0.0431373 0.266667 0.529412
0.109804 0.25098 0.541176
0.215686 0.207843 0.494118
0.411765 0.188235 0.396078
0.67451 0.235294 0.454902
0.827451 0.278431 0.486275
0.905882 0.309804 0.533333
0.945098 0.313725 0.541176
0.0117647 0.419608 0.533333
0.0431373 0.427451 0.541176
0.0901961 0.388235 0.513725
0.207843 0.403922 0.541176
0.423529 0.34902 0.466667
0.698039 0.4 0.501961
0.827451 0.415686 0.533333
0.905882 0.439216 0.517647
0.945098 0.435294 0.521569
0.00392157 0.564706 0.541176
0.0431373 0.552941 0.509804
0.0862745 0.556863 0.521569
0.180392 0.552941 0.521569
0.470588 0.54902 0.552941
0.72549 0.572549 0.552941
0.843137 0.576471 0.52549
0.909804 0.588235 0.541176
0.941176 0.580392 0.513725
0.00784314 0.733333 0.6
0.0352941 0.729412 0.603922
0.0862745 0.74902 0.596078
0.184314 0.72549 0.564706
0.498039 0.72549 0.529412
0.733333 0.709804 0.521569
0.854902 0.737255 0.541176
0.913725 0.733333 0.501961
0.945098 0.733333 0.482353
0.0156863 0.854902 0.654902
0.0431373 0.854902 0.635294
0.0862745 0.847059 0.607843
0.192157 0.835294 0.564706
0.494118 0.839216 0.541176
0.721569 0.839216 0.501961
0.847059 0.827451 0.470588
0.905882 0.827451 0.478431
0.945098 0.827451 0.470588
0.0117647 0.913725 0.670588
0.0470588 0.905882 0.639216
0.0941176 0.905882 0.623529
0.203922 0.901961 0.596078
0.529412 0.905882 0.513725
0.717647 0.901961 0.52549
0.847059 0.909804 0.52549
0.901961 0.894118 0.45098
0.937255 0.890196 0.439216
0.0156863 0.937255 0.682353
0.0431373 0.941176 0.654902
0.0901961 0.945098 0.619608
0.235294 0.941176 0.552941
0.545098 0.945098 0.517647
0.709804 0.94902 0.533333
0.839216 0.945098 0.529412
0.913725 0.945098 0.537255
0.945098 0.941176 0.521569
0.00784314 0.109804 0.72549
0.0392157 0.0941176 0.72549
0.113725 0.0745098 0.666667
0.219608 0.0745098 0.647059
0.364706 0.0784314 0.603922
0.596078 0.0784314 0.556863
0.807843 0.0862745 0.596078
0.898039 0.105882 0.647059
0.941176 0.129412 0.717647
0.00392157 0.211765 0.713725
0.0470588 0.203922 0.729412
0.113725 0.164706 0.705882
0.219608 0.156863 0.643137
0.360784 0.145098 0.615686
0.635294 0.156863 0.552941
0.8 0.160784 0.580392
0.901961 0.207843 0.666667
0.94902 0.227451 0.709804
0.00784314 0.360784 0.737255
0.0392157 0.337255 0.713725
0.0941176 0.317647 0.729412
0.2 0.282353 0.698039
0.360784 0.254902 0.635294
0.631373 0.270588 0.603922
0.811765 0.270588 0.603922
0.901961 0.317647 0.678431
0.952941 0.34902 0.72549
0.00784314 0.490196 0.72549
0.0313725 0.478431 0.72549
0.0980392 0.470588 0.721569
0.184314 0.458824 0.729412
0.372549 0.419608 0.701961
0.658824 0.388235 0.635294
0.815686 0.423529 0.658824
0.913725 0.470588 0.721569
0.945098 0.47451 0.729412
0.00392157 0.623529 0.713725
0.0352941 0.603922 0.717647
0.0862745 0.615686 0.729412
0.152941 0.596078 0.713725
0.356863 0.603922 0.741176
0.670588 0.592157 0.690196
0.839216 0.631373 0.701961
0.901961 0.639216 0.705882
0.941176 0.635294 0.705882
0.00784314 0.729412 0.729412
0.0313725 0.729412 0.729412
0.0745098 0.72549 0.709804
0.14902 0.721569 0.717647
0.360784 0.729412 0.72549
0.717647 0.760784 0.694118
0.847059 0.780392 0.709804
0.913725 0.776471 0.690196
0.945098 0.768627 0.67451
0.00784314 0.847059 0.752941
0.0313725 0.843137 0.760784
0.0627451 0.835294 0.764706
0.164706 0.847059 0.752941
0.317647 0.835294 0.741176
0.745098 0.858824 0.678431
0.847059 0.843137 0.654902
0.909804 0.85098 0.678431
0.94902 0.847059 0.631373
0.00784314 0.905882 0.792157
0.0313725 0.913725 0.780392
0.0627451 0.905882 0.772549
0.156863 0.909804 0.764706
0.352941 0.913725 0.745098
0.721569 0.909804 0.666667
0.835294 0.909804 0.65098
0.913725 0.898039 0.607843
0.945098 0.901961 0.607843
0.00784314 0.945098 0.796078
0.0313725 0.94902 0.792157
0.0705882 0.945098 0.772549
0.172549 0.945098 0.756863
0.368627 0.941176 0.733333
0.72549 0.945098 0.666667
0.823529 0.945098 0.654902
0.909804 0.945098 0.658824
0.945098 0.941176 0.639216
0.00784314 0.156863 0.835294
0.0352941 0.141176 0.843137
0.101961 0.109804 0.827451
0.207843 0.117647 0.819608
0.329412 0.0980392 0.788235
0.533333 0.117647 0.788235
0.780392 0.109804 0.764706
0.894118 0.121569 0.780392
0.945098 0.129412 0.811765
0.00784314 0.270588 0.831373
0.0352941 0.254902 0.839216
0.0941176 0.231373 0.827451
0.203922 0.188235 0.8
0.329412 0.192157 0.792157
0.560784 0.207843 0.792157
0.788235 0.203922 0.768627
0.898039 0.215686 0.8
0.94902 0.227451 0.8
0.00392157 0.411765 0.839216
0.0352941 0.388235 0.827451
0.0901961 0.364706 0.839216
0.184314 0.333333 0.823529
0.337255 0.309804 0.803922
0.541176 0.301961 0.8
0.807843 0.309804 0.772549
0.901961 0.321569 0.792157
0.952941 0.34902 0.827451
0.00784314 0.541176 0.827451
0.027451 0.537255 0.843137
0.0705882 0.505882 0.827451
0.168627 0.498039 0.843137
0.301961 0.470588 0.831373
0.564706 0.447059 0.815686
0.811765 0.447059 0.803922
0.898039 0.470588 0.796078
0.94902 0.486275 0.827451
0.00392157 0.67451 0.843137
0.0313725 0.662745 0.843137
0.0705882 0.65098 0.839216
0.156863 0.643137 0.843137
0.298039 0.631373 0.843137
0.603922 0.631373 0.843137
0.827451 0.603922 0.803922
0.901961 0.635294 0.819608
0.941176 0.658824 0.827451
0.0117647 0.768627 0.835294
0.027451 0.760784 0.835294
0.0588235 0.752941 0.831373
0.145098 0.756863 0.843137
0.270588 0.74902 0.831373
0.65098 0.776471 0.835294
0.823529 0.776471 0.815686
0.913725 0.796078 0.827451
0.945098 0.788235 0.819608
0.00392157 0.843137 0.843137
0.027451 0.835294 0.835294
0.054902 0.839216 0.839216
0.129412 0.835294 0.831373
0.270588 0.843137 0.843137
0.635294 0.854902 0.819608
0.85098 0.866667 0.811765
0.917647 0.870588 0.823529
0.952941 0.870588 0.815686
0.00784314 0.901961 0.85098
0.0196078 0.905882 0.85098
0.0509804 0.905882 0.85098
0.12549 0.901961 0.85098
0.27451 0.905882 0.847059
0.588235 0.905882 0.839216
0.854902 0.917647 0.811765
0.913725 0.909804 0.788235
0.94902 0.909804 0.788235
0.00392157 0.941176 0.862745
0.0196078 0.941176 0.858824
0.0470588 0.937255 0.858824
0.133333 0.945098 0.854902
0.286275 0.945098 0.847059
0.623529 0.945098 0.831373
0.839216 0.94902 0.792157
0.913725 0.952941 0.8
0.941176 0.945098 0.780392
0.00784314 0.180392 0.905882
0.027451 0.164706 0.901961
0.105882 0.137255 0.901961
0.203922 0.137255 0.898039
0.317647 0.133333 0.894118
0.466667 0.141176 0.894118
0.741176 0.156863 0.901961
0.901961 0.145098 0.886275
0.94902 0.145098 0.890196
0.00784314 0.321569 0.898039
0.0313725 0.290196 0.901961
0.0823529 0.290196 0.901961
0.176471 0.243137 0.894118
0.317647 0.254902 0.905882
0.462745 0.239216 0.886275
0.74902 0.258824 0.894118
0.890196 0.243137 0.890196
0.94902 0.243137 0.890196
0.00392157 0.462745 0.905882
0.027451 0.439216 0.901961
0.0823529 0.411765 0.901961
0.168627 0.396078 0.901961
0.309804 0.360784 0.890196
0.490196 0.364706 0.901961
0.780392 0.376471 0.898039
0.894118 0.352941 0.890196
0.94902 0.364706 0.890196
0.00392157 0.588235 0.901961
0.0235294 0.572549 0.905882
0.0745098 0.54902 0.898039
0.168627 0.533333 0.905882
0.290196 0.505882 0.901961
0.513725 0.494118 0.898039
0.772549 0.486275 0.898039
0.905882 0.490196 0.886275
0.94902 0.498039 0.894118
0.00392157 0.694118 0.905882
0.0313725 0.686275 0.901961
0.0627451 0.67451 0.905882
0.137255 0.670588 0.905882
0.27451 0.658824 0.905882
0.498039 0.65098 0.905882
0.796078 0.662745 0.898039
0.898039 0.643137 0.901961
0.945098 0.654902 0.894118
0.0117647 0.792157 0.913725
0.0196078 0.784314 0.901961
0.0588235 0.776471 0.901961
0.129412 0.768627 0.905882
0.270588 0.768627 0.905882
0.513725 0.764706 0.905882
0.811765 0.784314 0.905882
0.909804 0.780392 0.894118
0.941176 0.788235 0.894118
0.00392157 0.85098 0.894118
0.0196078 0.85098 0.898039
0.0392157 0.847059 0.901961
0.105882 0.843137 0.901961
0.239216 0.85098 0.909804
0.486275 0.847059 0.905882
0.831373 0.87451 0.898039
0.909804 0.866667 0.898039
0.945098 0.870588 0.890196
0.00784314 0.901961 0.905882
0.0196078 0.901961 0.909804
0.0470588 0.901961 0.905882
0.101961 0.901961 0.905882
0.227451 0.905882 0.898039
0.501961 0.905882 0.901961
0.827451 0.917647 0.894118
0.913725 0.92549 0.890196
0.94902 0.917647 0.890196
0.00392157 0.937255 0.913725
0.0117647 0.933333 0.909804
0.0352941 0.937255 0.909804
0.0980392 0.941176 0.909804
0.235294 0.941176 0.905882
0.462745 0.941176 0.909804
0.807843 0.945098 0.894118
0.909804 0.94902 0.890196
0.945098 0.945098 0.886275
0.00392157 0.2 0.941176
0.0313725 0.176471 0.941176
0.0901961 0.160784 0.945098
0.2 0.152941 0.941176
0.298039 0.14902 0.937255
0.435294 0.156863 0.937255
0.709804 0.172549 0.94902
0.890196 0.160784 0.941176
0.94902 0.152941 0.945098
0.00784314 0.337255 0.945098
0.027451 0.309804 0.941176
0.0823529 0.294118 0.941176
0.184314 0.266667 0.941176
0.301961 0.254902 0.937255
0.439216 0.262745 0.937255
0.709804 0.270588 0.941176
0.890196 0.270588 0.945098
0.945098 0.262745 0.941176
0.00784314 0.470588 0.941176
0.027451 0.447059 0.941176
0.0705882 0.431373 0.945098
0.164706 0.407843 0.933333
0.305882 0.392157 0.941176
0.466667 0.380392 0.937255
0.741176 0.396078 0.941176
0.894118 0.384314 0.941176
0.94902 0.376471 0.945098
0.00784314 0.611765 0.937255
0.0196078 0.588235 0.941176
0.0627451 0.572549 0.945098
0.145098 0.552941 0.941176
0.278431 0.537255 0.945098
0.439216 0.52549 0.94902
0.733333 0.52549 0.94902
0.890196 0.52549 0.945098
0.945098 0.509804 0.945098
0.00392157 0.705882 0.945098
0.0235294 0.701961 0.941176
0.054902 0.690196 0.945098
0.133333 0.682353 0.941176
0.266667 0.666667 0.945098
0.423529 0.654902 0.941176
0.768627 0.678431 0.94902
0.894118 0.670588 0.94902
0.945098 0.666667 0.945098
0.00392157 0.792157 0.941176
0.0196078 0.792157 0.945098
0.0470588 0.784314 0.941176
0.113725 0.780392 0.94902
0.235294 0.772549 0.94902
0.427451 0.764706 0.945098
0.776471 0.788235 0.945098
0.901961 0.788235 0.94902
0.945098 0.780392 0.952941
0 0.858824 0.941176
0.0117647 0.85098 0.941176
0.0352941 0.85098 0.941176
0.105882 0.847059 0.941176
0.235294 0.847059 0.941176
0.462745 0.843137 0.941176
0.8 0.862745 0.94902
0.905882 0.870588 0.941176
0.945098 0.866667 0.941176
0 0.901961 0.941176
0.0117647 0.898039 0.941176
0.0352941 0.905882 0.945098
0.101961 0.901961 0.941176
0.227451 0.901961 0.94902
0.435294 0.898039 0.941176
0.811765 0.909804 0.945098
0.913725 0.921569 0.94902
0.94902 0.913725 0.945098
0.00392157 0.937255 0.941176
0.00392157 0.933333 0.941176
0.027451 0.937255 0.941176
0.0941176 0.933333 0.937255
0.215686 0.937255 0.937255
0.466667 0.941176 0.945098
0.8 0.937255 0.945098
0.905882 0.945098 0.941176
0.945098 0.94902 0.941176
