assets/luts/cinematic/CineMagic NT N30V1.cube
#Generated by Picture Instruments - Unlimited Filters
TITLE "CineMagic NT N30V1"
LUT_3D_SIZE 9
0.0901961 0.0509804 0.054902
0.12549 0.0705882 0.0705882
0.211765 0.121569 0.0980392
0.329412 0.160784 0.0941176
0.509804 0.211765 0.14902
0.698039 0.262745 0.188235
0.811765 0.32549 0.215686
0.890196 0.411765 0.25098
0.909804 0.478431 0.254902
0.0941176 0.0941176 0.0784314
0.121569 0.0901961 0.0784314
0.211765 0.133333 0.0980392
0.345098 0.184314 0.0980392
0.54902 0.231373 0.14902
0.72549 0.286275 0.2
0.827451 0.32549 0.219608
0.901961 0.4 0.247059
0.909804 0.478431 0.258824
0.0980392 0.2 0.0941176
0.113725 0.184314 0.0980392
0.2 0.160784 0.113725
0.352941 0.215686 0.101961
0.564706 0.298039 0.160784
0.733333 0.360784 0.203922
0.843137 0.419608 0.235294
0.905882 0.490196 0.254902
0.909804 0.545098 0.258824
0.0941176 0.301961 0.129412
0.109804 0.301961 0.12549
0.2 0.333333 0.137255
0.364706 0.290196 0.133333
0.619608 0.356863 0.180392
0.776471 0.435294 0.211765
0.87451 0.505882 0.254902
0.909804 0.588235 0.266667
0.909804 0.635294 0.266667
0.0705882 0.447059 0.164706
0.0941176 0.462745 0.156863
0.156863 0.505882 0.145098
0.407843 0.552941 0.188235
0.623529 0.447059 0.184314
0.8 0.498039 0.227451
0.882353 0.580392 0.258824
0.905882 0.643137 0.266667
0.909804 0.678431 0.278431
0.0745098 0.615686 0.188235
0.0980392 0.635294 0.188235
0.160784 0.686275 0.172549
0.411765 0.72549 0.203922
0.682353 0.709804 0.262745
0.807843 0.607843 0.25098
0.898039 0.647059 0.266667
0.917647 0.694118 0.282353
0.921569 0.717647 0.286275
0.0901961 0.768627 0.203922
0.109804 0.788235 0.196078
0.203922 0.827451 0.192157
0.439216 0.85098 0.215686
0.721569 0.854902 0.282353
0.839216 0.811765 0.290196
0.894118 0.72549 0.282353
0.917647 0.741176 0.282353
0.917647 0.760784 0.286275
0.113725 0.901961 0.219608
0.133333 0.905882 0.215686
0.25098 0.933333 0.207843
0.47451 0.94902 0.247059
0.705882 0.945098 0.294118
0.843137 0.933333 0.345098
0.909804 0.901961 0.364706
0.929412 0.827451 0.290196
0.921569 0.811765 0.282353
0.152941 0.976471 0.258824
0.184314 0.976471 0.25098
0.309804 0.976471 0.25098
0.498039 0.976471 0.290196
0.686275 0.976471 0.337255
0.823529 0.980392 0.356863
0.917647 0.972549 0.403922
0.952941 0.960784 0.415686
0.933333 0.898039 0.290196
0.0901961 0.0941176 0.109804
0.113725 0.0784314 0.0980392
0.184314 0.121569 0.121569
0.309804 0.172549 0.117647
0.505882 0.219608 0.145098
0.694118 0.282353 0.196078
0.807843 0.333333 0.219608
0.882353 0.415686 0.247059
0.905882 0.486275 0.258824
0.0941176 0.0941176 0.101961
0.117647 0.0941176 0.105882
0.203922 0.133333 0.117647
0.333333 0.192157 0.0980392
0.541176 0.25098 0.152941
0.717647 0.294118 0.192157
0.827451 0.321569 0.219608
0.901961 0.407843 0.25098
0.905882 0.47451 0.258824
0.0784314 0.196078 0.137255
0.117647 0.192157 0.121569
0.2 0.168627 0.12549
0.356863 0.223529 0.113725
0.568627 0.313725 0.164706
0.733333 0.368627 0.2
0.839216 0.415686 0.231373
0.898039 0.470588 0.25098
0.909804 0.52549 0.262745
0.0666667 0.301961 0.164706
0.0941176 0.305882 0.14902
0.172549 0.321569 0.137255
0.360784 0.290196 0.133333
0.603922 0.360784 0.176471
0.772549 0.443137 0.215686
0.858824 0.509804 0.25098
0.909804 0.584314 0.270588
0.909804 0.635294 0.266667
0.0588235 0.447059 0.184314
0.0823529 0.458824 0.168627
0.152941 0.505882 0.160784
0.396078 0.552941 0.192157
0.627451 0.458824 0.188235
0.792157 0.517647 0.235294
0.882353 0.592157 0.258824
0.909804 0.658824 0.27451
0.913725 0.682353 0.278431
0.0745098 0.631373 0.207843
0.0901961 0.643137 0.2
0.152941 0.682353 0.176471
0.368627 0.721569 0.203922
0.666667 0.72549 0.266667
0.8 0.619608 0.243137
0.886275 0.658824 0.266667
0.913725 0.709804 0.278431
0.921569 0.72549 0.286275
0.0901961 0.780392 0.219608
0.101961 0.796078 0.207843
0.176471 0.819608 0.196078
0.4 0.85098 0.211765
0.682353 0.854902 0.270588
0.823529 0.831373 0.301961
0.890196 0.745098 0.286275
0.913725 0.74902 0.286275
0.917647 0.764706 0.290196
0.113725 0.898039 0.25098
0.133333 0.921569 0.239216
0.219608 0.921569 0.211765
0.435294 0.941176 0.243137
0.678431 0.941176 0.294118
0.831373 0.937255 0.341176
0.898039 0.905882 0.376471
0.921569 0.831373 0.290196
0.921569 0.819608 0.286275
0.137255 0.976471 0.286275
0.184314 0.976471 0.262745
0.290196 0.976471 0.258824
0.478431 0.980392 0.290196
0.670588 0.980392 0.341176
0.8 0.980392 0.352941
0.898039 0.976471 0.396078
0.952941 0.960784 0.415686
0.937255 0.901961 0.290196
0.0901961 0.172549 0.192157
0.0941176 0.164706 0.172549
0.14902 0.145098 0.164706
0.254902 0.184314 0.176471
0.431373 0.266667 0.203922
0.662745 0.337255 0.207843
0.803922 0.392157 0.215686
0.886275 0.435294 0.25098
0.913725 0.494118 0.258824
0.0901961 0.164706 0.180392
0.0980392 0.164706 0.192157
0.152941 0.156863 0.172549
0.27451 0.196078 0.192157
0.466667 0.278431 0.2
0.690196 0.345098 0.203922
0.819608 0.4 0.219608
0.894118 0.447059 0.25098
0.905882 0.494118 0.254902
0.0901961 0.160784 0.160784
0.0941176 0.164706 0.164706
0.176471 0.180392 0.188235
0.345098 0.235294 0.188235
0.564706 0.305882 0.168627
0.745098 0.341176 0.203922
0.839216 0.388235 0.223529
0.901961 0.439216 0.258824
0.909804 0.498039 0.262745
0.0784314 0.309804 0.223529
0.0784314 0.313725 0.203922
0.141176 0.32549 0.192157
0.34902 0.294118 0.192157
0.588235 0.384314 0.196078
0.760784 0.466667 0.211765
0.847059 0.529412 0.247059
0.905882 0.588235 0.266667
0.909804 0.627451 0.266667
0.0745098 0.482353 0.262745
0.0627451 0.486275 0.231373
0.121569 0.505882 0.203922
0.317647 0.545098 0.203922
0.6 0.470588 0.192157
0.776471 0.537255 0.223529
0.866667 0.611765 0.258824
0.913725 0.670588 0.27451
0.913725 0.698039 0.278431
0.0745098 0.658824 0.298039
0.0745098 0.662745 0.270588
0.137255 0.682353 0.215686
0.32549 0.721569 0.219608
0.643137 0.733333 0.278431
0.792157 0.643137 0.247059
0.882353 0.67451 0.266667
0.917647 0.721569 0.286275
0.917647 0.741176 0.282353
0.0941176 0.792157 0.313725
0.0980392 0.8 0.290196
0.160784 0.827451 0.239216
0.345098 0.847059 0.235294
0.611765 0.854902 0.278431
0.8 0.843137 0.329412
0.878431 0.760784 0.282353
0.917647 0.764706 0.290196
0.917647 0.776471 0.294118
0.12549 0.901961 0.356863
0.121569 0.909804 0.305882
0.2 0.937255 0.258824
0.392157 0.929412 0.270588
0.623529 0.941176 0.301961
0.796078 0.937255 0.34902
0.890196 0.917647 0.396078
0.929412 0.847059 0.294118
0.921569 0.823529 0.290196
0.133333 0.976471 0.4
0.137255 0.976471 0.352941
0.262745 0.976471 0.298039
0.427451 0.976471 0.305882
0.619608 0.976471 0.34902
0.764706 0.976471 0.384314
0.882353 0.976471 0.415686
0.960784 0.968627 0.435294
0.937255 0.901961 0.298039
0.0823529 0.239216 0.278431
0.0862745 0.231373 0.262745
0.0901961 0.223529 0.227451
0.164706 0.239216 0.223529
0.337255 0.270588 0.231373
0.556863 0.372549 0.286275
0.74902 0.443137 0.301961
0.870588 0.490196 0.313725
0.917647 0.541176 0.321569
0.0862745 0.235294 0.270588
0.0862745 0.243137 0.282353
0.0901961 0.235294 0.258824
0.184314 0.247059 0.231373
0.372549 0.294118 0.25098
0.607843 0.396078 0.301961
0.776471 0.454902 0.309804
0.882353 0.505882 0.317647
0.917647 0.545098 0.321569
0.0862745 0.231373 0.254902
0.0823529 0.243137 0.258824
0.0901961 0.258824 0.290196
0.2 0.258824 0.270588
0.447059 0.329412 0.290196
0.666667 0.407843 0.321569
0.823529 0.462745 0.317647
0.898039 0.513725 0.329412
0.921569 0.545098 0.317647
0.0941176 0.235294 0.235294
0.0901961 0.254902 0.247059
0.101961 0.282353 0.27451
0.243137 0.317647 0.333333
0.556863 0.376471 0.32549
0.74902 0.439216 0.321569
0.854902 0.490196 0.321569
0.913725 0.545098 0.305882
0.921569 0.596078 0.313725
0.0980392 0.403922 0.34902
0.0980392 0.490196 0.372549
0.0941176 0.505882 0.34902
0.211765 0.545098 0.313725
0.568627 0.498039 0.317647
0.756863 0.564706 0.345098
0.862745 0.639216 0.321569
0.92549 0.690196 0.313725
0.917647 0.709804 0.294118
0.113725 0.658824 0.486275
0.105882 0.67451 0.435294
0.0901961 0.686275 0.384314
0.239216 0.72549 0.317647
0.54902 0.741176 0.321569
0.768627 0.670588 0.309804
0.866667 0.694118 0.313725
0.92549 0.737255 0.305882
0.917647 0.756863 0.294118
0.129412 0.780392 0.521569
0.109804 0.803922 0.458824
0.105882 0.819608 0.411765
0.294118 0.85098 0.317647
0.556863 0.85098 0.345098
0.776471 0.85098 0.388235
0.870588 0.776471 0.290196
0.917647 0.784314 0.294118
0.921569 0.792157 0.298039
0.141176 0.878431 0.54902
0.129412 0.901961 0.486275
0.12549 0.921569 0.427451
0.317647 0.941176 0.337255
0.560784 0.933333 0.360784
0.737255 0.937255 0.4
0.878431 0.921569 0.443137
0.92549 0.854902 0.290196
0.92549 0.835294 0.290196
0.156863 0.960784 0.603922
0.141176 0.972549 0.533333
0.137255 0.980392 0.478431
0.376471 0.976471 0.372549
0.560784 0.976471 0.396078
0.721569 0.980392 0.435294
0.847059 0.972549 0.45098
0.956863 0.964706 0.482353
0.941176 0.909804 0.337255
0.0980392 0.321569 0.427451
0.0941176 0.317647 0.392157
0.0980392 0.309804 0.34902
0.0980392 0.321569 0.298039
0.184314 0.376471 0.262745
0.494118 0.372549 0.262745
0.694118 0.462745 0.298039
0.831373 0.545098 0.396078
0.921569 0.596078 0.478431
0.0941176 0.321569 0.4
0.0941176 0.329412 0.427451
0.0980392 0.32549 0.380392
0.0980392 0.329412 0.321569
0.2 0.388235 0.286275
0.533333 0.388235 0.286275
0.705882 0.47451 0.317647
0.831373 0.552941 0.423529
0.933333 0.603922 0.494118
0.0941176 0.317647 0.388235
0.0901961 0.333333 0.415686
0.0941176 0.34902 0.458824
0.0980392 0.341176 0.384314
0.282353 0.4 0.313725
0.572549 0.423529 0.333333
0.752941 0.505882 0.376471
0.862745 0.572549 0.47451
0.92549 0.607843 0.505882
0.0941176 0.309804 0.376471
0.0980392 0.337255 0.407843
0.0980392 0.364706 0.427451
0.109804 0.411765 0.490196
0.364706 0.419608 0.423529
0.647059 0.490196 0.458824
0.796078 0.552941 0.494118
0.898039 0.596078 0.494118
0.929412 0.623529 0.509804
0.101961 0.329412 0.372549
0.0941176 0.356863 0.388235
0.101961 0.392157 0.415686
0.117647 0.454902 0.45098
0.458824 0.541176 0.54902
0.717647 0.584314 0.564706
0.847059 0.627451 0.560784
0.921569 0.658824 0.552941
0.933333 0.678431 0.521569
0.117647 0.529412 0.517647
0.129412 0.584314 0.537255
0.137255 0.666667 0.568627
0.129412 0.682353 0.545098
0.45098 0.72549 0.513725
0.737255 0.682353 0.490196
0.854902 0.72549 0.54902
0.933333 0.752941 0.509804
0.937255 0.760784 0.470588
0.168627 0.745098 0.67451
0.160784 0.772549 0.643137
0.152941 0.792157 0.615686
0.141176 0.8 0.568627
0.470588 0.847059 0.498039
0.717647 0.847059 0.498039
0.858824 0.792157 0.439216
0.937255 0.796078 0.458824
0.933333 0.803922 0.423529
0.180392 0.843137 0.729412
0.168627 0.862745 0.682353
0.160784 0.878431 0.639216
0.152941 0.898039 0.584314
0.501961 0.921569 0.486275
0.698039 0.929412 0.505882
0.85098 0.921569 0.529412
0.941176 0.858824 0.368627
0.933333 0.847059 0.34902
0.188235 0.921569 0.752941
0.180392 0.941176 0.705882
0.168627 0.960784 0.662745
0.235294 0.976471 0.580392
0.541176 0.976471 0.498039
0.690196 0.976471 0.521569
0.819608 0.972549 0.52549
0.945098 0.968627 0.541176
0.952941 0.921569 0.435294
0.101961 0.458824 0.580392
0.0980392 0.45098 0.545098
0.105882 0.435294 0.47451
0.109804 0.443137 0.415686
0.105882 0.47451 0.360784
0.380392 0.509804 0.254902
0.658824 0.490196 0.282353
0.803922 0.54902 0.392157
0.905882 0.623529 0.572549
0.101961 0.45098 0.568627
0.0980392 0.462745 0.592157
0.0980392 0.454902 0.529412
0.105882 0.443137 0.447059
0.121569 0.478431 0.380392
0.431373 0.498039 0.270588
0.678431 0.490196 0.298039
0.819608 0.568627 0.431373
0.92549 0.639216 0.607843
0.0980392 0.447059 0.564706
0.101961 0.458824 0.572549
0.0980392 0.466667 0.607843
0.101961 0.462745 0.537255
0.184314 0.470588 0.443137
0.486275 0.486275 0.337255
0.705882 0.505882 0.384314
0.839216 0.584314 0.513725
0.937255 0.662745 0.670588
0.0980392 0.439216 0.545098
0.101961 0.458824 0.564706
0.0980392 0.486275 0.6
0.113725 0.509804 0.639216
0.254902 0.509804 0.588235
0.560784 0.517647 0.494118
0.752941 0.560784 0.533333
0.870588 0.639216 0.647059
0.941176 0.682353 0.698039
0.101961 0.439216 0.537255
0.101961 0.462745 0.54902
0.109804 0.501961 0.592157
0.117647 0.545098 0.623529
0.333333 0.592157 0.694118
0.639216 0.6 0.643137
0.803922 0.666667 0.682353
0.901961 0.705882 0.717647
0.945098 0.713725 0.701961
0.105882 0.462745 0.533333
0.109804 0.494118 0.545098
0.117647 0.545098 0.572549
0.129412 0.580392 0.607843
0.333333 0.647059 0.682353
0.705882 0.709804 0.717647
0.839216 0.741176 0.72549
0.92549 0.752941 0.717647
0.941176 0.756863 0.686275
0.14902 0.635294 0.666667
0.156863 0.67451 0.682353
0.164706 0.713725 0.701961
0.180392 0.768627 0.721569
0.27451 0.803922 0.717647
0.690196 0.827451 0.670588
0.85098 0.796078 0.643137
0.941176 0.815686 0.666667
0.945098 0.823529 0.631373
0.184314 0.784314 0.784314
0.2 0.831373 0.8
0.196078 0.85098 0.784314
0.188235 0.87451 0.752941
0.309804 0.901961 0.721569
0.67451 0.913725 0.643137
0.819608 0.909804 0.627451
0.941176 0.85098 0.545098
0.941176 0.85098 0.537255
0.207843 0.905882 0.85098
0.203922 0.921569 0.827451
0.2 0.937255 0.792157
0.192157 0.952941 0.756863
0.380392 0.976471 0.694118
0.670588 0.976471 0.619608
0.776471 0.972549 0.627451
0.921569 0.968627 0.627451
0.952941 0.929412 0.556863
0.133333 0.576471 0.701961
0.129412 0.576471 0.682353
0.129412 0.560784 0.627451
0.129412 0.556863 0.576471
0.121569 0.556863 0.521569
0.266667 0.592157 0.494118
0.6 0.54902 0.423529
0.788235 0.592157 0.494118
0.894118 0.631373 0.592157
0.129412 0.572549 0.698039
0.129412 0.576471 0.717647
0.12549 0.572549 0.666667
0.12549 0.54902 0.6
0.12549 0.552941 0.541176
0.305882 0.584314 0.529412
0.623529 0.560784 0.470588
0.792157 0.596078 0.529412
0.905882 0.643137 0.623529
0.12549 0.568627 0.694118
0.129412 0.572549 0.705882
0.129412 0.572549 0.721569
0.129412 0.572549 0.690196
0.129412 0.54902 0.611765
0.364706 0.560784 0.588235
0.654902 0.572549 0.552941
0.815686 0.607843 0.584314
0.921569 0.662745 0.678431
0.129412 0.556863 0.686275
0.129412 0.572549 0.698039
0.12549 0.584314 0.721569
0.129412 0.596078 0.745098
0.168627 0.596078 0.717647
0.447059 0.588235 0.690196
0.705882 0.6 0.65098
0.843137 0.635294 0.658824
0.941176 0.690196 0.745098
0.129412 0.556863 0.686275
0.129412 0.572549 0.690196
0.129412 0.596078 0.713725
0.145098 0.635294 0.745098
0.243137 0.658824 0.788235
0.541176 0.654902 0.772549
0.760784 0.647059 0.72549
0.870588 0.698039 0.74902
0.945098 0.733333 0.796078
0.12549 0.552941 0.666667
0.129412 0.576471 0.682353
0.133333 0.603922 0.701961
0.14902 0.643137 0.733333
0.25098 0.690196 0.776471
0.619608 0.729412 0.815686
0.8 0.737255 0.788235
0.901961 0.776471 0.819608
0.94902 0.780392 0.807843
0.133333 0.580392 0.682353
0.133333 0.607843 0.682353
0.14902 0.647059 0.705882
0.160784 0.686275 0.733333
0.262745 0.721569 0.772549
0.619608 0.768627 0.803922
0.819608 0.815686 0.807843
0.921569 0.827451 0.819608
0.956863 0.827451 0.807843
0.164706 0.721569 0.776471
0.180392 0.760784 0.8
0.184314 0.792157 0.811765
0.192157 0.811765 0.819608
0.207843 0.854902 0.827451
0.52549 0.886275 0.819608
0.8 0.901961 0.764706
0.92549 0.866667 0.737255
0.94902 0.870588 0.741176
0.192157 0.831373 0.866667
0.2 0.862745 0.882353
0.211765 0.894118 0.886275
0.207843 0.917647 0.858824
0.219608 0.929412 0.835294
0.552941 0.976471 0.788235
0.776471 0.976471 0.729412
0.894118 0.976471 0.72549
0.956863 0.937255 0.709804
0.160784 0.694118 0.796078
0.160784 0.694118 0.788235
0.156863 0.686275 0.760784
0.152941 0.67451 0.733333
0.14902 0.658824 0.713725
0.211765 0.658824 0.701961
0.494118 0.654902 0.717647
0.760784 0.654902 0.686275
0.886275 0.686275 0.721569
0.152941 0.686275 0.796078
0.164706 0.694118 0.811765
0.160784 0.686275 0.792157
0.156863 0.67451 0.756863
0.152941 0.670588 0.741176
0.258824 0.662745 0.729412
0.545098 0.654902 0.737255
0.776471 0.65098 0.701961
0.894118 0.682353 0.733333
0.156863 0.682353 0.796078
0.156863 0.678431 0.807843
0.152941 0.678431 0.823529
0.156863 0.678431 0.807843
0.14902 0.662745 0.768627
0.290196 0.662745 0.772549
0.6 0.662745 0.764706
0.8 0.65098 0.733333
0.905882 0.682353 0.74902
0.14902 0.670588 0.792157
0.156863 0.678431 0.807843
0.152941 0.682353 0.815686
0.156863 0.682353 0.831373
0.152941 0.67451 0.823529
0.356863 0.678431 0.823529
0.643137 0.678431 0.807843
0.835294 0.666667 0.776471
0.92549 0.694118 0.784314
0.14902 0.658824 0.792157
0.152941 0.666667 0.792157
0.160784 0.686275 0.815686
0.160784 0.701961 0.827451
0.164706 0.709804 0.85098
0.419608 0.709804 0.862745
0.701961 0.713725 0.843137
0.847059 0.701961 0.831373
0.945098 0.72549 0.823529
0.14902 0.65098 0.788235
0.14902 0.67451 0.792157
0.160784 0.690196 0.807843
0.164706 0.717647 0.827451
0.172549 0.741176 0.847059
0.482353 0.756863 0.882353
0.74902 0.764706 0.878431
0.870588 0.752941 0.847059
0.94902 0.776471 0.854902
0.145098 0.658824 0.776471
0.156863 0.682353 0.796078
0.160784 0.701961 0.811765
0.168627 0.72549 0.819608
0.176471 0.74902 0.847059
0.470588 0.788235 0.870588
0.784314 0.819608 0.882353
0.886275 0.815686 0.862745
0.952941 0.827451 0.878431
0.160784 0.686275 0.792157
0.164706 0.717647 0.796078
0.168627 0.72549 0.803922
0.180392 0.756863 0.827451
0.192157 0.788235 0.843137
0.498039 0.815686 0.862745
0.772549 0.854902 0.866667
0.894118 0.878431 0.866667
0.952941 0.886275 0.870588
0.176471 0.792157 0.866667
0.192157 0.807843 0.87451
0.192157 0.835294 0.882353
0.2 0.854902 0.890196
0.203922 0.87451 0.901961
0.407843 0.929412 0.901961
0.717647 0.960784 0.882353
0.87451 0.964706 0.835294
0.952941 0.956863 0.827451
0.172549 0.780392 0.858824
0.176471 0.784314 0.854902
0.176471 0.788235 0.847059
0.180392 0.772549 0.847059
0.172549 0.764706 0.847059
0.180392 0.74902 0.839216
0.458824 0.745098 0.85098
0.741176 0.733333 0.854902
0.882353 0.721569 0.847059
0.184314 0.772549 0.870588
0.176471 0.788235 0.87451
0.180392 0.780392 0.870588
0.180392 0.772549 0.854902
0.172549 0.756863 0.85098
0.188235 0.752941 0.85098
0.490196 0.74902 0.862745
0.756863 0.741176 0.862745
0.894118 0.721569 0.85098
0.176471 0.764706 0.870588
0.176471 0.760784 0.878431
0.176471 0.760784 0.890196
0.172549 0.756863 0.878431
0.172549 0.752941 0.870588
0.211765 0.745098 0.870588
0.552941 0.737255 0.886275
0.784314 0.733333 0.87451
0.901961 0.721569 0.862745
0.172549 0.752941 0.870588
0.168627 0.752941 0.878431
0.172549 0.752941 0.894118
0.172549 0.752941 0.901961
0.168627 0.74902 0.898039
0.215686 0.745098 0.886275
0.576471 0.737255 0.894118
0.8 0.737255 0.890196
0.917647 0.717647 0.870588
0.172549 0.737255 0.862745
0.168627 0.745098 0.87451
0.168627 0.752941 0.882353
0.176471 0.764706 0.894118
0.176471 0.760784 0.901961
0.262745 0.752941 0.913725
0.627451 0.752941 0.92549
0.819608 0.752941 0.898039
0.937255 0.741176 0.894118
0.168627 0.737255 0.858824
0.164706 0.741176 0.870588
0.168627 0.752941 0.882353
0.180392 0.772549 0.894118
0.180392 0.788235 0.905882
0.333333 0.792157 0.92549
0.686275 0.780392 0.941176
0.85098 0.784314 0.929412
0.952941 0.772549 0.913725
0.172549 0.733333 0.858824
0.164706 0.741176 0.870588
0.172549 0.756863 0.87451
0.176471 0.776471 0.898039
0.184314 0.792157 0.901961
0.376471 0.811765 0.929412
0.737255 0.827451 0.94902
0.866667 0.819608 0.937255
0.952941 0.819608 0.933333
0.168627 0.737255 0.858824
0.168627 0.74902 0.866667
0.180392 0.772549 0.878431
0.180392 0.784314 0.894118
0.192157 0.803922 0.901961
0.415686 0.823529 0.929412
0.737255 0.847059 0.941176
0.886275 0.882353 0.929412
0.952941 0.878431 0.92549
0.176471 0.760784 0.866667
0.176471 0.780392 0.87451
0.184314 0.788235 0.882353
0.192157 0.811765 0.898039
0.192157 0.839216 0.901961
0.439216 0.85098 0.92549
0.733333 0.878431 0.933333
0.87451 0.917647 0.921569
0.952941 0.952941 0.917647
