assets/luts/cinematic/Instant Sunset.cube
#Generated by Picture Instruments - Unlimited Filters
TITLE "Instant Sunset"
LUT_3D_SIZE 9
0.0509804 0 0.027451
0.117647 0.00392157 0.0235294
0.243137 0 0.027451
0.384314 0.00392157 0.0313725
0.537255 0 0.027451
0.698039 0.00392157 0.027451
0.862745 0.00392157 0.027451
1 0.0313725 0.0627451
0.996078 0.0509804 0.0745098
0.0509804 0.0470588 0.027451
0.117647 0.0431373 0.0196078
0.247059 0.0470588 0.0313725
0.388235 0.0470588 0.0196078
0.545098 0.0470588 0.0235294
0.701961 0.0470588 0.0235294
0.858824 0.0588235 0.0313725
1 0.0862745 0.0666667
1 0.0941176 0.0705882
0.0509804 0.14902 0.0313725
0.121569 0.14902 0.027451
0.247059 0.141176 0.027451
0.380392 0.141176 0.0196078
0.533333 0.137255 0.0196078
0.694118 0.141176 0.0235294
0.862745 0.145098 0.0235294
1 0.168627 0.0509804
1 0.176471 0.0666667
0.0509804 0.262745 0.027451
0.113725 0.266667 0.0196078
0.25098 0.266667 0.0352941
0.388235 0.262745 0.0313725
0.545098 0.262745 0.0313725
0.705882 0.262745 0.0352941
0.862745 0.262745 0.027451
1 0.27451 0.0509804
1 0.286275 0.0705882
0.054902 0.396078 0.027451
0.113725 0.392157 0.0235294
0.243137 0.396078 0.0313725
0.388235 0.403922 0.0352941
0.541176 0.396078 0.0392157
0.705882 0.396078 0.0352941
0.870588 0.403922 0.0352941
1 0.4 0.0627451
1 0.403922 0.0784314
0.0509804 0.545098 0.0235294
0.117647 0.537255 0.027451
0.243137 0.541176 0.0235294
0.392157 0.545098 0.0392157
0.541176 0.545098 0.0352941
0.713725 0.552941 0.0509804
0.870588 0.552941 0.0392157
1 0.556863 0.0784314
1 0.552941 0.0980392
0.0509804 0.682353 0.0235294
0.117647 0.678431 0.0196078
0.243137 0.686275 0.027451
0.392157 0.694118 0.0352941
0.560784 0.713725 0.0509804
0.717647 0.709804 0.0431373
0.87451 0.705882 0.0509804
1 0.698039 0.109804
1 0.698039 0.117647
0.0509804 0.85098 0.0235294
0.113725 0.847059 0.0196078
0.231373 0.847059 0.0196078
0.388235 0.858824 0.0313725
0.54902 0.882353 0.0470588
0.717647 0.894118 0.0509804
0.87451 0.886275 0.0509804
1 0.866667 0.109804
1 0.847059 0.12549
0.0470588 0.992157 0.027451
0.105882 0.992157 0.0235294
0.231373 0.992157 0.0235294
0.376471 0.996078 0.0352941
0.541176 0.996078 0.0705882
0.698039 0.996078 0.101961
0.843137 0.996078 0.117647
0.980392 0.992157 0.117647
0.996078 0.992157 0.121569
0.0509804 0 0.117647
0.105882 0 0.121569
0.239216 0 0.121569
0.376471 0 0.117647
0.541176 0.00392157 0.121569
0.701961 0.00392157 0.129412
0.854902 0.00392157 0.12549
1 0.0352941 0.14902
1 0.0509804 0.160784
0.0470588 0.0431373 0.113725
0.113725 0.0470588 0.117647
0.239216 0.0470588 0.121569
0.380392 0.0470588 0.121569
0.537255 0.0431373 0.12549
0.698039 0.0509804 0.117647
0.862745 0.0509804 0.129412
1 0.0745098 0.145098
1 0.0941176 0.164706
0.0431373 0.141176 0.117647
0.121569 0.14902 0.117647
0.239216 0.141176 0.113725
0.380392 0.145098 0.113725
0.541176 0.145098 0.113725
0.698039 0.145098 0.109804
0.858824 0.14902 0.121569
1 0.172549 0.137255
1 0.184314 0.152941
0.0470588 0.266667 0.121569
0.113725 0.27451 0.117647
0.243137 0.262745 0.105882
0.380392 0.266667 0.109804
0.529412 0.262745 0.109804
0.690196 0.262745 0.101961
0.847059 0.262745 0.105882
1 0.278431 0.129412
1 0.290196 0.145098
0.0431373 0.396078 0.121569
0.113725 0.396078 0.109804
0.239216 0.396078 0.109804
0.392157 0.403922 0.101961
0.541176 0.4 0.101961
0.705882 0.4 0.105882
0.858824 0.4 0.0980392
1 0.411765 0.133333
1 0.411765 0.141176
0.0470588 0.54902 0.121569
0.105882 0.545098 0.121569
0.239216 0.537255 0.109804
0.380392 0.545098 0.105882
0.545098 0.54902 0.0901961
0.709804 0.556863 0.0980392
0.866667 0.556863 0.0941176
0.996078 0.556863 0.12549
1 0.556863 0.141176
0.0470588 0.686275 0.117647
0.113725 0.686275 0.117647
0.235294 0.682353 0.101961
0.388235 0.698039 0.0980392
0.54902 0.709804 0.0980392
0.713725 0.701961 0.0862745
0.870588 0.713725 0.0941176
1 0.701961 0.133333
1 0.698039 0.14902
0.0470588 0.847059 0.113725
0.117647 0.847059 0.113725
0.235294 0.843137 0.105882
0.380392 0.858824 0.0941176
0.541176 0.870588 0.0901961
0.717647 0.886275 0.0901961
0.87451 0.882353 0.0705882
1 0.862745 0.133333
1 0.85098 0.14902
0.0470588 0.988235 0.117647
0.113725 0.992157 0.117647
0.239216 0.992157 0.101961
0.372549 0.992157 0.0941176
0.545098 0.996078 0.121569
0.701961 0.996078 0.133333
0.843137 0.992157 0.14902
0.992157 0.992157 0.133333
1 0.992157 0.137255
0.0431373 0 0.219608
0.105882 0 0.223529
0.235294 0 0.211765
0.372549 0 0.219608
0.537255 0 0.219608
0.694118 0 0.223529
0.862745 0.00392157 0.231373
1 0.0352941 0.243137
1 0.0470588 0.258824
0.0431373 0.0392157 0.211765
0.105882 0.0470588 0.215686
0.231373 0.0470588 0.219608
0.372549 0.0470588 0.211765
0.52549 0.0509804 0.219608
0.694118 0.054902 0.223529
0.858824 0.0509804 0.231373
1 0.0745098 0.247059
1 0.0941176 0.25098
0.0392157 0.137255 0.215686
0.105882 0.137255 0.211765
0.239216 0.14902 0.219608
0.380392 0.14902 0.227451
0.533333 0.152941 0.227451
0.694118 0.14902 0.223529
0.85098 0.14902 0.223529
1 0.176471 0.243137
1 0.188235 0.254902
0.0431373 0.270588 0.215686
0.0980392 0.262745 0.215686
0.239216 0.262745 0.215686
0.376471 0.262745 0.207843
0.533333 0.270588 0.207843
0.698039 0.266667 0.207843
0.854902 0.266667 0.207843
1 0.290196 0.239216
1 0.298039 0.243137
0.0392157 0.4 0.215686
0.0980392 0.396078 0.211765
0.235294 0.4 0.219608
0.380392 0.4 0.188235
0.529412 0.4 0.188235
0.690196 0.396078 0.180392
0.854902 0.396078 0.184314
0.996078 0.403922 0.196078
1 0.411765 0.215686
0.0392157 0.541176 0.215686
0.101961 0.541176 0.219608
0.235294 0.541176 0.211765
0.376471 0.545098 0.192157
0.545098 0.552941 0.164706
0.701961 0.552941 0.172549
0.866667 0.552941 0.172549
1 0.556863 0.188235
1 0.560784 0.211765
0.0431373 0.686275 0.211765
0.0980392 0.694118 0.219608
0.235294 0.686275 0.219608
0.380392 0.698039 0.192157
0.533333 0.705882 0.176471
0.701961 0.717647 0.145098
0.862745 0.713725 0.152941
0.996078 0.705882 0.184314
0.996078 0.701961 0.2
0.0470588 0.847059 0.223529
0.101961 0.847059 0.211765
0.235294 0.847059 0.211765
0.368627 0.843137 0.188235
0.533333 0.862745 0.172549
0.713725 0.886275 0.160784
0.870588 0.882353 0.12549
1 0.858824 0.168627
1 0.85098 0.184314
0.0392157 0.992157 0.219608
0.105882 0.992157 0.219608
0.235294 0.992157 0.211765
0.364706 0.992157 0.184314
0.533333 0.996078 0.188235
0.698039 0.996078 0.196078
0.847059 0.996078 0.192157
0.984314 0.996078 0.160784
0.996078 0.988235 0.160784
0.0352941 0 0.32549
0.0901961 0 0.32549
0.215686 0 0.32549
0.368627 0 0.329412
0.517647 0 0.32549
0.690196 0 0.32549
0.847059 0 0.333333
1 0.0235294 0.345098
1 0.0431373 0.34902
0.0352941 0.0352941 0.32549
0.0901961 0.0392157 0.321569
0.211765 0.0431373 0.32549
0.368627 0.0431373 0.32549
0.517647 0.0470588 0.32549
0.694118 0.0509804 0.329412
0.85098 0.0509804 0.337255
1 0.0823529 0.352941
1 0.0862745 0.34902
0.027451 0.129412 0.321569
0.0823529 0.129412 0.32549
0.215686 0.14902 0.32549
0.368627 0.14902 0.32549
0.517647 0.152941 0.32549
0.682353 0.14902 0.329412
0.847059 0.152941 0.32549
1 0.180392 0.345098
1 0.188235 0.360784
0.0313725 0.262745 0.32549
0.0823529 0.262745 0.32549
0.215686 0.262745 0.32549
0.368627 0.262745 0.321569
0.529412 0.266667 0.333333
0.686275 0.266667 0.329412
0.847059 0.266667 0.329412
1 0.286275 0.337255
1 0.301961 0.356863
0.0313725 0.4 0.329412
0.0901961 0.4 0.32549
0.215686 0.392157 0.313725
0.376471 0.396078 0.309804
0.521569 0.396078 0.313725
0.694118 0.4 0.317647
0.85098 0.403922 0.309804
1 0.415686 0.329412
1 0.423529 0.345098
0.027451 0.545098 0.317647
0.0784314 0.545098 0.32549
0.215686 0.541176 0.321569
0.368627 0.537255 0.317647
0.529412 0.54902 0.298039
0.698039 0.54902 0.294118
0.85098 0.545098 0.286275
1 0.556863 0.309804
1 0.560784 0.32549
0.027451 0.694118 0.317647
0.0862745 0.690196 0.321569
0.219608 0.686275 0.32549
0.368627 0.686275 0.313725
0.529412 0.694118 0.294118
0.698039 0.709804 0.266667
0.862745 0.705882 0.270588
1 0.705882 0.309804
0.996078 0.698039 0.317647
0.0352941 0.85098 0.317647
0.0784314 0.847059 0.321569
0.215686 0.85098 0.321569
0.368627 0.847059 0.317647
0.52549 0.858824 0.298039
0.698039 0.87451 0.282353
0.858824 0.882353 0.247059
1 0.862745 0.290196
1 0.85098 0.309804
0.0313725 0.992157 0.32549
0.0823529 0.992157 0.321569
0.215686 0.992157 0.32549
0.364706 0.992157 0.313725
0.517647 0.996078 0.294118
0.694118 0.996078 0.305882
0.843137 0.996078 0.305882
0.984314 0.996078 0.286275
0.996078 0.992157 0.282353
0.0313725 0 0.435294
0.0784314 0 0.443137
0.192157 0 0.431373
0.352941 0.00392157 0.435294
0.521569 0 0.431373
0.67451 0 0.439216
0.839216 0 0.439216
1 0.0235294 0.454902
1 0.0313725 0.45098
0.0313725 0.027451 0.427451
0.0784314 0.027451 0.439216
0.188235 0.0392157 0.443137
0.34902 0.0431373 0.439216
0.517647 0.0470588 0.431373
0.678431 0.0431373 0.431373
0.839216 0.054902 0.443137
1 0.0588235 0.447059
1 0.0784314 0.45098
0.0313725 0.121569 0.435294
0.0745098 0.117647 0.431373
0.192157 0.12549 0.439216
0.352941 0.141176 0.439216
0.509804 0.141176 0.431373
0.682353 0.14902 0.439216
0.847059 0.14902 0.447059
1 0.164706 0.447059
0.996078 0.184314 0.458824
0.027451 0.247059 0.439216
0.0745098 0.254902 0.447059
0.184314 0.25098 0.431373
0.352941 0.262745 0.435294
0.513725 0.266667 0.435294
0.682353 0.270588 0.439216
0.839216 0.270588 0.439216
1 0.290196 0.45098
1 0.301961 0.466667
0.027451 0.392157 0.45098
0.0745098 0.396078 0.443137
0.188235 0.392157 0.443137
0.352941 0.392157 0.431373
0.517647 0.392157 0.435294
0.682353 0.4 0.443137
0.843137 0.396078 0.435294
1 0.411765 0.454902
1 0.427451 0.466667
0.0235294 0.54902 0.443137
0.0666667 0.545098 0.447059
0.180392 0.545098 0.439216
0.34902 0.537255 0.435294
0.529412 0.541176 0.427451
0.682353 0.537255 0.423529
0.843137 0.541176 0.423529
1 0.552941 0.439216
1 0.556863 0.443137
0.0235294 0.694118 0.435294
0.0705882 0.694118 0.435294
0.180392 0.694118 0.435294
0.352941 0.686275 0.431373
0.517647 0.694118 0.431373
0.690196 0.698039 0.403922
0.847059 0.698039 0.411765
1 0.701961 0.419608
1 0.705882 0.443137
0.0235294 0.85098 0.431373
0.0666667 0.85098 0.431373
0.180392 0.847059 0.431373
0.34902 0.847059 0.435294
0.517647 0.847059 0.411765
0.690196 0.862745 0.411765
0.858824 0.87451 0.4
1 0.862745 0.423529
1 0.854902 0.439216
0.027451 0.992157 0.439216
0.0705882 0.992157 0.435294
0.184314 0.988235 0.431373
0.34902 0.992157 0.427451
0.517647 0.992157 0.419608
0.682353 0.992157 0.423529
0.847059 0.996078 0.435294
0.984314 0.996078 0.419608
1 0.992157 0.419608
0.027451 0 0.556863
0.0666667 0 0.552941
0.160784 0 0.54902
0.32549 0 0.556863
0.521569 0 0.552941
0.670588 0 0.54902
0.827451 0 0.552941
1 0.00392157 0.560784
1 0.0196078 0.564706
0.0313725 0.0235294 0.552941
0.0666667 0.027451 0.54902
0.160784 0.027451 0.560784
0.32549 0.0392157 0.552941
0.501961 0.0431373 0.552941
0.67451 0.0431373 0.54902
0.827451 0.0470588 0.552941
1 0.0588235 0.568627
1 0.0666667 0.552941
0.0235294 0.105882 0.556863
0.0588235 0.101961 0.552941
0.160784 0.113725 0.552941
0.321569 0.129412 0.556863
0.505882 0.141176 0.556863
0.670588 0.152941 0.552941
0.831373 0.145098 0.54902
1 0.152941 0.564706
1 0.176471 0.564706
0.0196078 0.243137 0.560784
0.0588235 0.235294 0.552941
0.168627 0.243137 0.552941
0.32549 0.254902 0.552941
0.505882 0.262745 0.556863
0.67451 0.258824 0.54902
0.839216 0.266667 0.560784
1 0.282353 0.564706
1 0.290196 0.568627
0.0117647 0.384314 0.564706
0.054902 0.384314 0.564706
0.156863 0.384314 0.564706
0.32549 0.384314 0.552941
0.505882 0.396078 0.552941
0.67451 0.396078 0.552941
0.835294 0.403922 0.556863
1 0.403922 0.556863
0.996078 0.423529 0.572549
0.0156863 0.545098 0.560784
0.054902 0.545098 0.568627
0.14902 0.54902 0.556863
0.317647 0.545098 0.552941
0.505882 0.545098 0.552941
0.678431 0.541176 0.556863
0.839216 0.545098 0.564706
1 0.54902 0.560784
1 0.560784 0.576471
0.0156863 0.698039 0.552941
0.054902 0.698039 0.560784
0.14902 0.690196 0.560784
0.317647 0.690196 0.556863
0.505882 0.682353 0.552941
0.682353 0.690196 0.537255
0.839216 0.690196 0.545098
0.996078 0.698039 0.556863
0.996078 0.698039 0.560784
0.00784314 0.858824 0.552941
0.0470588 0.858824 0.552941
0.156863 0.854902 0.556863
0.313725 0.847059 0.54902
0.509804 0.847059 0.552941
0.67451 0.858824 0.545098
0.847059 0.862745 0.529412
1 0.866667 0.54902
1 0.858824 0.568627
0.0235294 0.992157 0.552941
0.0588235 0.992157 0.54902
0.156863 0.992157 0.552941
0.321569 0.992157 0.54902
0.501961 0.992157 0.54902
0.67451 0.992157 0.545098
0.835294 0.996078 0.556863
0.984314 0.992157 0.552941
1 0.988235 0.556863
0.0235294 0 0.67451
0.054902 0 0.678431
0.129412 0 0.670588
0.298039 0 0.670588
0.478431 0 0.670588
0.67451 0 0.666667
0.823529 0 0.670588
0.988235 0 0.670588
1 0.00784314 0.670588
0.0235294 0.0196078 0.670588
0.0509804 0.0156863 0.670588
0.133333 0.027451 0.67451
0.294118 0.0352941 0.670588
0.486275 0.0392157 0.666667
0.678431 0.0509804 0.670588
0.823529 0.0470588 0.670588
0.988235 0.0470588 0.678431
1 0.054902 0.670588
0.0235294 0.0901961 0.678431
0.0509804 0.0901961 0.67451
0.137255 0.101961 0.670588
0.298039 0.109804 0.67451
0.494118 0.133333 0.670588
0.670588 0.145098 0.666667
0.831373 0.14902 0.670588
0.992157 0.145098 0.67451
1 0.160784 0.670588
0.0156863 0.223529 0.670588
0.0470588 0.223529 0.67451
0.12549 0.227451 0.670588
0.301961 0.235294 0.67451
0.482353 0.25098 0.67451
0.670588 0.270588 0.670588
0.823529 0.262745 0.67451
1 0.266667 0.678431
0.996078 0.278431 0.67451
0.0156863 0.372549 0.682353
0.0392157 0.376471 0.678431
0.129412 0.372549 0.67451
0.301961 0.376471 0.67451
0.486275 0.384314 0.670588
0.670588 0.396078 0.678431
0.827451 0.388235 0.670588
1 0.396078 0.678431
1 0.411765 0.682353
0.0117647 0.537255 0.682353
0.0352941 0.537255 0.682353
0.117647 0.537255 0.678431
0.286275 0.537255 0.678431
0.478431 0.533333 0.670588
0.666667 0.545098 0.670588
0.831373 0.541176 0.678431
1 0.54902 0.678431
1 0.556863 0.686275
0.00392157 0.705882 0.682353
0.0352941 0.698039 0.678431
0.12549 0.698039 0.686275
0.282353 0.694118 0.67451
0.47451 0.690196 0.670588
0.666667 0.686275 0.670588
0.823529 0.686275 0.670588
0.996078 0.686275 0.670588
0.996078 0.701961 0.682353
0.00784314 0.858824 0.682353
0.0352941 0.866667 0.678431
0.121569 0.858824 0.670588
0.278431 0.85098 0.67451
0.490196 0.847059 0.67451
0.67451 0.843137 0.666667
0.839216 0.85098 0.666667
1 0.858824 0.670588
1 0.854902 0.682353
0.0196078 0.996078 0.670588
0.0470588 0.996078 0.662745
0.12549 0.996078 0.666667
0.286275 0.992157 0.670588
0.490196 0.992157 0.670588
0.670588 0.988235 0.67451
0.831373 0.992157 0.67451
0.992157 0.992157 0.678431
1 0.988235 0.682353
0.0117647 0 0.796078
0.0352941 0 0.803922
0.105882 0 0.796078
0.262745 0 0.792157
0.462745 0 0.792157
0.654902 0 0.792157
0.827451 0 0.796078
0.992157 0 0.8
1 0 0.792157
0.0156863 0.0117647 0.796078
0.0313725 0.0156863 0.796078
0.105882 0.0235294 0.803922
0.262745 0.027451 0.796078
0.466667 0.0352941 0.8
0.647059 0.0392157 0.792157
0.823529 0.054902 0.792157
0.984314 0.0470588 0.792157
1 0.0470588 0.792157
0.0156863 0.0784314 0.796078
0.0392157 0.0784314 0.796078
0.101961 0.0862745 0.796078
0.270588 0.101961 0.8
0.462745 0.117647 0.792157
0.654902 0.133333 0.796078
0.827451 0.152941 0.796078
0.984314 0.14902 0.8
1 0.145098 0.792157
0.0117647 0.215686 0.796078
0.0392157 0.219608 0.8
0.105882 0.215686 0.788235
0.27451 0.227451 0.8
0.462745 0.239216 0.8
0.654902 0.254902 0.796078
0.827451 0.258824 0.796078
0.992157 0.262745 0.792157
1 0.262745 0.796078
0.00392157 0.360784 0.807843
0.0235294 0.360784 0.796078
0.0980392 0.360784 0.803922
0.262745 0.364706 0.796078
0.462745 0.372549 0.796078
0.654902 0.384314 0.8
0.819608 0.396078 0.796078
0.988235 0.396078 0.8
0.996078 0.4 0.792157
0 0.52549 0.811765
0.0235294 0.52549 0.811765
0.0901961 0.52549 0.803922
0.254902 0.521569 0.8
0.47451 0.52549 0.8
0.654902 0.533333 0.796078
0.823529 0.541176 0.8
0.988235 0.537255 0.792157
1 0.545098 0.8
0 0.686275 0.807843
0.0196078 0.690196 0.807843
0.0862745 0.686275 0.807843
0.247059 0.682353 0.8
0.45098 0.690196 0.803922
0.654902 0.682353 0.792157
0.823529 0.698039 0.792157
0.984314 0.686275 0.803922
0.996078 0.698039 0.803922
0.00392157 0.858824 0.803922
0.0196078 0.866667 0.807843
0.0901961 0.858824 0.803922
0.247059 0.858824 0.807843
0.454902 0.854902 0.8
0.65098 0.847059 0.8
0.823529 0.847059 0.792157
0.992157 0.85098 0.796078
1 0.85098 0.803922
0.00784314 0.996078 0.8
0.027451 0.996078 0.792157
0.101961 0.996078 0.792157
0.254902 0.996078 0.788235
0.454902 0.992157 0.8
0.65098 0.992157 0.8
0.823529 0.992157 0.796078
0.984314 0.992157 0.807843
1 0.992157 0.811765
0.00784314 0 0.909804
0.0235294 0 0.913725
0.0745098 0 0.905882
0.243137 0 0.909804
0.431373 0 0.913725
0.635294 0 0.909804
0.815686 0 0.909804
0.984314 0 0.909804
1 0 0.905882
0.00392157 0.00784314 0.913725
0.0235294 0.0117647 0.913725
0.0784314 0.0156863 0.909804
0.247059 0.0235294 0.909804
0.439216 0.027451 0.905882
0.631373 0.0352941 0.905882
0.807843 0.0392157 0.905882
0.984314 0.0470588 0.909804
1 0.0470588 0.905882
0.00784314 0.0666667 0.913725
0.0235294 0.0588235 0.913725
0.0784314 0.0745098 0.913725
0.243137 0.0862745 0.905882
0.45098 0.105882 0.909804
0.643137 0.121569 0.913725
0.819608 0.141176 0.905882
0.992157 0.145098 0.905882
0.996078 0.145098 0.901961
0.00784314 0.203922 0.909804
0.0235294 0.207843 0.901961
0.0784314 0.203922 0.909804
0.243137 0.215686 0.909804
0.439216 0.227451 0.905882
0.643137 0.243137 0.913725
0.815686 0.262745 0.913725
0.980392 0.266667 0.901961
1 0.266667 0.909804
0 0.356863 0.913725
0.0156863 0.34902 0.913725
0.0745098 0.352941 0.913725
0.25098 0.356863 0.913725
0.45098 0.364706 0.909804
0.639216 0.376471 0.909804
0.819608 0.388235 0.913725
0.984314 0.396078 0.905882
1 0.392157 0.905882
0 0.513725 0.917647
0.0156863 0.521569 0.917647
0.0627451 0.517647 0.917647
0.231373 0.517647 0.917647
0.431373 0.517647 0.909804
0.643137 0.52549 0.913725
0.811765 0.537255 0.909804
0.984314 0.537255 0.909804
1 0.537255 0.909804
0 0.67451 0.913725
0 0.67451 0.921569
0.0588235 0.682353 0.92549
0.231373 0.678431 0.917647
0.435294 0.678431 0.913725
0.647059 0.678431 0.909804
0.815686 0.682353 0.913725
0.980392 0.686275 0.905882
1 0.686275 0.913725
0 0.85098 0.921569
0.00392157 0.854902 0.92549
0.0627451 0.858824 0.921569
0.211765 0.85098 0.921569
0.431373 0.847059 0.917647
0.635294 0.843137 0.909804
0.819608 0.843137 0.913725
0.996078 0.843137 0.909804
0.996078 0.847059 0.913725
0 0.992157 0.905882
0.0196078 0.996078 0.909804
0.0705882 0.992157 0.905882
0.227451 0.996078 0.901961
0.443137 0.992157 0.901961
0.635294 0.992157 0.905882
0.815686 0.988235 0.909804
0.988235 0.992157 0.909804
1 0.992157 0.917647
