assets/luts/cinematic/Instant Sunset.cube
#Generated by Picture Instruments - Unlimited Filters
TITLE "Instant Sunset"
LUT_3D_SIZE 17
0.0509804 0 0.027451
0.0588235 0 0.027451
0.117647 0.00392157 0.0235294
0.176471 0 0.0196078
0.243137 0 0.027451
0.309804 0 0.0235294
0.384314 0.00392157 0.0313725
0.462745 0.00392157 0.027451
0.537255 0 0.027451
0.615686 0 0.027451
0.698039 0.00392157 0.027451
0.776471 0.00392157 0.0313725
0.862745 0.00392157 0.027451
0.945098 0.00784314 0.0313725
1 0.0313725 0.0627451
0.996078 0.0509804 0.0784314
0.996078 0.0509804 0.0745098
0.0509804 0.00392157 0.0196078
0.0509804 0.00392157 0.0196078
0.121569 0.00784314 0.0235294
0.172549 0.00784314 0.0235294
0.243137 0.0117647 0.027451
0.305882 0.0117647 0.027451
0.384314 0.0117647 0.0352941
0.462745 0.0117647 0.0313725
0.533333 0.0117647 0.0235294
0.615686 0.00784314 0.0235294
0.694118 0.00784314 0.027451
0.776471 0.00784314 0.0235294
0.858824 0.0196078 0.027451
0.94902 0.0117647 0.0352941
1 0.0352941 0.054902
1 0.054902 0.0784314
1 0.054902 0.0784314
0.0509804 0.0470588 0.027451
0.0627451 0.0509804 0.0313725
0.117647 0.0431373 0.0196078
0.176471 0.0470588 0.027451
0.247059 0.0470588 0.0313725
0.313725 0.0509804 0.027451
0.388235 0.0470588 0.0196078
0.454902 0.0431373 0.027451
0.545098 0.0470588 0.0235294
0.623529 0.0470588 0.0196078
0.701961 0.0470588 0.0235294
0.772549 0.0470588 0.027451
0.858824 0.0588235 0.0313725
0.94902 0.0509804 0.027451
1 0.0862745 0.0666667
1 0.0941176 0.0784314
1 0.0941176 0.0705882
0.0470588 0.0901961 0.0235294
0.054902 0.0901961 0.0235294
0.117647 0.0901961 0.027451
0.180392 0.0901961 0.027451
0.243137 0.0901961 0.0235294
0.309804 0.0823529 0.027451
0.388235 0.0901961 0.027451
0.45098 0.0862745 0.0196078
0.541176 0.0862745 0.027451
0.611765 0.0901961 0.0235294
0.698039 0.0901961 0.0196078
0.780392 0.0901961 0.0313725
0.862745 0.0941176 0.0313725
0.941176 0.0901961 0.0235294
1 0.117647 0.054902
1 0.129412 0.0784314
1 0.129412 0.0705882
0.0509804 0.14902 0.0313725
0.054902 0.14902 0.0235294
0.121569 0.14902 0.027451
0.180392 0.145098 0.0313725
0.247059 0.141176 0.027451
0.309804 0.14902 0.0235294
0.380392 0.141176 0.0196078
0.458824 0.141176 0.0235294
0.533333 0.137255 0.0196078
0.615686 0.141176 0.027451
0.694118 0.141176 0.0235294
0.776471 0.14902 0.0235294
0.862745 0.145098 0.0235294
0.94902 0.145098 0.0313725
1 0.168627 0.0509804
1 0.188235 0.0666667
1 0.176471 0.0666667
0.0509804 0.203922 0.027451
0.0627451 0.203922 0.0313725
0.121569 0.207843 0.0235294
0.180392 0.203922 0.0313725
0.25098 0.2 0.027451
0.317647 0.203922 0.0313725
0.392157 0.207843 0.0352941
0.466667 0.203922 0.0352941
0.541176 0.2 0.0313725
0.623529 0.2 0.0196078
0.701961 0.2 0.0235294
0.780392 0.196078 0.027451
0.858824 0.196078 0.027451
0.94902 0.2 0.0235294
1 0.227451 0.0627451
1 0.235294 0.0705882
1 0.231373 0.0666667
0.0509804 0.262745 0.027451
0.0509804 0.262745 0.027451
0.113725 0.266667 0.0196078
0.188235 0.266667 0.027451
0.25098 0.266667 0.0352941
0.317647 0.258824 0.0352941
0.388235 0.262745 0.0313725
0.462745 0.266667 0.0352941
0.545098 0.262745 0.0313725
0.623529 0.258824 0.027451
0.705882 0.262745 0.0352941
0.784314 0.262745 0.0313725
0.862745 0.262745 0.027451
0.94902 0.258824 0.0235294
1 0.27451 0.0509804
1 0.282353 0.0705882
1 0.286275 0.0705882
0.0509804 0.329412 0.0235294
0.054902 0.333333 0.027451
0.113725 0.32549 0.027451
0.180392 0.329412 0.027451
0.25098 0.333333 0.0392157
0.321569 0.337255 0.0352941
0.392157 0.337255 0.0431373
0.466667 0.337255 0.0352941
0.541176 0.333333 0.0352941
0.623529 0.333333 0.0392157
0.709804 0.333333 0.0352941
0.772549 0.329412 0.0235294
0.862745 0.329412 0.0313725
0.94902 0.333333 0.0313725
0.996078 0.337255 0.0588235
1 0.34902 0.0745098
1 0.345098 0.0705882
0.054902 0.396078 0.027451
0.0588235 0.392157 0.027451
0.113725 0.392157 0.0235294
0.172549 0.396078 0.027451
0.243137 0.396078 0.0313725
0.317647 0.4 0.0352941
0.388235 0.403922 0.0352941
0.466667 0.4 0.0392157
0.541176 0.396078 0.0392157
0.611765 0.396078 0.0392157
0.705882 0.396078 0.0352941
0.784314 0.388235 0.027451
0.870588 0.403922 0.0352941
0.945098 0.392157 0.0313725
1 0.4 0.0627451
1 0.407843 0.0823529
1 0.403922 0.0784314
0.0509804 0.470588 0.0235294
0.054902 0.462745 0.027451
0.113725 0.466667 0.0196078
0.176471 0.466667 0.0235294
0.25098 0.470588 0.0352941
0.321569 0.478431 0.0392157
0.396078 0.47451 0.0392157
0.470588 0.470588 0.0392157
0.556863 0.470588 0.0431373
0.631373 0.47451 0.0392157
0.713725 0.478431 0.0392157
0.792157 0.478431 0.0431373
0.870588 0.478431 0.0392157
0.960784 0.47451 0.0352941
1 0.482353 0.0862745
1 0.47451 0.0862745
1 0.478431 0.0862745
0.0509804 0.545098 0.0235294
0.054902 0.541176 0.0235294
0.117647 0.537255 0.027451
0.172549 0.537255 0.0196078
0.243137 0.541176 0.0235294
0.309804 0.541176 0.0352941
0.392157 0.545098 0.0392157
0.466667 0.54902 0.0431373
0.541176 0.545098 0.0352941
0.627451 0.545098 0.0431373
0.713725 0.552941 0.0509804
0.788235 0.556863 0.0470588
0.870588 0.552941 0.0392157
0.956863 0.552941 0.0470588
1 0.556863 0.0784314
1 0.560784 0.0980392
1 0.552941 0.0980392
0.0509804 0.611765 0.0235294
0.054902 0.615686 0.027451
0.109804 0.607843 0.0156863
0.172549 0.603922 0.027451
0.239216 0.615686 0.0235294
0.309804 0.619608 0.027451
0.396078 0.623529 0.0470588
0.470588 0.627451 0.0431373
0.54902 0.627451 0.0431373
0.619608 0.619608 0.0470588
0.709804 0.623529 0.0431373
0.792157 0.627451 0.0470588
0.87451 0.635294 0.0470588
0.964706 0.635294 0.054902
1 0.623529 0.0823529
1 0.619608 0.105882
1 0.619608 0.105882
0.0509804 0.682353 0.0235294
0.0588235 0.686275 0.027451
0.117647 0.678431 0.0196078
0.168627 0.682353 0.0235294
0.243137 0.686275 0.027451
0.309804 0.690196 0.0313725
0.392157 0.694118 0.0352941
0.470588 0.701961 0.0431373
0.560784 0.713725 0.0509804
0.639216 0.705882 0.0470588
0.717647 0.709804 0.0431373
0.788235 0.698039 0.054902
0.87451 0.705882 0.0509804
0.964706 0.713725 0.054902
1 0.698039 0.109804
1 0.698039 0.117647
1 0.698039 0.117647
0.0470588 0.764706 0.0235294
0.054902 0.764706 0.0235294
0.113725 0.760784 0.0235294
0.172549 0.764706 0.0235294
0.235294 0.764706 0.0196078
0.301961 0.768627 0.0235294
0.384314 0.780392 0.0352941
0.466667 0.784314 0.0352941
0.552941 0.792157 0.0509804
0.635294 0.796078 0.0509804
0.713725 0.796078 0.054902
0.788235 0.792157 0.0509804
0.87451 0.792157 0.0509804
0.964706 0.796078 0.0509804
1 0.780392 0.109804
1 0.776471 0.129412
1 0.776471 0.129412
0.0509804 0.85098 0.0235294
0.054902 0.847059 0.0235294
0.113725 0.847059 0.0196078
0.168627 0.843137 0.027451
0.231373 0.847059 0.0196078
0.305882 0.854902 0.027451
0.388235 0.858824 0.0313725
0.458824 0.866667 0.0392157
0.54902 0.882353 0.0470588
0.639216 0.886275 0.0509804
0.717647 0.894118 0.0509804
0.792157 0.882353 0.0509804
0.87451 0.886275 0.0509804
0.964706 0.886275 0.0588235
1 0.866667 0.109804
1 0.847059 0.12549
1 0.847059 0.12549
0.054902 0.921569 0.0313725
0.0627451 0.921569 0.0313725
0.117647 0.92549 0.0235294
0.168627 0.921569 0.0156863
0.243137 0.921569 0.0235294
0.309804 0.92549 0.027451
0.388235 0.937255 0.0313725
0.458824 0.941176 0.0352941
0.552941 0.952941 0.0431373
0.635294 0.964706 0.0509804
0.729412 0.972549 0.0509804
0.803922 0.976471 0.054902
0.882353 0.968627 0.054902
0.964706 0.972549 0.054902
0.996078 0.92549 0.109804
1 0.921569 0.12549
1 0.921569 0.12549
0.0470588 0.992157 0.027451
0.0588235 0.992157 0.0313725
0.105882 0.992157 0.0235294
0.164706 0.992157 0.0156863
0.231373 0.992157 0.0235294
0.298039 0.992157 0.0235294
0.376471 0.996078 0.0352941
0.458824 0.992157 0.0509804
0.541176 0.996078 0.0705882
0.623529 0.996078 0.0941176
0.698039 0.996078 0.101961
0.772549 0.996078 0.121569
0.843137 0.996078 0.117647
0.913725 0.996078 0.117647
0.980392 0.992157 0.117647
0.996078 0.992157 0.121569
0.996078 0.992157 0.121569
0.0509804 0 0.0666667
0.0666667 0 0.0705882
0.113725 0 0.0705882
0.172549 0 0.0666667
0.247059 0 0.0666667
0.317647 0 0.0745098
0.388235 0 0.0784314
0.462745 0.00392157 0.0745098
0.541176 0.00392157 0.0666667
0.619608 0.00392157 0.0784314
0.701961 0 0.0745098
0.780392 0 0.0745098
0.858824 0.00392157 0.0705882
0.94902 0.00392157 0.0784314
1 0.0431373 0.109804
1 0.0470588 0.117647
1 0.0470588 0.113725
0.0509804 0.00784314 0.0705882
0.054902 0.00392157 0.0705882
0.113725 0.00392157 0.0627451
0.172549 0.00392157 0.0705882
0.247059 0.00784314 0.0666667
0.309804 0.00784314 0.0705882
0.380392 0.0117647 0.0745098
0.462745 0.0117647 0.0784314
0.545098 0.0156863 0.0705882
0.615686 0.00784314 0.0627451
0.701961 0.00784314 0.0705882
0.776471 0.00784314 0.0627451
0.858824 0.0117647 0.0705882
0.945098 0.0117647 0.0745098
1 0.0392157 0.0980392
1 0.054902 0.117647
1 0.054902 0.117647
0.054902 0.0509804 0.0705882
0.054902 0.0470588 0.0666667
0.105882 0.0470588 0.0666667
0.172549 0.0470588 0.0666667
0.247059 0.0470588 0.0745098
0.309804 0.0509804 0.0666667
0.380392 0.0470588 0.0666667
0.454902 0.0470588 0.0745098
0.537255 0.0470588 0.0705882
0.615686 0.054902 0.0705882
0.701961 0.054902 0.0705882
0.776471 0.0509804 0.0745098
0.858824 0.0470588 0.0705882
0.941176 0.054902 0.0705882
1 0.0784314 0.0980392
1 0.0941176 0.117647
1 0.0941176 0.109804
0.0509804 0.0941176 0.0627451
0.0666667 0.0941176 0.0666667
0.121569 0.0941176 0.0705882
0.168627 0.0862745 0.0666667
0.243137 0.0941176 0.0588235
0.305882 0.0901961 0.0705882
0.384314 0.0901961 0.0666667
0.458824 0.0862745 0.0627451
0.533333 0.0941176 0.0784314
0.619608 0.0901961 0.0666667
0.701961 0.0941176 0.0745098
0.776471 0.0901961 0.0705882
0.854902 0.0901961 0.0745098
0.945098 0.0941176 0.0745098
1 0.129412 0.101961
1 0.133333 0.121569
1 0.133333 0.113725
0.054902 0.145098 0.0666667
0.054902 0.145098 0.0666667
0.117647 0.14902 0.0588235
0.172549 0.145098 0.0705882
0.247059 0.141176 0.0588235
0.309804 0.14902 0.0627451
0.384314 0.145098 0.0705882
0.45098 0.145098 0.0588235
0.533333 0.145098 0.0627451
0.623529 0.14902 0.0745098
0.701961 0.14902 0.0705882
0.776471 0.145098 0.0666667
0.854902 0.145098 0.0627451
0.941176 0.14902 0.0705882
1 0.172549 0.0901961
1 0.184314 0.105882
1 0.184314 0.113725
0.0509804 0.207843 0.0705882
0.054902 0.211765 0.0745098
0.105882 0.2 0.0588235
0.180392 0.203922 0.0627451
0.247059 0.207843 0.0705882
0.305882 0.203922 0.0666667
0.384314 0.211765 0.0666667
0.454902 0.203922 0.0627451
0.533333 0.203922 0.0627451
0.619608 0.2 0.0588235
0.701961 0.203922 0.0666667
0.768627 0.203922 0.0666667
0.858824 0.203922 0.0627451
0.941176 0.203922 0.0588235
1 0.223529 0.0941176
1 0.239216 0.101961
1 0.235294 0.105882
0.054902 0.266667 0.0627451
0.0627451 0.266667 0.0745098
0.117647 0.262745 0.0627451
0.180392 0.270588 0.0666667
0.247059 0.254902 0.0588235
0.317647 0.262745 0.0705882
0.392157 0.266667 0.0666667
0.462745 0.258824 0.0627451
0.545098 0.262745 0.0666667
0.619608 0.258824 0.0666667
0.701961 0.266667 0.0588235
0.780392 0.266667 0.0627451
0.866667 0.262745 0.0588235
0.945098 0.254902 0.0588235
1 0.278431 0.0941176
1 0.286275 0.101961
1 0.286275 0.101961
0.054902 0.333333 0.0745098
0.054902 0.333333 0.0666667
0.113725 0.329412 0.0666667
0.172549 0.32549 0.0627451
0.254902 0.337255 0.0666667
0.321569 0.333333 0.0627451
0.388235 0.329412 0.0666667
0.462745 0.333333 0.0627451
0.545098 0.337255 0.0627451
0.623529 0.329412 0.0627451
0.701961 0.329412 0.0627451
0.780392 0.333333 0.0588235
0.858824 0.333333 0.054902
0.94902 0.333333 0.0627451
1 0.345098 0.0901961
0.996078 0.34902 0.0980392
0.996078 0.34902 0.0980392
0.0509804 0.396078 0.0666667
0.0509804 0.396078 0.0666667
0.113725 0.396078 0.0666667
0.176471 0.392157 0.0666667
0.243137 0.4 0.0627451
0.313725 0.4 0.0666667
0.388235 0.396078 0.0666667
0.462745 0.4 0.0666667
0.541176 0.4 0.0627451
0.619608 0.4 0.0666667
0.705882 0.4 0.0666667
0.784314 0.396078 0.0627451
0.862745 0.4 0.0588235
0.94902 0.4 0.0588235
1 0.4 0.0862745
1 0.415686 0.101961
1 0.403922 0.101961
0.0509804 0.470588 0.0627451
0.054902 0.470588 0.0745098
0.109804 0.466667 0.0627451
0.168627 0.462745 0.0588235
0.243137 0.470588 0.0666667
0.313725 0.47451 0.0666667
0.388235 0.478431 0.0627451
0.466667 0.478431 0.0666667
0.545098 0.478431 0.0705882
0.623529 0.478431 0.0705882
0.705882 0.478431 0.0588235
0.780392 0.478431 0.0705882
0.866667 0.478431 0.0705882
0.952941 0.478431 0.0666667
1 0.482353 0.0901961
0.996078 0.486275 0.109804
0.996078 0.486275 0.109804
0.0509804 0.541176 0.0705882
0.0627451 0.541176 0.0666667
0.109804 0.533333 0.0627451
0.168627 0.537255 0.0588235
0.243137 0.541176 0.054902
0.313725 0.54902 0.0705882
0.396078 0.552941 0.0705882
0.466667 0.552941 0.0666667
0.54902 0.54902 0.0627451
0.631373 0.545098 0.0666667
0.713725 0.552941 0.0666667
0.788235 0.545098 0.0627451
0.87451 0.54902 0.0705882
0.960784 0.552941 0.0627451
1 0.552941 0.105882
1 0.552941 0.12549
1 0.552941 0.113725
0.0509804 0.607843 0.0666667
0.054902 0.611765 0.0705882
0.113725 0.611765 0.0666667
0.168627 0.611765 0.0627451
0.239216 0.607843 0.0588235
0.313725 0.615686 0.0666667
0.388235 0.619608 0.0705882
0.470588 0.635294 0.0705882
0.541176 0.627451 0.0666667
0.627451 0.615686 0.054902
0.709804 0.619608 0.0627451
0.792157 0.623529 0.0705882
0.870588 0.631373 0.0705882
0.960784 0.627451 0.0666667
1 0.623529 0.109804
0.996078 0.623529 0.121569
0.996078 0.623529 0.121569
0.0509804 0.694118 0.0705882
0.054902 0.686275 0.0666667
0.105882 0.686275 0.0666667
0.168627 0.682353 0.0627451
0.235294 0.682353 0.054902
0.305882 0.698039 0.0666667
0.384314 0.701961 0.0627451
0.466667 0.705882 0.0666667
0.54902 0.709804 0.0666667
0.627451 0.717647 0.0666667
0.701961 0.705882 0.0627451
0.792157 0.705882 0.0666667
0.87451 0.713725 0.0627451
0.968627 0.721569 0.0666667
1 0.705882 0.113725
1 0.694118 0.12549
1 0.694118 0.12549
0.0509804 0.760784 0.0666667
0.0627451 0.764706 0.0627451
0.117647 0.764706 0.0666667
0.172549 0.756863 0.0588235
0.235294 0.760784 0.0509804
0.313725 0.764706 0.0627451
0.384314 0.772549 0.0627451
0.466667 0.780392 0.0627451
0.54902 0.788235 0.0705882
0.639216 0.796078 0.0705882
0.717647 0.796078 0.0666667
0.796078 0.792157 0.054902
0.87451 0.788235 0.0666667
0.960784 0.8 0.0627451
1 0.776471 0.121569
1 0.772549 0.137255
1 0.772549 0.137255
0.054902 0.847059 0.0705882
0.054902 0.847059 0.0705882
0.113725 0.847059 0.0588235
0.172549 0.847059 0.0627451
0.235294 0.843137 0.0588235
0.305882 0.85098 0.054902
0.376471 0.858824 0.0588235
0.462745 0.866667 0.0627451
0.552941 0.882353 0.0666667
0.635294 0.878431 0.0745098
0.713725 0.886275 0.0666667
0.792157 0.886275 0.0627451
0.87451 0.886275 0.0588235
0.968627 0.882353 0.0666667
0.996078 0.858824 0.113725
1 0.847059 0.129412
1 0.847059 0.129412
0.054902 0.921569 0.0705882
0.0588235 0.92549 0.0745098
0.105882 0.921569 0.0666667
0.168627 0.921569 0.054902
0.235294 0.92549 0.0627451
0.298039 0.929412 0.0470588
0.376471 0.933333 0.054902
0.462745 0.941176 0.0666667
0.541176 0.952941 0.0627451
0.627451 0.964706 0.0666667
0.72549 0.972549 0.0745098
0.796078 0.976471 0.0705882
0.878431 0.972549 0.0627451
0.960784 0.972549 0.0666667
1 0.929412 0.113725
1 0.929412 0.129412
0.996078 0.921569 0.129412
0.0509804 0.992157 0.0705882
0.054902 0.992157 0.0705882
0.105882 0.992157 0.0627451
0.168627 0.992157 0.0509804
0.235294 0.992157 0.0588235
0.298039 0.992157 0.054902
0.376471 0.996078 0.0588235
0.462745 0.992157 0.0745098
0.541176 0.996078 0.0901961
0.627451 0.996078 0.109804
0.701961 0.996078 0.121569
0.776471 0.996078 0.133333
0.843137 0.996078 0.12549
0.913725 0.996078 0.12549
0.992157 0.992157 0.121569
0.996078 0.992157 0.121569
0.996078 0.992157 0.121569
0.0509804 0 0.117647
0.0509804 0 0.109804
0.105882 0 0.121569
0.168627 0 0.117647
0.239216 0 0.121569
0.309804 0 0.121569
0.376471 0 0.117647
0.45098 0 0.121569
0.541176 0.00392157 0.121569
0.619608 0.00392157 0.12549
0.701961 0.00392157 0.129412
0.772549 0 0.117647
0.854902 0.00392157 0.12549
0.945098 0 0.12549
1 0.0352941 0.14902
1 0.0509804 0.160784
1 0.0509804 0.160784
0.0470588 0.00784314 0.113725
0.0588235 0.00784314 0.117647
0.121569 0.00784314 0.117647
0.172549 0.00392157 0.113725
0.239216 0.00392157 0.113725
0.305882 0.00784314 0.117647
0.384314 0.00784314 0.117647
0.466667 0.00784314 0.121569
0.537255 0.00784314 0.12549
0.615686 0.0117647 0.121569
0.705882 0.0117647 0.12549
0.780392 0.00784314 0.117647
0.866667 0.00784314 0.12549
0.94902 0.0117647 0.133333
1 0.0431373 0.152941
1 0.0588235 0.164706
1 0.0588235 0.164706
0.0470588 0.0431373 0.113725
0.054902 0.0431373 0.117647
0.113725 0.0470588 0.117647
0.172549 0.0431373 0.117647
0.239216 0.0470588 0.121569
0.309804 0.0470588 0.117647
0.380392 0.0470588 0.121569
0.458824 0.0431373 0.121569
0.537255 0.0431373 0.12549
0.623529 0.054902 0.121569
0.698039 0.0509804 0.117647
0.780392 0.054902 0.12549
0.862745 0.0509804 0.129412
0.941176 0.0509804 0.12549
1 0.0745098 0.145098
1 0.0941176 0.164706
1 0.0941176 0.164706
0.0509804 0.0941176 0.117647
0.0470588 0.0980392 0.121569
0.105882 0.0941176 0.121569
0.168627 0.0941176 0.117647
0.239216 0.0941176 0.121569
0.309804 0.0941176 0.117647
0.380392 0.0980392 0.113725
0.45098 0.0941176 0.113725
0.529412 0.0941176 0.121569
0.615686 0.0901961 0.117647
0.698039 0.0980392 0.117647
0.776471 0.0980392 0.121569
0.854902 0.0941176 0.12549
0.941176 0.0980392 0.12549
1 0.12549 0.145098
1 0.141176 0.164706
1 0.141176 0.164706
0.0431373 0.141176 0.117647
0.0588235 0.14902 0.117647
0.121569 0.14902 0.117647
0.180392 0.145098 0.117647
0.239216 0.141176 0.113725
0.301961 0.145098 0.113725
0.380392 0.145098 0.113725
0.454902 0.145098 0.117647
0.541176 0.145098 0.113725
0.615686 0.141176 0.109804
0.698039 0.145098 0.109804
0.776471 0.156863 0.121569
0.858824 0.14902 0.121569
0.941176 0.145098 0.117647
1 0.172549 0.137255
1 0.180392 0.152941
1 0.184314 0.152941
0.0431373 0.207843 0.113725
0.0470588 0.203922 0.109804
0.113725 0.207843 0.121569
0.172549 0.203922 0.109804
0.247059 0.203922 0.117647
0.309804 0.2 0.113725
0.380392 0.207843 0.109804
0.454902 0.203922 0.105882
0.533333 0.203922 0.109804
0.611765 0.203922 0.105882
0.698039 0.203922 0.105882
0.776471 0.203922 0.105882
0.854902 0.203922 0.109804
0.945098 0.207843 0.109804
1 0.231373 0.137255
1 0.235294 0.14902
1 0.235294 0.14902
0.0470588 0.266667 0.121569
0.0509804 0.266667 0.113725
0.113725 0.27451 0.117647
0.168627 0.266667 0.109804
0.243137 0.262745 0.105882
0.313725 0.266667 0.109804
0.380392 0.266667 0.109804
0.454902 0.270588 0.105882
0.529412 0.262745 0.109804
0.615686 0.266667 0.109804
0.690196 0.262745 0.101961
0.768627 0.262745 0.105882
0.847059 0.262745 0.105882
0.941176 0.266667 0.109804
1 0.278431 0.129412
1 0.290196 0.145098
1 0.290196 0.145098
0.0431373 0.329412 0.113725
0.0627451 0.333333 0.117647
0.117647 0.333333 0.117647
0.176471 0.329412 0.113725
0.254902 0.337255 0.113725
0.309804 0.321569 0.105882
0.388235 0.329412 0.113725
0.458824 0.333333 0.101961
0.541176 0.337255 0.109804
0.619608 0.337255 0.105882
0.701961 0.329412 0.101961
0.780392 0.333333 0.0980392
0.858824 0.329412 0.101961
0.941176 0.329412 0.0980392
1 0.337255 0.121569
1 0.352941 0.141176
1 0.352941 0.141176
0.0431373 0.396078 0.121569
0.0588235 0.396078 0.117647
0.113725 0.396078 0.109804
0.168627 0.392157 0.113725
0.239216 0.396078 0.109804
0.317647 0.4 0.105882
0.392157 0.403922 0.101961
0.466667 0.396078 0.105882
0.541176 0.4 0.101961
0.623529 0.396078 0.105882
0.705882 0.4 0.105882
0.780392 0.396078 0.101961
0.858824 0.4 0.0980392
0.94902 0.392157 0.0941176
1 0.411765 0.133333
1 0.411765 0.141176
1 0.411765 0.141176
0.0431373 0.470588 0.113725
0.054902 0.470588 0.117647
0.117647 0.470588 0.117647
0.172549 0.470588 0.113725
0.243137 0.462745 0.105882
0.313725 0.47451 0.113725
0.384314 0.478431 0.101961
0.458824 0.482353 0.105882
0.541176 0.478431 0.0941176
0.623529 0.470588 0.0980392
0.705882 0.478431 0.0980392
0.776471 0.478431 0.101961
0.862745 0.478431 0.0980392
0.945098 0.47451 0.0941176
0.996078 0.482353 0.12549
1 0.486275 0.141176
1 0.486275 0.141176
0.0470588 0.54902 0.121569
0.0470588 0.541176 0.117647
0.105882 0.545098 0.121569
0.172549 0.541176 0.109804
0.239216 0.537255 0.109804
0.309804 0.545098 0.101961
0.380392 0.545098 0.105882
0.462745 0.552941 0.0980392
0.545098 0.54902 0.0901961
0.627451 0.552941 0.0901961
0.709804 0.556863 0.0980392
0.776471 0.552941 0.0980392
0.866667 0.556863 0.0941176
0.956863 0.552941 0.0901961
0.996078 0.556863 0.12549
1 0.556863 0.141176
1 0.556863 0.141176
0.0470588 0.615686 0.117647
0.0627451 0.611765 0.121569
0.117647 0.611765 0.117647
0.172549 0.603922 0.113725
0.235294 0.607843 0.0980392
0.313725 0.615686 0.105882
0.384314 0.619608 0.101961
0.470588 0.627451 0.105882
0.545098 0.623529 0.0980392
0.627451 0.619608 0.0901961
0.717647 0.623529 0.0980392
0.792157 0.627451 0.0941176
0.87451 0.631373 0.0941176
0.956863 0.627451 0.0980392
1 0.627451 0.133333
1 0.623529 0.14902
1 0.623529 0.14902
0.0470588 0.686275 0.117647
0.0509804 0.686275 0.117647
0.113725 0.686275 0.117647
0.168627 0.686275 0.113725
0.235294 0.682353 0.101961
0.301961 0.686275 0.101961
0.388235 0.698039 0.0980392
0.462745 0.701961 0.0941176
0.54902 0.709804 0.0980392
0.627451 0.709804 0.0941176
0.713725 0.701961 0.0862745
0.784314 0.705882 0.0901961
0.870588 0.713725 0.0941176
0.960784 0.729412 0.0941176
1 0.701961 0.133333
1 0.698039 0.14902
1 0.698039 0.14902
0.0509804 0.768627 0.117647
0.0509804 0.768627 0.117647
0.101961 0.764706 0.117647
0.172549 0.764706 0.109804
0.239216 0.760784 0.105882
0.298039 0.764706 0.0980392
0.384314 0.772549 0.101961
0.454902 0.776471 0.0980392
0.541176 0.788235 0.101961
0.635294 0.796078 0.0980392
0.713725 0.796078 0.0862745
0.780392 0.796078 0.0862745
0.87451 0.792157 0.0901961
0.956863 0.792157 0.0862745
1 0.784314 0.137255
0.996078 0.776471 0.152941
0.996078 0.772549 0.156863
0.0470588 0.847059 0.113725
0.0627451 0.847059 0.117647
0.117647 0.847059 0.113725
0.168627 0.847059 0.109804
0.235294 0.843137 0.105882
0.294118 0.839216 0.0901961
0.380392 0.858824 0.0941176
0.458824 0.866667 0.0901961
0.541176 0.870588 0.0901961
0.635294 0.878431 0.0980392
0.717647 0.886275 0.0901961
0.796078 0.886275 0.0862745
0.87451 0.882353 0.0705882
0.960784 0.878431 0.0823529
1 0.862745 0.133333
1 0.85098 0.14902
1 0.85098 0.14902
0.0470588 0.921569 0.117647
0.0509804 0.917647 0.117647
0.113725 0.921569 0.117647
0.168627 0.921569 0.101961
0.231373 0.92549 0.101961
0.301961 0.921569 0.0941176
0.380392 0.929412 0.0941176
0.454902 0.937255 0.0941176
0.537255 0.952941 0.0901961
0.631373 0.960784 0.0980392
0.721569 0.964706 0.0980392
0.796078 0.972549 0.0901961
0.87451 0.972549 0.0862745
0.960784 0.972549 0.0745098
1 0.92549 0.137255
1 0.917647 0.145098
1 0.917647 0.145098
0.0470588 0.988235 0.117647
0.0509804 0.992157 0.113725
0.113725 0.992157 0.117647
0.168627 0.992157 0.105882
0.239216 0.992157 0.101961
0.301961 0.988235 0.0980392
0.372549 0.992157 0.0941176
0.458824 0.996078 0.109804
0.545098 0.996078 0.121569
0.623529 0.996078 0.12549
0.701961 0.996078 0.133333
0.780392 0.996078 0.152941
0.843137 0.992157 0.14902
0.917647 0.996078 0.137255
0.992157 0.992157 0.133333
1 0.992157 0.137255
1 0.992157 0.137255
0.0431373 0 0.168627
0.0470588 0 0.164706
0.105882 0 0.168627
0.168627 0 0.168627
0.239216 0 0.164706
0.301961 0 0.172549
0.376471 0.00392157 0.176471
0.45098 0 0.172549
0.533333 0 0.180392
0.615686 0.00784314 0.180392
0.694118 0 0.172549
0.776471 0.00392157 0.172549
0.854902 0.00392157 0.172549
0.945098 0.00392157 0.180392
1 0.0313725 0.203922
1 0.0509804 0.215686
1 0.0509804 0.215686
0.0392157 0.00784314 0.168627
0.0431373 0.0117647 0.172549
0.0980392 0.0117647 0.164706
0.168627 0.00784314 0.172549
0.231373 0.00784314 0.168627
0.301961 0.00784314 0.168627
0.376471 0.0156863 0.176471
0.447059 0.00392157 0.172549
0.529412 0.00784314 0.176471
0.619608 0.0117647 0.168627
0.701961 0.00784314 0.180392
0.776471 0.0117647 0.176471
0.854902 0.0117647 0.172549
0.941176 0.0117647 0.184314
1 0.0392157 0.2
1 0.0627451 0.207843
