assets/luts/cinematic/Instant Sunset.cube
#Generated by Picture Instruments - Unlimited Filters
TITLE "Instant Sunset"
LUT_3D_SIZE 5
0.0509804 0 0.027451
0.243137 0 0.027451
0.537255 0 0.027451
0.862745 0.00392157 0.027451
0.996078 0.0509804 0.0745098
0.0509804 0.14902 0.0313725
0.247059 0.141176 0.027451
0.533333 0.137255 0.0196078
0.862745 0.145098 0.0235294
1 0.176471 0.0666667
0.054902 0.396078 0.027451
0.243137 0.396078 0.0313725
0.541176 0.396078 0.0392157
0.870588 0.403922 0.0352941
1 0.403922 0.0784314
0.0509804 0.682353 0.0235294
0.243137 0.686275 0.027451
0.560784 0.713725 0.0509804
0.87451 0.705882 0.0509804
1 0.698039 0.117647
0.0470588 0.992157 0.027451
0.231373 0.992157 0.0235294
0.541176 0.996078 0.0705882
0.843137 0.996078 0.117647
0.996078 0.992157 0.121569
0.0431373 0 0.219608
0.235294 0 0.211765
0.537255 0 0.219608
0.862745 0.00392157 0.231373
1 0.0470588 0.258824
0.0392157 0.137255 0.215686
0.239216 0.14902 0.219608
0.533333 0.152941 0.227451
0.85098 0.14902 0.223529
1 0.188235 0.254902
0.0392157 0.4 0.215686
0.235294 0.4 0.219608
0.529412 0.4 0.188235
0.854902 0.396078 0.184314
1 0.411765 0.215686
0.0431373 0.686275 0.211765
0.235294 0.686275 0.219608
0.533333 0.705882 0.176471
0.862745 0.713725 0.152941
0.996078 0.701961 0.2
0.0392157 0.992157 0.219608
0.235294 0.992157 0.211765
0.533333 0.996078 0.188235
0.847059 0.996078 0.192157
0.996078 0.988235 0.160784
0.0313725 0 0.435294
0.192157 0 0.431373
0.521569 0 0.431373
0.839216 0 0.439216
1 0.0313725 0.45098
0.0313725 0.121569 0.435294
0.192157 0.12549 0.439216
0.509804 0.141176 0.431373
0.847059 0.14902 0.447059
0.996078 0.184314 0.458824
0.027451 0.392157 0.45098
0.188235 0.392157 0.443137
0.517647 0.392157 0.435294
0.843137 0.396078 0.435294
1 0.427451 0.466667
0.0235294 0.694118 0.435294
0.180392 0.694118 0.435294
0.517647 0.694118 0.431373
0.847059 0.698039 0.411765
1 0.705882 0.443137
0.027451 0.992157 0.439216
0.184314 0.988235 0.431373
0.517647 0.992157 0.419608
0.847059 0.996078 0.435294
1 0.992157 0.419608
0.0235294 0 0.67451
0.129412 0 0.670588
0.478431 0 0.670588
0.823529 0 0.670588
1 0.00784314 0.670588
0.0235294 0.0901961 0.678431
0.137255 0.101961 0.670588
0.494118 0.133333 0.670588
0.831373 0.14902 0.670588
1 0.160784 0.670588
0.0156863 0.372549 0.682353
0.129412 0.372549 0.67451
0.486275 0.384314 0.670588
0.827451 0.388235 0.670588
1 0.411765 0.682353
0.00392157 0.705882 0.682353
0.12549 0.698039 0.686275
0.47451 0.690196 0.670588
0.823529 0.686275 0.670588
0.996078 0.701961 0.682353
0.0196078 0.996078 0.670588
0.12549 0.996078 0.666667
0.490196 0.992157 0.670588
0.831373 0.992157 0.67451
1 0.988235 0.682353
0.00784314 0 0.909804
0.0745098 0 0.905882
0.431373 0 0.913725
0.815686 0 0.909804
1 0 0.905882
0.00784314 0.0666667 0.913725
0.0784314 0.0745098 0.913725
0.45098 0.105882 0.909804
0.819608 0.141176 0.905882
0.996078 0.145098 0.901961
0 0.356863 0.913725
0.0745098 0.352941 0.913725
0.45098 0.364706 0.909804
0.819608 0.388235 0.913725
1 0.392157 0.905882
0 0.67451 0.913725
0.0588235 0.682353 0.92549
0.435294 0.678431 0.913725
0.815686 0.682353 0.913725
1 0.686275 0.913725
0 0.992157 0.905882
0.0705882 0.992157 0.905882
0.443137 0.992157 0.901961
0.815686 0.988235 0.909804
1 0.992157 0.917647
