assets/luts/cinematic/M Seventy.cube
#Generated by Picture Instruments - Unlimited Filters
TITLE "M Seventy"
LUT_3D_SIZE 9
0.0156863 0.00784314 0.0509804
0.160784 0.0117647 0.0705882
0.290196 0.0470588 0.105882
0.423529 0.0705882 0.117647
0.568627 0.0901961 0.133333
0.690196 0.113725 0.152941
0.772549 0.117647 0.156863
0.835294 0.121569 0.168627
0.858824 0.133333 0.168627
0.0235294 0.0431373 0.0588235
0.133333 0.0431373 0.0666667
0.270588 0.0980392 0.101961
0.407843 0.141176 0.129412
0.556863 0.168627 0.145098
0.678431 0.180392 0.156863
0.768627 0.192157 0.164706
0.839216 0.2 0.172549
0.858824 0.2 0.172549
0.0235294 0.180392 0.0784314
0.133333 0.145098 0.0784314
0.227451 0.133333 0.0941176
0.364706 0.184314 0.121569
0.521569 0.215686 0.137255
0.658824 0.231373 0.152941
0.764706 0.243137 0.168627
0.827451 0.258824 0.176471
0.862745 0.258824 0.176471
0.0313725 0.301961 0.0901961
0.129412 0.25098 0.0862745
0.211765 0.196078 0.0823529
0.352941 0.211765 0.117647
0.501961 0.254902 0.133333
0.654902 0.270588 0.156863
0.756863 0.298039 0.168627
0.827451 0.305882 0.184314
0.854902 0.309804 0.184314
0.0392157 0.392157 0.109804
0.141176 0.345098 0.101961
0.215686 0.282353 0.105882
0.329412 0.25098 0.113725
0.478431 0.290196 0.141176
0.639216 0.313725 0.156863
0.752941 0.337255 0.172549
0.819608 0.341176 0.180392
0.862745 0.34902 0.184314
0.054902 0.556863 0.113725
0.156863 0.545098 0.117647
0.258824 0.529412 0.113725
0.372549 0.494118 0.12549
0.490196 0.466667 0.121569
0.635294 0.47451 0.160784
0.756863 0.494118 0.176471
0.819608 0.513725 0.188235
0.854902 0.517647 0.188235
0.0823529 0.709804 0.121569
0.188235 0.713725 0.129412
0.278431 0.701961 0.121569
0.403922 0.690196 0.137255
0.52549 0.666667 0.14902
0.658824 0.658824 0.141176
0.760784 0.662745 0.164706
0.835294 0.67451 0.180392
0.878431 0.686275 0.184314
0.0941176 0.807843 0.129412
0.2 0.815686 0.121569
0.298039 0.819608 0.12549
0.427451 0.811765 0.141176
0.54902 0.796078 0.145098
0.686275 0.796078 0.160784
0.788235 0.8 0.152941
0.862745 0.811765 0.168627
0.890196 0.803922 0.172549
0.0980392 0.854902 0.133333
0.215686 0.862745 0.129412
0.333333 0.866667 0.137255
0.458824 0.866667 0.141176
0.607843 0.862745 0.14902
0.721569 0.858824 0.160784
0.807843 0.866667 0.164706
0.870588 0.866667 0.168627
0.894118 0.866667 0.168627
0.0196078 0.0117647 0.105882
0.145098 0.0117647 0.117647
0.286275 0.0352941 0.141176
0.431373 0.0627451 0.168627
0.572549 0.0941176 0.176471
0.698039 0.117647 0.180392
0.776471 0.117647 0.184314
0.835294 0.12549 0.184314
0.858824 0.12549 0.180392
0.0156863 0.0392157 0.0941176
0.141176 0.0588235 0.117647
0.278431 0.109804 0.145098
0.419608 0.160784 0.168627
0.560784 0.184314 0.192157
0.694118 0.203922 0.196078
0.784314 0.203922 0.196078
0.843137 0.207843 0.196078
0.858824 0.215686 0.192157
0.0117647 0.172549 0.109804
0.141176 0.160784 0.133333
0.25098 0.160784 0.137255
0.403922 0.215686 0.160784
0.537255 0.25098 0.192157
0.678431 0.258824 0.188235
0.780392 0.266667 0.196078
0.835294 0.278431 0.192157
0.866667 0.286275 0.196078
0.0431373 0.313725 0.141176
0.145098 0.294118 0.14902
0.239216 0.239216 0.137255
0.364706 0.247059 0.152941
0.513725 0.290196 0.184314
0.666667 0.309804 0.196078
0.768627 0.32549 0.2
0.823529 0.337255 0.196078
0.858824 0.337255 0.2
0.0392157 0.411765 0.160784
0.145098 0.396078 0.160784
0.254902 0.34902 0.160784
0.360784 0.313725 0.156863
0.505882 0.333333 0.180392
0.662745 0.360784 0.196078
0.760784 0.376471 0.2
0.827451 0.388235 0.2
0.866667 0.396078 0.203922
0.0588235 0.592157 0.168627
0.176471 0.596078 0.188235
0.282353 0.584314 0.176471
0.4 0.545098 0.172549
0.509804 0.521569 0.172549
0.643137 0.517647 0.192157
0.756863 0.537255 0.203922
0.831373 0.556863 0.211765
0.866667 0.556863 0.207843
0.0784314 0.713725 0.172549
0.196078 0.733333 0.188235
0.298039 0.733333 0.192157
0.427451 0.717647 0.180392
0.552941 0.698039 0.184314
0.678431 0.690196 0.176471
0.768627 0.686275 0.188235
0.843137 0.694118 0.203922
0.882353 0.705882 0.207843
0.0980392 0.811765 0.176471
0.211765 0.835294 0.2
0.313725 0.823529 0.188235
0.447059 0.823529 0.188235
0.564706 0.815686 0.192157
0.701961 0.8 0.188235
0.803922 0.811765 0.188235
0.866667 0.815686 0.196078
0.894118 0.815686 0.2
0.0980392 0.862745 0.203922
0.239216 0.886275 0.239216
0.368627 0.890196 0.227451
0.486275 0.886275 0.219608
0.631373 0.878431 0.223529
0.741176 0.870588 0.215686
0.815686 0.878431 0.207843
0.878431 0.878431 0.203922
0.905882 0.878431 0.203922
0.00784314 0.0117647 0.235294
0.141176 0.00784314 0.243137
0.294118 0.0235294 0.247059
0.439216 0.0588235 0.266667
0.588235 0.0784314 0.258824
0.705882 0.0980392 0.254902
0.788235 0.117647 0.258824
0.847059 0.121569 0.243137
0.870588 0.12549 0.239216
0.0117647 0.0862745 0.211765
0.133333 0.0862745 0.227451
0.278431 0.105882 0.243137
0.435294 0.160784 0.254902
0.576471 0.188235 0.266667
0.713725 0.211765 0.262745
0.796078 0.215686 0.262745
0.85098 0.223529 0.254902
0.882353 0.223529 0.25098
0.00784314 0.196078 0.211765
0.133333 0.184314 0.215686
0.286275 0.203922 0.231373
0.427451 0.254902 0.258824
0.572549 0.286275 0.262745
0.713725 0.294118 0.262745
0.796078 0.309804 0.262745
0.858824 0.309804 0.258824
0.882353 0.313725 0.262745
0.0156863 0.32549 0.211765
0.141176 0.317647 0.227451
0.282353 0.294118 0.227451
0.403922 0.290196 0.235294
0.552941 0.329412 0.254902
0.694118 0.34902 0.262745
0.792157 0.368627 0.258824
0.854902 0.380392 0.258824
0.878431 0.384314 0.258824
0.027451 0.435294 0.227451
0.145098 0.427451 0.247059
0.286275 0.439216 0.254902
0.4 0.384314 0.239216
0.529412 0.396078 0.258824
0.670588 0.415686 0.25098
0.780392 0.431373 0.258824
0.854902 0.443137 0.254902
0.882353 0.45098 0.266667
0.0588235 0.596078 0.235294
0.172549 0.615686 0.262745
0.301961 0.619608 0.258824
0.435294 0.592157 0.254902
0.552941 0.576471 0.239216
0.682353 0.560784 0.247059
0.784314 0.576471 0.262745
0.85098 0.592157 0.262745
0.886275 0.603922 0.270588
0.0784314 0.72549 0.25098
0.203922 0.752941 0.270588
0.333333 0.764706 0.282353
0.454902 0.745098 0.262745
0.572549 0.729412 0.247059
0.694118 0.709804 0.235294
0.788235 0.709804 0.235294
0.866667 0.72549 0.254902
0.890196 0.729412 0.262745
0.0901961 0.819608 0.25098
0.223529 0.847059 0.27451
0.356863 0.858824 0.282353
0.470588 0.854902 0.270588
0.603922 0.839216 0.262745
0.717647 0.827451 0.25098
0.811765 0.827451 0.243137
0.878431 0.823529 0.243137
0.913725 0.831373 0.258824
0.0941176 0.866667 0.321569
0.223529 0.890196 0.341176
0.392157 0.909804 0.368627
0.529412 0.913725 0.341176
0.654902 0.905882 0.321569
0.764706 0.898039 0.313725
0.839216 0.894118 0.286275
0.898039 0.898039 0.278431
0.921569 0.890196 0.270588
0.00784314 0.0235294 0.380392
0.105882 0.0235294 0.388235
0.278431 0.0235294 0.384314
0.45098 0.0470588 0.396078
0.596078 0.0784314 0.376471
0.729412 0.0941176 0.380392
0.807843 0.0980392 0.368627
0.866667 0.109804 0.356863
0.894118 0.113725 0.352941
0.0117647 0.129412 0.364706
0.101961 0.137255 0.368627
0.278431 0.137255 0.376471
0.447059 0.152941 0.372549
0.596078 0.192157 0.376471
0.733333 0.203922 0.372549
0.827451 0.219608 0.376471
0.878431 0.227451 0.368627
0.901961 0.223529 0.360784
0.00784314 0.243137 0.345098
0.109804 0.231373 0.345098
0.27451 0.239216 0.360784
0.439216 0.266667 0.364706
0.603922 0.301961 0.380392
0.733333 0.313725 0.376471
0.835294 0.337255 0.380392
0.890196 0.341176 0.392157
0.909804 0.345098 0.380392
0.00784314 0.34902 0.317647
0.113725 0.345098 0.329412
0.27451 0.34902 0.341176
0.435294 0.364706 0.356863
0.6 0.407843 0.388235
0.733333 0.427451 0.388235
0.839216 0.443137 0.396078
0.898039 0.443137 0.392157
0.921569 0.45098 0.396078
0.00784314 0.458824 0.329412
0.133333 0.47451 0.337255
0.290196 0.490196 0.368627
0.439216 0.47451 0.360784
0.576471 0.458824 0.364706
0.729412 0.498039 0.380392
0.819608 0.505882 0.376471
0.882353 0.517647 0.384314
0.917647 0.529412 0.384314
0.0470588 0.627451 0.321569
0.156863 0.647059 0.34902
0.321569 0.662745 0.384314
0.466667 0.670588 0.380392
0.592157 0.619608 0.345098
0.717647 0.611765 0.341176
0.807843 0.635294 0.356863
0.878431 0.65098 0.364706
0.909804 0.65098 0.356863
0.0745098 0.745098 0.337255
0.192157 0.768627 0.360784
0.352941 0.792157 0.4
0.490196 0.792157 0.384314
0.619608 0.768627 0.364706
0.733333 0.756863 0.333333
0.819608 0.74902 0.32549
0.886275 0.768627 0.337255
0.917647 0.768627 0.34902
0.0862745 0.831373 0.345098
0.2 0.847059 0.372549
0.364706 0.87451 0.396078
0.498039 0.890196 0.403922
0.639216 0.870588 0.368627
0.752941 0.858824 0.352941
0.835294 0.858824 0.333333
0.901961 0.862745 0.337255
0.937255 0.866667 0.364706
0.0745098 0.878431 0.439216
0.2 0.894118 0.458824
0.356863 0.905882 0.490196
0.556863 0.933333 0.509804
0.690196 0.937255 0.486275
0.807843 0.937255 0.47451
0.882353 0.929412 0.439216
0.929412 0.933333 0.427451
0.941176 0.92549 0.431373
0.00784314 0.0313725 0.517647
0.0745098 0.0352941 0.52549
0.239216 0.0235294 0.52549
0.431373 0.0313725 0.533333
0.623529 0.0627451 0.52549
0.737255 0.0784314 0.521569
0.831373 0.0941176 0.52549
0.886275 0.0980392 0.498039
0.905882 0.101961 0.494118
0.00784314 0.14902 0.494118
0.0666667 0.160784 0.498039
0.239216 0.156863 0.529412
0.435294 0.156863 0.517647
0.619608 0.188235 0.52549
0.745098 0.203922 0.505882
0.847059 0.211765 0.505882
0.898039 0.223529 0.505882
0.917647 0.223529 0.505882
0.00784314 0.270588 0.486275
0.0941176 0.278431 0.482353
0.223529 0.282353 0.505882
0.439216 0.290196 0.521569
0.619608 0.309804 0.498039
0.760784 0.321569 0.517647
0.854902 0.333333 0.517647
0.921569 0.34902 0.533333
0.92549 0.34902 0.52549
0.0117647 0.388235 0.47451
0.0784314 0.392157 0.482353
0.231373 0.392157 0.470588
0.439216 0.415686 0.517647
0.627451 0.435294 0.521569
0.776471 0.466667 0.541176
0.870588 0.47451 0.545098
0.937255 0.498039 0.545098
0.937255 0.482353 0.552941
0.00784314 0.505882 0.462745
0.0980392 0.513725 0.466667
0.247059 0.533333 0.490196
0.454902 0.556863 0.521569
0.635294 0.560784 0.533333
0.780392 0.592157 0.552941
0.882353 0.607843 0.560784
0.941176 0.619608 0.572549
0.945098 0.623529 0.572549
0.0117647 0.666667 0.462745
0.117647 0.67451 0.478431
0.282353 0.698039 0.505882
0.486275 0.701961 0.537255
0.643137 0.705882 0.529412
0.764706 0.694118 0.513725
0.866667 0.717647 0.541176
0.929412 0.733333 0.541176
0.945098 0.729412 0.545098
0.0470588 0.780392 0.462745
0.152941 0.788235 0.490196
0.301961 0.803922 0.513725
0.505882 0.831373 0.556863
0.67451 0.839216 0.54902
0.776471 0.807843 0.505882
0.866667 0.803922 0.501961
0.92549 0.819608 0.517647
0.94902 0.831373 0.545098
0.054902 0.854902 0.47451
0.180392 0.866667 0.494118
0.317647 0.886275 0.529412
0.517647 0.909804 0.564706
0.682353 0.92549 0.545098
0.803922 0.905882 0.52549
0.894118 0.909804 0.529412
0.945098 0.913725 0.529412
0.956863 0.913725 0.552941
0.0509804 0.886275 0.556863
0.152941 0.898039 0.592157
0.301961 0.913725 0.6
0.505882 0.937255 0.65098
0.733333 0.952941 0.654902
0.85098 0.956863 0.643137
0.921569 0.956863 0.627451
0.960784 0.960784 0.615686
0.960784 0.960784 0.615686
0.00784314 0.027451 0.631373
0.0705882 0.0352941 0.643137
0.207843 0.027451 0.654902
0.396078 0.0352941 0.67451
0.631373 0.0470588 0.690196
0.760784 0.0627451 0.690196
0.854902 0.0784314 0.701961
0.913725 0.0862745 0.690196
0.933333 0.0980392 0.694118
0.00392157 0.152941 0.635294
0.0627451 0.164706 0.647059
0.203922 0.152941 0.666667
0.403922 0.164706 0.67451
0.631373 0.180392 0.694118
0.780392 0.196078 0.690196
0.866667 0.203922 0.694118
0.92549 0.219608 0.701961
0.941176 0.223529 0.694118
0.0117647 0.282353 0.639216
0.0666667 0.282353 0.639216
0.192157 0.286275 0.662745
0.384314 0.298039 0.682353
0.635294 0.313725 0.698039
0.792157 0.329412 0.709804
0.882353 0.356863 0.705882
0.945098 0.360784 0.713725
0.945098 0.360784 0.717647
0.00784314 0.411765 0.639216
0.0666667 0.415686 0.635294
0.207843 0.419608 0.662745
0.388235 0.431373 0.682353
0.643137 0.462745 0.717647
0.8 0.478431 0.721569
0.901961 0.494118 0.733333
0.952941 0.498039 0.737255
0.952941 0.505882 0.737255
0.00784314 0.541176 0.643137
0.0745098 0.545098 0.65098
0.211765 0.564706 0.670588
0.392157 0.588235 0.686275
0.647059 0.588235 0.709804
0.811765 0.615686 0.721569
0.917647 0.631373 0.737255
0.964706 0.639216 0.74902
0.956863 0.639216 0.74902
0.00784314 0.698039 0.654902
0.0823529 0.709804 0.670588
0.223529 0.72549 0.67451
0.403922 0.737255 0.709804
0.658824 0.745098 0.698039
0.815686 0.745098 0.705882
0.917647 0.768627 0.72549
0.964706 0.776471 0.729412
0.964706 0.780392 0.741176
0.00784314 0.811765 0.65098
0.109804 0.823529 0.67451
0.227451 0.839216 0.694118
0.423529 0.862745 0.721569
0.682353 0.866667 0.72549
0.827451 0.858824 0.713725
0.917647 0.854902 0.713725
0.972549 0.878431 0.745098
0.972549 0.886275 0.741176
0.0156863 0.890196 0.67451
0.105882 0.894118 0.678431
0.239216 0.909804 0.701961
0.427451 0.933333 0.721569
0.698039 0.952941 0.733333
0.854902 0.964706 0.737255
0.933333 0.952941 0.72549
0.976471 0.956863 0.737255
0.976471 0.960784 0.745098
0.0156863 0.890196 0.713725
0.105882 0.898039 0.721569
0.239216 0.913725 0.745098
0.454902 0.937255 0.764706
0.698039 0.964706 0.780392
0.870588 0.972549 0.784314
0.956863 0.976471 0.772549
0.976471 0.976471 0.780392
0.976471 0.976471 0.768627
0.0117647 0.0196078 0.721569
0.0666667 0.0352941 0.745098
0.184314 0.027451 0.752941
0.368627 0.027451 0.780392
0.607843 0.0392157 0.796078
0.784314 0.054902 0.819608
0.878431 0.0705882 0.811765
0.929412 0.0705882 0.815686
0.941176 0.0784314 0.815686
0.0117647 0.156863 0.745098
0.0470588 0.164706 0.745098
0.172549 0.156863 0.764706
0.368627 0.168627 0.784314
0.631373 0.184314 0.803922
0.788235 0.192157 0.823529
0.898039 0.2 0.827451
0.952941 0.215686 0.831373
0.94902 0.219608 0.819608
0.0117647 0.294118 0.756863
0.054902 0.286275 0.74902
0.176471 0.301961 0.776471
0.345098 0.298039 0.792157
0.627451 0.329412 0.823529
0.803922 0.337255 0.839216
0.913725 0.352941 0.839216
0.960784 0.360784 0.847059
0.956863 0.372549 0.843137
0.0117647 0.427451 0.756863
0.0627451 0.431373 0.772549
0.172549 0.435294 0.776471
0.34902 0.454902 0.803922
0.643137 0.482353 0.843137
0.815686 0.498039 0.862745
0.92549 0.517647 0.866667
0.964706 0.52549 0.862745
0.964706 0.52549 0.862745
0.00392157 0.576471 0.776471
0.0784314 0.576471 0.776471
0.192157 0.588235 0.792157
0.368627 0.607843 0.823529
0.615686 0.611765 0.839216
0.827451 0.631373 0.862745
0.933333 0.647059 0.862745
0.972549 0.654902 0.87451
0.972549 0.666667 0.870588
0.00784314 0.713725 0.780392
0.0745098 0.721569 0.796078
0.188235 0.741176 0.807843
0.368627 0.764706 0.835294
0.627451 0.764706 0.843137
0.823529 0.764706 0.847059
0.952941 0.788235 0.866667
0.976471 0.803922 0.862745
0.976471 0.803922 0.870588
0.0117647 0.823529 0.792157
0.0823529 0.831373 0.8
0.203922 0.854902 0.815686
0.376471 0.866667 0.835294
0.639216 0.886275 0.854902
0.835294 0.898039 0.858824
0.960784 0.905882 0.870588
0.988235 0.921569 0.890196
0.984314 0.92549 0.890196
0.0156863 0.894118 0.8
0.0980392 0.909804 0.807843
0.211765 0.913725 0.827451
0.376471 0.941176 0.85098
0.67451 0.964706 0.866667
0.862745 0.980392 0.878431
0.976471 0.988235 0.882353
0.988235 0.988235 0.886275
0.988235 0.988235 0.901961
0.00784314 0.894118 0.803922
0.0941176 0.901961 0.819608
0.211765 0.917647 0.831373
0.411765 0.933333 0.858824
0.690196 0.960784 0.878431
0.870588 0.980392 0.890196
0.976471 0.988235 0.898039
0.988235 0.988235 0.901961
0.988235 0.988235 0.901961
0.00784314 0.0235294 0.792157
0.054902 0.0235294 0.803922
0.176471 0.0235294 0.819608
0.34902 0.027451 0.839216
0.611765 0.0470588 0.87451
0.792157 0.0509804 0.898039
0.886275 0.0627451 0.898039
0.945098 0.0666667 0.882353
0.941176 0.0627451 0.882353
0.00784314 0.160784 0.811765
0.0431373 0.164706 0.823529
0.152941 0.168627 0.831373
0.337255 0.168627 0.854902
0.619608 0.192157 0.894118
0.796078 0.192157 0.905882
0.905882 0.211765 0.913725
0.960784 0.211765 0.909804
0.956863 0.219608 0.905882
0.0117647 0.301961 0.831373
0.0509804 0.301961 0.835294
0.152941 0.317647 0.85098
0.341176 0.313725 0.870588
0.623529 0.333333 0.901961
0.815686 0.352941 0.92549
0.92549 0.372549 0.92549
0.964706 0.364706 0.929412
0.964706 0.368627 0.929412
0.00784314 0.447059 0.839216
0.054902 0.462745 0.85098
0.156863 0.462745 0.854902
0.352941 0.482353 0.894118
0.623529 0.490196 0.921569
0.823529 0.517647 0.945098
0.945098 0.521569 0.94902
0.976471 0.541176 0.945098
0.980392 0.545098 0.94902
0.00784314 0.603922 0.85098
0.0705882 0.611765 0.858824
0.176471 0.623529 0.870588
0.352941 0.647059 0.901961
0.627451 0.635294 0.929412
0.827451 0.654902 0.94902
0.960784 0.670588 0.964706
0.980392 0.686275 0.956863
0.980392 0.686275 0.956863
0.0117647 0.733333 0.866667
0.0745098 0.741176 0.878431
0.188235 0.752941 0.886275
0.364706 0.772549 0.909804
0.639216 0.788235 0.941176
0.831373 0.784314 0.964706
0.968627 0.807843 0.980392
0.988235 0.803922 0.968627
0.988235 0.819608 0.968627
0.0156863 0.831373 0.870588
0.0784314 0.839216 0.878431
0.180392 0.854902 0.901961
0.360784 0.878431 0.92549
0.643137 0.901961 0.94902
0.843137 0.913725 0.960784
0.972549 0.92549 0.980392
1 0.929412 0.984314
0.996078 0.945098 0.984314
0.0156863 0.898039 0.87451
0.0784314 0.905882 0.882353
0.192157 0.913725 0.905882
0.372549 0.941176 0.929412
0.65098 0.964706 0.952941
0.85098 0.984314 0.980392
0.976471 0.996078 0.980392
1 1 0.992157
1 1 0.992157
0.0117647 0.898039 0.878431
0.0823529 0.905882 0.886275
0.192157 0.917647 0.898039
0.388235 0.941176 0.92549
0.654902 0.964706 0.952941
0.847059 0.984314 0.976471
0.988235 0.996078 0.976471
1 1 0.992157
1 1 0.992157
0.0117647 0.0235294 0.803922
0.0588235 0.027451 0.811765
0.160784 0.0235294 0.831373
0.345098 0.027451 0.862745
0.6 0.0470588 0.898039
0.796078 0.0431373 0.92549
0.901961 0.0588235 0.929412
0.94902 0.0666667 0.933333
0.945098 0.0627451 0.92549
0.00392157 0.164706 0.815686
0.0431373 0.164706 0.823529
0.152941 0.168627 0.835294
0.356863 0.172549 0.870588
0.619608 0.188235 0.913725
0.803922 0.196078 0.933333
0.913725 0.203922 0.941176
0.960784 0.215686 0.952941
0.956863 0.219608 0.937255
0.0117647 0.298039 0.839216
0.0431373 0.301961 0.843137
0.14902 0.321569 0.85098
0.337255 0.317647 0.87451
0.639216 0.34902 0.921569
0.819608 0.364706 0.94902
0.92549 0.376471 0.956863
0.968627 0.384314 0.964706
0.968627 0.384314 0.956863
0.00392157 0.458824 0.85098
0.0509804 0.466667 0.858824
0.156863 0.482353 0.87451
0.341176 0.494118 0.894118
0.627451 0.517647 0.92549
0.823529 0.545098 0.956863
0.952941 0.556863 0.976471
0.980392 0.564706 0.976471
0.976471 0.564706 0.976471
0.00392157 0.623529 0.870588
0.0666667 0.631373 0.878431
0.160784 0.635294 0.886275
0.360784 0.666667 0.909804
0.635294 0.65098 0.937255
0.827451 0.678431 0.964706
0.960784 0.694118 0.980392
0.984314 0.698039 0.984314
0.984314 0.705882 0.984314
0.0117647 0.745098 0.882353
0.0666667 0.756863 0.890196
0.180392 0.764706 0.901961
0.364706 0.792157 0.921569
0.635294 0.796078 0.94902
0.831373 0.8 0.964706
0.968627 0.815686 0.988235
0.988235 0.819608 0.992157
0.992157 0.823529 0.992157
0.0117647 0.839216 0.894118
0.0705882 0.839216 0.901961
0.180392 0.862745 0.909804
0.372549 0.886275 0.937255
0.647059 0.909804 0.960784
0.847059 0.913725 0.980392
0.976471 0.92549 0.992157
0.992157 0.933333 0.996078
0.992157 0.937255 0.992157
0.0156863 0.901961 0.898039
0.0784314 0.909804 0.913725
0.188235 0.917647 0.917647
0.376471 0.937255 0.941176
0.666667 0.968627 0.968627
0.85098 0.984314 0.984314
0.980392 0.996078 1
1 1 1
1 1 1
0.0156863 0.901961 0.898039
0.0705882 0.901961 0.905882
0.188235 0.917647 0.913725
0.380392 0.937255 0.941176
0.662745 0.968627 0.968627
0.85098 0.984314 0.984314
0.980392 0.996078 1
1 1 1
1 1 1
