assets/luts/cinematic/M Seventy.cube
#Generated by Picture Instruments - Unlimited Filters
TITLE "M Seventy"
LUT_3D_SIZE 5
0.0156863 0.00784314 0.0509804
0.290196 0.0470588 0.105882
0.568627 0.0901961 0.133333
0.772549 0.117647 0.156863
0.858824 0.133333 0.168627
0.0235294 0.180392 0.0784314
0.227451 0.133333 0.0941176
0.521569 0.215686 0.137255
0.764706 0.243137 0.168627
0.862745 0.258824 0.176471
0.0392157 0.392157 0.109804
0.215686 0.282353 0.105882
0.478431 0.290196 0.141176
0.752941 0.337255 0.172549
0.862745 0.34902 0.184314
0.0823529 0.709804 0.121569
0.278431 0.701961 0.121569
0.52549 0.666667 0.14902
0.760784 0.662745 0.164706
0.878431 0.686275 0.184314
0.0980392 0.854902 0.133333
0.333333 0.866667 0.137255
0.607843 0.862745 0.14902
0.807843 0.866667 0.164706
0.894118 0.866667 0.168627
0.00784314 0.0117647 0.235294
0.294118 0.0235294 0.247059
0.588235 0.0784314 0.258824
0.788235 0.117647 0.258824
0.870588 0.12549 0.239216
0.00784314 0.196078 0.211765
0.286275 0.203922 0.231373
0.572549 0.286275 0.262745
0.796078 0.309804 0.262745
0.882353 0.313725 0.262745
0.027451 0.435294 0.227451
0.286275 0.439216 0.254902
0.529412 0.396078 0.258824
0.780392 0.431373 0.258824
0.882353 0.45098 0.266667
0.0784314 0.72549 0.25098
0.333333 0.764706 0.282353
0.572549 0.729412 0.247059
0.788235 0.709804 0.235294
0.890196 0.729412 0.262745
0.0941176 0.866667 0.321569
0.392157 0.909804 0.368627
0.654902 0.905882 0.321569
0.839216 0.894118 0.286275
0.921569 0.890196 0.270588
0.00784314 0.0313725 0.517647
0.239216 0.0235294 0.52549
0.623529 0.0627451 0.52549
0.831373 0.0941176 0.52549
0.905882 0.101961 0.494118
0.00784314 0.270588 0.486275
0.223529 0.282353 0.505882
0.619608 0.309804 0.498039
0.854902 0.333333 0.517647
0.92549 0.34902 0.52549
0.00784314 0.505882 0.462745
0.247059 0.533333 0.490196
0.635294 0.560784 0.533333
0.882353 0.607843 0.560784
0.945098 0.623529 0.572549
0.0470588 0.780392 0.462745
0.301961 0.803922 0.513725
0.67451 0.839216 0.54902
0.866667 0.803922 0.501961
0.94902 0.831373 0.545098
0.0509804 0.886275 0.556863
0.301961 0.913725 0.6
0.733333 0.952941 0.654902
0.921569 0.956863 0.627451
0.960784 0.960784 0.615686
0.0117647 0.0196078 0.721569
0.184314 0.027451 0.752941
0.607843 0.0392157 0.796078
0.878431 0.0705882 0.811765
0.941176 0.0784314 0.815686
0.0117647 0.294118 0.756863
0.176471 0.301961 0.776471
0.627451 0.329412 0.823529
0.913725 0.352941 0.839216
0.956863 0.372549 0.843137
0.00392157 0.576471 0.776471
0.192157 0.588235 0.792157
0.615686 0.611765 0.839216
0.933333 0.647059 0.862745
0.972549 0.666667 0.870588
0.0117647 0.823529 0.792157
0.203922 0.854902 0.815686
0.639216 0.886275 0.854902
0.960784 0.905882 0.870588
0.984314 0.92549 0.890196
0.00784314 0.894118 0.803922
0.211765 0.917647 0.831373
0.690196 0.960784 0.878431
0.976471 0.988235 0.898039
0.988235 0.988235 0.901961
0.0117647 0.0235294 0.803922
0.160784 0.0235294 0.831373
0.6 0.0470588 0.898039
0.901961 0.0588235 0.929412
0.945098 0.0627451 0.92549
0.0117647 0.298039 0.839216
0.14902 0.321569 0.85098
0.639216 0.34902 0.921569
0.92549 0.376471 0.956863
0.968627 0.384314 0.956863
0.00392157 0.623529 0.870588
0.160784 0.635294 0.886275
0.635294 0.65098 0.937255
0.960784 0.694118 0.980392
0.984314 0.705882 0.984314
0.0117647 0.839216 0.894118
0.180392 0.862745 0.909804
0.647059 0.909804 0.960784
0.976471 0.92549 0.992157
0.992157 0.937255 0.992157
0.0156863 0.901961 0.898039
0.188235 0.917647 0.913725
0.662745 0.968627 0.968627
0.980392 0.996078 1
1 1 1
