assets/luts/cinematic/M Seventy.cube
#Generated by Picture Instruments - Unlimited Filters
TITLE "M Seventy"
LUT_3D_SIZE 17
0.0156863 0.00784314 0.0509804
0.0941176 0.00784314 0.0588235
0.160784 0.0117647 0.0705882
0.227451 0.0196078 0.0823529
0.290196 0.0470588 0.105882
0.360784 0.054902 0.109804
0.423529 0.0705882 0.117647
0.505882 0.0901961 0.137255
0.568627 0.0901961 0.133333
0.643137 0.109804 0.14902
0.690196 0.113725 0.152941
0.729412 0.113725 0.14902
0.772549 0.117647 0.156863
0.803922 0.121569 0.160784
0.835294 0.121569 0.168627
0.854902 0.12549 0.168627
0.858824 0.133333 0.168627
0.0156863 0.00784314 0.0588235
0.0862745 0.00784314 0.054902
0.141176 0.0235294 0.0705882
0.207843 0.0431373 0.0823529
0.27451 0.0666667 0.105882
0.345098 0.0901961 0.113725
0.407843 0.109804 0.117647
0.482353 0.129412 0.137255
0.552941 0.137255 0.145098
0.627451 0.145098 0.152941
0.682353 0.14902 0.156863
0.737255 0.156863 0.156863
0.776471 0.164706 0.168627
0.807843 0.164706 0.168627
0.827451 0.160784 0.172549
0.85098 0.168627 0.176471
0.854902 0.168627 0.176471
0.0235294 0.0431373 0.0588235
0.0705882 0.0313725 0.0666667
0.133333 0.0431373 0.0666667
0.188235 0.0627451 0.0823529
0.270588 0.0980392 0.101961
0.341176 0.113725 0.109804
0.407843 0.141176 0.129412
0.466667 0.156863 0.137255
0.556863 0.168627 0.145098
0.619608 0.176471 0.152941
0.678431 0.180392 0.156863
0.733333 0.188235 0.160784
0.768627 0.192157 0.164706
0.807843 0.203922 0.172549
0.839216 0.2 0.172549
0.858824 0.203922 0.172549
0.858824 0.2 0.172549
0.0196078 0.0980392 0.0627451
0.0666667 0.0862745 0.0627451
0.129412 0.0745098 0.0705882
0.180392 0.0862745 0.0862745
0.243137 0.105882 0.0980392
0.309804 0.141176 0.113725
0.388235 0.160784 0.117647
0.454902 0.188235 0.137255
0.533333 0.196078 0.145098
0.611765 0.211765 0.156863
0.67451 0.211765 0.156863
0.717647 0.219608 0.160784
0.768627 0.219608 0.168627
0.803922 0.223529 0.176471
0.823529 0.219608 0.172549
0.847059 0.231373 0.172549
0.862745 0.231373 0.176471
0.0235294 0.180392 0.0784314
0.0705882 0.156863 0.0745098
0.133333 0.145098 0.0784314
0.176471 0.129412 0.0823529
0.227451 0.133333 0.0941176
0.305882 0.156863 0.105882
0.364706 0.184314 0.121569
0.447059 0.207843 0.137255
0.521569 0.215686 0.137255
0.6 0.227451 0.156863
0.658824 0.231373 0.152941
0.713725 0.231373 0.160784
0.764706 0.243137 0.168627
0.807843 0.254902 0.176471
0.827451 0.258824 0.176471
0.847059 0.262745 0.176471
0.862745 0.258824 0.176471
0.0352941 0.239216 0.0901961
0.0862745 0.227451 0.0862745
0.137255 0.192157 0.0901961
0.172549 0.168627 0.0862745
0.211765 0.14902 0.0901961
0.290196 0.176471 0.105882
0.364706 0.203922 0.117647
0.443137 0.231373 0.137255
0.501961 0.239216 0.137255
0.6 0.247059 0.152941
0.666667 0.258824 0.160784
0.721569 0.266667 0.168627
0.760784 0.27451 0.172549
0.8 0.27451 0.176471
0.827451 0.278431 0.172549
0.847059 0.282353 0.176471
0.858824 0.290196 0.176471
0.0313725 0.301961 0.0901961
0.0784314 0.270588 0.0862745
0.129412 0.25098 0.0862745
0.180392 0.223529 0.0901961
0.211765 0.196078 0.0823529
0.270588 0.188235 0.105882
0.352941 0.211765 0.117647
0.419608 0.239216 0.137255
0.501961 0.254902 0.133333
0.576471 0.266667 0.14902
0.654902 0.270588 0.156863
0.713725 0.294118 0.168627
0.756863 0.298039 0.168627
0.8 0.301961 0.176471
0.827451 0.305882 0.184314
0.847059 0.309804 0.184314
0.854902 0.309804 0.184314
0.0392157 0.34902 0.0941176
0.0901961 0.329412 0.0941176
0.137255 0.294118 0.0901961
0.176471 0.258824 0.0901961
0.215686 0.239216 0.0980392
0.270588 0.207843 0.105882
0.337255 0.219608 0.109804
0.415686 0.254902 0.137255
0.486275 0.27451 0.141176
0.568627 0.282353 0.152941
0.65098 0.298039 0.160784
0.709804 0.305882 0.168627
0.752941 0.313725 0.168627
0.8 0.329412 0.184314
0.823529 0.329412 0.180392
0.847059 0.329412 0.180392
0.862745 0.329412 0.180392
0.0392157 0.392157 0.109804
0.0941176 0.372549 0.105882
0.141176 0.345098 0.101961
0.180392 0.309804 0.0941176
0.215686 0.282353 0.105882
0.27451 0.266667 0.105882
0.329412 0.25098 0.113725
0.407843 0.278431 0.141176
0.478431 0.290196 0.141176
0.568627 0.301961 0.14902
0.639216 0.313725 0.156863
0.709804 0.329412 0.164706
0.752941 0.337255 0.172549
0.796078 0.341176 0.180392
0.819608 0.341176 0.180392
0.847059 0.34902 0.180392
0.862745 0.34902 0.184314
0.054902 0.486275 0.113725
0.0941176 0.454902 0.113725
0.137255 0.45098 0.109804
0.188235 0.439216 0.109804
0.235294 0.427451 0.117647
0.286275 0.403922 0.113725
0.34902 0.384314 0.121569
0.403922 0.364706 0.121569
0.478431 0.364706 0.137255
0.564706 0.384314 0.152941
0.639216 0.396078 0.164706
0.701961 0.411765 0.172549
0.752941 0.415686 0.176471
0.796078 0.427451 0.184314
0.823529 0.435294 0.180392
0.847059 0.435294 0.180392
0.85098 0.439216 0.180392
0.054902 0.556863 0.113725
0.0980392 0.552941 0.117647
0.156863 0.545098 0.117647
0.2 0.537255 0.109804
0.258824 0.529412 0.113725
0.317647 0.517647 0.121569
0.372549 0.494118 0.12549
0.423529 0.478431 0.133333
0.490196 0.466667 0.121569
0.564706 0.466667 0.145098
0.635294 0.47451 0.160784
0.698039 0.498039 0.172549
0.756863 0.494118 0.176471
0.796078 0.513725 0.184314
0.819608 0.513725 0.188235
0.85098 0.517647 0.192157
0.854902 0.517647 0.188235
0.0666667 0.643137 0.121569
0.113725 0.647059 0.121569
0.168627 0.647059 0.121569
0.215686 0.635294 0.12549
0.266667 0.631373 0.121569
0.329412 0.619608 0.129412
0.388235 0.603922 0.133333
0.439216 0.592157 0.133333
0.509804 0.580392 0.141176
0.572549 0.572549 0.141176
0.635294 0.568627 0.152941
0.709804 0.580392 0.160784
0.756863 0.588235 0.176471
0.803922 0.596078 0.180392
0.823529 0.592157 0.184314
0.854902 0.603922 0.188235
0.862745 0.603922 0.192157
0.0823529 0.709804 0.121569
0.145098 0.709804 0.12549
0.188235 0.713725 0.129412
0.223529 0.705882 0.117647
0.278431 0.701961 0.121569
0.34902 0.701961 0.12549
0.403922 0.690196 0.137255
0.458824 0.678431 0.141176
0.52549 0.666667 0.14902
0.596078 0.662745 0.145098
0.658824 0.658824 0.141176
0.709804 0.65098 0.152941
0.760784 0.662745 0.164706
0.807843 0.67451 0.180392
0.835294 0.67451 0.180392
0.866667 0.678431 0.184314
0.878431 0.686275 0.184314
0.0784314 0.764706 0.12549
0.141176 0.772549 0.129412
0.196078 0.768627 0.129412
0.243137 0.772549 0.12549
0.294118 0.768627 0.121569
0.352941 0.760784 0.137255
0.419608 0.752941 0.141176
0.47451 0.752941 0.14902
0.541176 0.737255 0.145098
0.603922 0.729412 0.156863
0.67451 0.737255 0.14902
0.72549 0.745098 0.14902
0.772549 0.733333 0.156863
0.807843 0.737255 0.164706
0.85098 0.74902 0.180392
0.870588 0.752941 0.172549
0.890196 0.756863 0.172549
0.0941176 0.807843 0.129412
0.141176 0.811765 0.121569
0.2 0.815686 0.121569
0.25098 0.815686 0.12549
0.298039 0.819608 0.12549
0.352941 0.815686 0.133333
0.427451 0.811765 0.141176
0.482353 0.807843 0.14902
0.54902 0.796078 0.145098
0.619608 0.796078 0.14902
0.686275 0.796078 0.160784
0.737255 0.803922 0.160784
0.788235 0.8 0.152941
0.819608 0.8 0.164706
0.862745 0.811765 0.168627
0.878431 0.8 0.168627
0.890196 0.803922 0.172549
0.101961 0.847059 0.12549
0.14902 0.847059 0.12549
0.215686 0.854902 0.129412
0.258824 0.847059 0.129412
0.301961 0.85098 0.12549
0.376471 0.85098 0.141176
0.435294 0.847059 0.141176
0.490196 0.847059 0.145098
0.564706 0.839216 0.14902
0.631373 0.835294 0.156863
0.694118 0.835294 0.160784
0.74902 0.843137 0.168627
0.8 0.839216 0.156863
0.839216 0.85098 0.164706
0.866667 0.843137 0.168627
0.890196 0.843137 0.168627
0.894118 0.843137 0.168627
0.0980392 0.854902 0.133333
0.152941 0.858824 0.133333
0.215686 0.862745 0.129412
0.262745 0.862745 0.12549
0.333333 0.866667 0.137255
0.403922 0.870588 0.141176
0.458824 0.866667 0.141176
0.537255 0.866667 0.145098
0.607843 0.862745 0.14902
0.670588 0.862745 0.156863
0.721569 0.858824 0.160784
0.768627 0.858824 0.164706
0.807843 0.866667 0.164706
0.839216 0.866667 0.160784
0.870588 0.866667 0.168627
0.882353 0.870588 0.168627
0.894118 0.866667 0.168627
0.0235294 0.00784314 0.0666667
0.0901961 0.00784314 0.0666667
0.160784 0.00784314 0.0823529
0.207843 0.0156863 0.0980392
0.286275 0.0392157 0.113725
0.364706 0.054902 0.129412
0.435294 0.0705882 0.145098
0.498039 0.0784314 0.156863
0.572549 0.0941176 0.152941
0.643137 0.101961 0.164706
0.694118 0.113725 0.168627
0.745098 0.113725 0.172549
0.772549 0.113725 0.164706
0.803922 0.117647 0.168627
0.835294 0.121569 0.172549
0.854902 0.12549 0.176471
0.858824 0.12549 0.172549
0.0235294 0.00784314 0.0666667
0.0862745 0.0156863 0.0705882
0.14902 0.0392157 0.0941176
0.219608 0.054902 0.101961
0.294118 0.0745098 0.117647
0.356863 0.0901961 0.133333
0.419608 0.117647 0.14902
0.494118 0.137255 0.164706
0.572549 0.145098 0.164706
0.635294 0.152941 0.164706
0.686275 0.152941 0.168627
0.733333 0.160784 0.172549
0.776471 0.172549 0.172549
0.807843 0.160784 0.176471
0.835294 0.176471 0.176471
0.854902 0.164706 0.176471
0.862745 0.164706 0.176471
0.0156863 0.0431373 0.0666667
0.0705882 0.0431373 0.0705882
0.133333 0.0509804 0.0862745
0.2 0.0705882 0.0980392
0.266667 0.101961 0.117647
0.345098 0.133333 0.133333
0.4 0.14902 0.141176
0.482353 0.168627 0.164706
0.564706 0.180392 0.168627
0.627451 0.188235 0.172549
0.682353 0.192157 0.168627
0.733333 0.196078 0.172549
0.772549 0.196078 0.168627
0.807843 0.2 0.180392
0.831373 0.207843 0.184314
0.847059 0.207843 0.180392
0.858824 0.207843 0.180392
0.0352941 0.0980392 0.0862745
0.0901961 0.0980392 0.0862745
0.133333 0.0862745 0.0941176
0.176471 0.0901961 0.0980392
0.25098 0.117647 0.109804
0.333333 0.145098 0.137255
0.4 0.176471 0.141176
0.470588 0.203922 0.160784
0.54902 0.207843 0.168627
0.615686 0.215686 0.168627
0.682353 0.227451 0.168627
0.729412 0.231373 0.172549
0.772549 0.223529 0.172549
0.807843 0.227451 0.172549
0.831373 0.235294 0.180392
0.858824 0.239216 0.192157
0.862745 0.239216 0.184314
0.0196078 0.172549 0.0901961
0.0823529 0.164706 0.0980392
0.141176 0.14902 0.0980392
0.176471 0.137255 0.0980392
0.243137 0.145098 0.117647
0.313725 0.168627 0.133333
0.384314 0.196078 0.141176
0.454902 0.223529 0.160784
0.529412 0.227451 0.164706
0.603922 0.239216 0.168627
0.662745 0.25098 0.168627
0.721569 0.254902 0.168627
0.768627 0.262745 0.176471
0.807843 0.262745 0.180392
0.827451 0.270588 0.184314
0.854902 0.270588 0.184314
0.862745 0.27451 0.184314
0.0235294 0.243137 0.105882
0.0862745 0.239216 0.117647
0.137255 0.211765 0.101961
0.176471 0.184314 0.101961
0.227451 0.164706 0.105882
0.294118 0.184314 0.129412
0.364706 0.215686 0.141176
0.439216 0.243137 0.152941
0.517647 0.25098 0.160784
0.6 0.262745 0.172549
0.662745 0.270588 0.168627
0.709804 0.270588 0.176471
0.768627 0.282353 0.180392
0.807843 0.294118 0.176471
0.831373 0.301961 0.188235
0.854902 0.301961 0.192157
0.858824 0.298039 0.192157
0.0392157 0.298039 0.109804
0.0901961 0.290196 0.121569
0.137255 0.27451 0.117647
0.184314 0.239216 0.109804
0.231373 0.211765 0.0980392
0.286275 0.203922 0.121569
0.364706 0.227451 0.141176
0.439216 0.258824 0.156863
0.517647 0.266667 0.156863
0.592157 0.282353 0.164706
0.666667 0.294118 0.168627
0.721569 0.301961 0.176471
0.764706 0.317647 0.184314
0.8 0.309804 0.184314
0.827451 0.317647 0.184314
0.847059 0.317647 0.192157
0.862745 0.32549 0.192157
0.0431373 0.352941 0.129412
0.0941176 0.341176 0.12549
0.145098 0.317647 0.12549
0.180392 0.294118 0.113725
0.231373 0.262745 0.117647
0.278431 0.235294 0.117647
0.345098 0.243137 0.137255
0.419608 0.278431 0.152941
0.498039 0.286275 0.152941
0.592157 0.298039 0.172549
0.654902 0.309804 0.168627
0.713725 0.32549 0.172549
0.752941 0.329412 0.180392
0.8 0.337255 0.188235
0.831373 0.345098 0.196078
0.85098 0.34902 0.196078
0.862745 0.34902 0.196078
0.0431373 0.407843 0.133333
0.0941176 0.392157 0.137255
0.141176 0.368627 0.137255
0.184314 0.337255 0.129412
0.235294 0.309804 0.129412
0.282353 0.290196 0.133333
0.341176 0.278431 0.137255
0.419608 0.290196 0.152941
0.494118 0.305882 0.156863
0.576471 0.321569 0.172549
0.65098 0.333333 0.164706
0.717647 0.341176 0.176471
0.756863 0.341176 0.176471
0.8 0.356863 0.184314
0.823529 0.364706 0.192157
0.854902 0.372549 0.2
0.862745 0.360784 0.196078
0.0431373 0.486275 0.133333
0.0980392 0.490196 0.145098
0.14902 0.478431 0.141176
0.2 0.470588 0.145098
0.247059 0.454902 0.141176
0.301961 0.427451 0.141176
0.360784 0.411765 0.141176
0.415686 0.396078 0.137255
0.490196 0.396078 0.152941
0.568627 0.403922 0.168627
0.639216 0.423529 0.172549
0.701961 0.427451 0.184314
0.752941 0.443137 0.184314
0.8 0.45098 0.192157
0.823529 0.458824 0.196078
0.858824 0.458824 0.2
0.866667 0.458824 0.2
0.0666667 0.576471 0.14902
0.109804 0.580392 0.14902
0.160784 0.564706 0.152941
0.211765 0.560784 0.145098
0.262745 0.54902 0.137255
0.329412 0.533333 0.141176
0.384314 0.517647 0.145098
0.439216 0.501961 0.152941
0.494118 0.486275 0.145098
0.580392 0.482353 0.160784
0.639216 0.490196 0.164706
0.705882 0.505882 0.180392
0.756863 0.517647 0.192157
0.792157 0.52549 0.192157
0.827451 0.537255 0.203922
0.854902 0.533333 0.203922
0.862745 0.533333 0.2
0.0666667 0.65098 0.141176
0.117647 0.654902 0.14902
0.180392 0.654902 0.14902
0.219608 0.647059 0.14902
0.270588 0.643137 0.141176
0.333333 0.631373 0.145098
0.407843 0.615686 0.160784
0.458824 0.611765 0.152941
0.513725 0.584314 0.152941
0.584314 0.584314 0.152941
0.647059 0.580392 0.164706
0.713725 0.584314 0.172549
0.760784 0.6 0.184314
0.803922 0.603922 0.192157
0.831373 0.607843 0.196078
0.862745 0.615686 0.203922
0.862745 0.611765 0.207843
0.0745098 0.713725 0.145098
0.141176 0.729412 0.152941
0.188235 0.721569 0.14902
0.25098 0.717647 0.152941
0.290196 0.717647 0.14902
0.352941 0.717647 0.156863
0.411765 0.694118 0.152941
0.47451 0.694118 0.156863
0.537255 0.678431 0.160784
0.596078 0.67451 0.160784
0.662745 0.666667 0.156863
0.713725 0.662745 0.160784
0.764706 0.670588 0.176471
0.811765 0.678431 0.184314
0.839216 0.690196 0.192157
0.862745 0.686275 0.196078
0.882353 0.694118 0.2
0.0980392 0.768627 0.156863
0.14902 0.776471 0.156863
0.196078 0.776471 0.156863
0.247059 0.772549 0.156863
0.294118 0.772549 0.145098
0.364706 0.772549 0.156863
0.431373 0.756863 0.160784
0.482353 0.760784 0.156863
0.552941 0.74902 0.164706
0.623529 0.741176 0.168627
0.690196 0.745098 0.168627
0.729412 0.737255 0.164706
0.768627 0.737255 0.168627
0.823529 0.741176 0.180392
0.85098 0.752941 0.184314
0.878431 0.760784 0.188235
0.894118 0.760784 0.188235
0.0980392 0.807843 0.160784
0.14902 0.819608 0.164706
0.203922 0.819608 0.156863
0.258824 0.819608 0.152941
0.301961 0.819608 0.14902
0.364706 0.819608 0.14902
0.439216 0.819608 0.164706
0.494118 0.819608 0.168627
0.568627 0.811765 0.172549
0.627451 0.8 0.176471
0.694118 0.803922 0.176471
0.745098 0.8 0.180392
0.788235 0.807843 0.164706
0.831373 0.807843 0.180392
0.862745 0.807843 0.176471
0.890196 0.811765 0.188235
0.898039 0.811765 0.184314
0.0941176 0.843137 0.152941
0.14902 0.85098 0.156863
0.211765 0.85098 0.156863
0.262745 0.858824 0.156863
0.301961 0.854902 0.160784
0.376471 0.858824 0.156863
0.431373 0.85098 0.152941
0.501961 0.854902 0.164706
0.564706 0.854902 0.168627
0.639216 0.847059 0.180392
0.701961 0.843137 0.176471
0.752941 0.843137 0.176471
0.811765 0.847059 0.176471
0.835294 0.85098 0.172549
0.87451 0.847059 0.184314
0.894118 0.85098 0.184314
0.898039 0.85098 0.180392
0.0980392 0.85098 0.168627
0.156863 0.866667 0.180392
0.223529 0.870588 0.172549
0.278431 0.87451 0.172549
0.337255 0.878431 0.168627
0.407843 0.87451 0.168627
0.478431 0.870588 0.172549
0.556863 0.870588 0.176471
0.615686 0.866667 0.180392
0.682353 0.866667 0.180392
0.729412 0.862745 0.180392
0.772549 0.866667 0.176471
0.811765 0.870588 0.176471
0.854902 0.87451 0.176471
0.87451 0.870588 0.184314
0.894118 0.866667 0.180392
0.898039 0.870588 0.180392
0.0196078 0.0117647 0.105882
0.0862745 0.00784314 0.105882
0.145098 0.0117647 0.117647
0.215686 0.00392157 0.129412
0.286275 0.0352941 0.141176
0.360784 0.054902 0.14902
0.431373 0.0627451 0.168627
0.498039 0.0745098 0.176471
0.572549 0.0941176 0.176471
0.639216 0.101961 0.180392
0.698039 0.117647 0.180392
0.737255 0.113725 0.184314
0.776471 0.117647 0.184314
0.807843 0.121569 0.180392
0.835294 0.12549 0.184314
0.854902 0.12549 0.180392
0.858824 0.12549 0.180392
0.0117647 0.0156863 0.0980392
0.0941176 0.0235294 0.109804
0.152941 0.0392157 0.117647
0.215686 0.0509804 0.129412
0.294118 0.0705882 0.145098
0.360784 0.0901961 0.160784
0.427451 0.121569 0.176471
0.509804 0.133333 0.188235
0.572549 0.141176 0.184314
0.647059 0.152941 0.196078
0.705882 0.156863 0.192157
0.74902 0.164706 0.188235
0.780392 0.164706 0.192157
0.811765 0.164706 0.188235
0.839216 0.176471 0.196078
0.858824 0.176471 0.184314
0.862745 0.164706 0.180392
0.0156863 0.0392157 0.0941176
0.0901961 0.0470588 0.109804
0.141176 0.0588235 0.117647
0.211765 0.0862745 0.129412
0.278431 0.109804 0.145098
0.356863 0.133333 0.160784
0.419608 0.160784 0.168627
0.494118 0.180392 0.192157
0.560784 0.184314 0.192157
0.635294 0.196078 0.192157
0.694118 0.203922 0.196078
0.741176 0.211765 0.196078
0.784314 0.203922 0.196078
0.811765 0.211765 0.192157
0.843137 0.207843 0.196078
0.854902 0.215686 0.196078
0.858824 0.215686 0.192157
0.0196078 0.101961 0.113725
0.0901961 0.105882 0.117647
0.141176 0.105882 0.12549
0.192157 0.101961 0.12549
0.270588 0.137255 0.141176
0.341176 0.164706 0.152941
0.415686 0.188235 0.172549
0.470588 0.215686 0.192157
0.545098 0.219608 0.196078
0.627451 0.223529 0.196078
0.694118 0.235294 0.196078
0.737255 0.243137 0.188235
0.784314 0.243137 0.2
0.811765 0.25098 0.196078
0.831373 0.254902 0.192157
0.854902 0.254902 0.2
0.862745 0.254902 0.196078
0.0117647 0.172549 0.109804
0.0745098 0.180392 0.121569
0.141176 0.160784 0.133333
0.188235 0.145098 0.121569
0.25098 0.160784 0.137255
0.317647 0.184314 0.14902
0.403922 0.215686 0.160784
0.466667 0.239216 0.184314
0.537255 0.25098 0.192157
0.611765 0.25098 0.192157
0.678431 0.258824 0.188235
0.737255 0.266667 0.2
0.780392 0.266667 0.196078
0.811765 0.27451 0.2
0.835294 0.278431 0.192157
0.858824 0.286275 0.196078
0.866667 0.286275 0.196078
0.0313725 0.247059 0.12549
0.0862745 0.243137 0.137255
0.141176 0.231373 0.129412
0.196078 0.2 0.129412
0.235294 0.188235 0.133333
0.309804 0.207843 0.14902
0.384314 0.219608 0.156863
0.454902 0.254902 0.188235
0.529412 0.262745 0.180392
0.603922 0.270588 0.188235
0.682353 0.290196 0.196078
0.729412 0.298039 0.2
0.776471 0.298039 0.203922
0.807843 0.305882 0.2
0.839216 0.313725 0.2
0.858824 0.313725 0.2
0.862745 0.313725 0.2
0.0431373 0.313725 0.141176
0.0862745 0.309804 0.14902
0.145098 0.294118 0.14902
0.192157 0.27451 0.145098
0.239216 0.239216 0.137255
0.294118 0.227451 0.14902
0.364706 0.247059 0.152941
0.439216 0.27451 0.176471
0.513725 0.290196 0.184314
0.6 0.298039 0.188235
0.666667 0.309804 0.196078
0.721569 0.313725 0.2
0.768627 0.32549 0.2
0.803922 0.333333 0.2
0.823529 0.337255 0.196078
0.85098 0.341176 0.207843
0.858824 0.337255 0.2
0.0431373 0.356863 0.14902
0.0901961 0.360784 0.14902
0.14902 0.345098 0.152941
0.203922 0.313725 0.152941
0.239216 0.286275 0.145098
0.286275 0.25098 0.137255
0.356863 0.262745 0.160784
0.447059 0.294118 0.180392
0.521569 0.305882 0.184314
0.6 0.32549 0.192157
0.658824 0.329412 0.188235
0.72549 0.341176 0.196078
0.772549 0.34902 0.2
0.807843 0.352941 0.2
0.831373 0.352941 0.2
0.85098 0.356863 0.2
0.866667 0.368627 0.2
0.0392157 0.411765 0.160784
0.0901961 0.411765 0.160784
0.145098 0.396078 0.160784
0.192157 0.376471 0.160784
0.254902 0.34902 0.160784
0.313725 0.32549 0.156863
0.360784 0.313725 0.156863
0.427451 0.317647 0.172549
0.505882 0.333333 0.180392
0.596078 0.34902 0.188235
0.662745 0.360784 0.196078
0.72549 0.368627 0.196078
0.760784 0.376471 0.2
0.803922 0.384314 0.203922
0.827451 0.388235 0.2
0.85098 0.396078 0.203922
0.866667 0.396078 0.203922
0.0431373 0.498039 0.164706
0.0980392 0.498039 0.168627
0.160784 0.505882 0.168627
0.211765 0.490196 0.176471
0.258824 0.482353 0.180392
0.329412 0.462745 0.172549
0.372549 0.439216 0.172549
0.439216 0.427451 0.164706
0.501961 0.415686 0.180392
0.580392 0.431373 0.188235
0.65098 0.439216 0.196078
0.717647 0.45098 0.203922
0.768627 0.462745 0.203922
0.8 0.466667 0.203922
0.823529 0.47451 0.207843
0.858824 0.478431 0.207843
0.866667 0.466667 0.203922
0.0588235 0.592157 0.168627
0.109804 0.592157 0.172549
0.176471 0.596078 0.188235
0.223529 0.588235 0.172549
0.282353 0.584314 0.176471
0.341176 0.564706 0.184314
0.4 0.545098 0.172549
0.447059 0.529412 0.172549
0.509804 0.521569 0.172549
0.580392 0.509804 0.172549
0.643137 0.517647 0.192157
0.709804 0.529412 0.196078
0.756863 0.537255 0.203922
0.803922 0.545098 0.207843
0.831373 0.556863 0.211765
0.858824 0.556863 0.211765
0.866667 0.556863 0.207843
0.0745098 0.654902 0.176471
0.121569 0.670588 0.180392
0.192157 0.67451 0.188235
0.231373 0.666667 0.192157
0.286275 0.662745 0.180392
0.360784 0.647059 0.184314
0.415686 0.639216 0.188235
0.478431 0.619608 0.188235
0.537255 0.615686 0.180392
0.592157 0.6 0.172549
0.666667 0.592157 0.188235
0.721569 0.6 0.184314
0.768627 0.607843 0.196078
0.807843 0.623529 0.207843
0.831373 0.623529 0.207843
0.862745 0.635294 0.211765
0.870588 0.635294 0.211765
0.0784314 0.713725 0.172549
0.137255 0.729412 0.176471
0.196078 0.733333 0.188235
0.254902 0.733333 0.196078
0.298039 0.733333 0.192157
0.364706 0.729412 0.180392
0.427451 0.717647 0.180392
0.490196 0.709804 0.188235
0.552941 0.698039 0.184314
0.615686 0.690196 0.188235
0.678431 0.690196 0.176471
0.72549 0.682353 0.180392
0.768627 0.686275 0.188235
0.811765 0.690196 0.2
0.843137 0.694118 0.203922
0.862745 0.701961 0.2
0.882353 0.705882 0.207843
0.0784314 0.772549 0.176471
0.145098 0.784314 0.192157
0.211765 0.788235 0.2
0.258824 0.788235 0.192157
0.301961 0.784314 0.192157
0.376471 0.788235 0.184314
0.431373 0.788235 0.188235
0.494118 0.768627 0.180392
0.560784 0.764706 0.196078
0.627451 0.756863 0.196078
0.686275 0.756863 0.184314
0.733333 0.74902 0.176471
0.772549 0.745098 0.184314
0.819608 0.745098 0.192157
0.858824 0.760784 0.196078
0.878431 0.776471 0.207843
0.890196 0.768627 0.207843
0.0980392 0.811765 0.176471
0.14902 0.823529 0.196078
0.211765 0.835294 0.2
0.270588 0.827451 0.2
0.313725 0.823529 0.188235
0.376471 0.827451 0.180392
0.447059 0.823529 0.188235
0.517647 0.823529 0.188235
0.564706 0.815686 0.192157
0.643137 0.803922 0.2
0.701961 0.8 0.188235
0.74902 0.811765 0.192157
0.803922 0.811765 0.188235
0.823529 0.807843 0.184314
0.866667 0.815686 0.196078
0.894118 0.815686 0.2
0.894118 0.815686 0.2
0.101961 0.843137 0.196078
0.152941 0.858824 0.203922
0.223529 0.862745 0.2
0.266667 0.862745 0.192157
0.321569 0.862745 0.192157
0.4 0.866667 0.2
0.45098 0.858824 0.188235
0.521569 0.866667 0.2
0.584314 0.854902 0.192157
0.654902 0.847059 0.192157
0.709804 0.847059 0.2
0.760784 0.85098 0.2
0.803922 0.85098 0.192157
0.843137 0.854902 0.192157
0.878431 0.85098 0.192157
0.901961 0.858824 0.192157
0.901961 0.854902 0.2
0.0980392 0.862745 0.203922
0.152941 0.870588 0.219608
0.239216 0.886275 0.239216
0.298039 0.894118 0.227451
0.368627 0.890196 0.227451
0.427451 0.890196 0.215686
0.486275 0.886275 0.219608
0.564706 0.886275 0.219608
0.631373 0.878431 0.223529
0.682353 0.87451 0.207843
0.741176 0.870588 0.215686
0.784314 0.866667 0.211765
0.815686 0.878431 0.207843
0.854902 0.878431 0.203922
0.878431 0.878431 0.203922
0.901961 0.878431 0.203922
0.905882 0.878431 0.203922
0.0117647 0.00784314 0.172549
0.0705882 0.00784314 0.152941
0.137255 0.00784314 0.176471
0.215686 0.00784314 0.180392
0.290196 0.0235294 0.184314
0.360784 0.0392157 0.188235
0.439216 0.0627451 0.211765
0.513725 0.0745098 0.215686
0.576471 0.0941176 0.215686
0.643137 0.0980392 0.219608
0.701961 0.105882 0.203922
0.737255 0.113725 0.2
0.780392 0.117647 0.207843
0.811765 0.113725 0.2
0.839216 0.129412 0.203922
0.858824 0.12549 0.2
0.862745 0.12549 0.196078
0.00784314 0.0313725 0.156863
0.0666667 0.0392157 0.160784
0.137255 0.0392157 0.156863
0.207843 0.0470588 0.172549
0.278431 0.0627451 0.188235
0.356863 0.0980392 0.203922
0.439216 0.113725 0.215686
0.501961 0.137255 0.219608
0.568627 0.141176 0.215686
0.643137 0.152941 0.207843
0.709804 0.160784 0.211765
0.74902 0.168627 0.215686
0.780392 0.164706 0.207843
