assets/luts/cinematic/RR NT Boost.cube
#Generated by Picture Instruments - Unlimited Filters
TITLE "RR NT Boost"
LUT_3D_SIZE 5
0 0 0
0.243137 0 0.00392157
0.501961 0 0
0.752941 0 0
0.992157 0 0
0 0.207843 0.00392157
0.243137 0.223529 0.00392157
0.501961 0.25098 0
0.752941 0.25098 0
0.996078 0.25098 0.00392157
0 0.466667 0.00392157
0.247059 0.482353 0.00392157
0.494118 0.505882 0
0.752941 0.505882 0
0.996078 0.498039 0
0.00392157 0.72549 0.00392157
0.25098 0.741176 0.00392157
0.505882 0.745098 0.00392157
0.74902 0.752941 0
0.996078 0.745098 0
0 0.996078 0
0.25098 0.996078 0
0.501961 0.996078 0
0.74902 0.996078 0
0.992157 0.996078 0
0.00392157 0 0.172549
0.247059 0 0.215686
0.505882 0 0.25098
0.756863 0 0.254902
0.996078 0 0.254902
0 0.223529 0.164706
0.243137 0.219608 0.219608
0.505882 0.247059 0.25098
0.764706 0.239216 0.235294
0.996078 0.243137 0.247059
0 0.482353 0.164706
0.247059 0.494118 0.215686
0.505882 0.509804 0.25098
0.764706 0.498039 0.243137
0.996078 0.498039 0.25098
0 0.733333 0.133333
0.239216 0.745098 0.180392
0.490196 0.752941 0.207843
0.752941 0.760784 0.239216
0.996078 0.752941 0.243137
0 0.996078 0.113725
0.25098 0.996078 0.164706
0.498039 0.996078 0.188235
0.752941 0.992157 0.215686
0.996078 0.992157 0.25098
0 0 0.439216
0.192157 0 0.470588
0.505882 0 0.494118
0.756863 0 0.498039
0.996078 0 0.501961
0.00392157 0.227451 0.435294
0.180392 0.215686 0.470588
0.509804 0.239216 0.501961
0.768627 0.239216 0.498039
0.996078 0.243137 0.498039
0.00392157 0.501961 0.427451
0.184314 0.505882 0.458824
0.501961 0.501961 0.501961
0.756863 0.498039 0.501961
0.992157 0.498039 0.501961
0 0.745098 0.4
0.172549 0.756863 0.439216
0.494118 0.752941 0.47451
0.756863 0.760784 0.501961
0.996078 0.752941 0.498039
0 0.988235 0.384314
0.184314 0.992157 0.419608
0.501961 0.996078 0.462745
0.752941 0.992157 0.482353
0.996078 0.996078 0.501961
0 0.00392157 0.705882
0.121569 0 0.721569
0.439216 0 0.729412
0.745098 0.00392157 0.752941
0.996078 0 0.752941
0.00392157 0.2 0.713725
0.121569 0.196078 0.737255
0.458824 0.215686 0.745098
0.764706 0.239216 0.752941
0.996078 0.247059 0.752941
0 0.482353 0.705882
0.117647 0.486275 0.729412
0.443137 0.478431 0.741176
0.760784 0.490196 0.752941
0.996078 0.498039 0.752941
0.00392157 0.756863 0.698039
0.117647 0.768627 0.729412
0.454902 0.752941 0.737255
0.756863 0.780392 0.772549
0.992157 0.776471 0.764706
0 0.996078 0.686275
0.133333 0.996078 0.709804
0.462745 0.992157 0.721569
0.760784 0.996078 0.760784
0.996078 0.992157 0.768627
0 0 0.988235
0.0627451 0 0.992157
0.4 0 0.996078
0.729412 0 0.996078
0.996078 0 0.992157
0 0.180392 0.992157
0.0666667 0.172549 0.996078
0.407843 0.2 0.996078
0.737255 0.223529 0.996078
0.996078 0.247059 0.996078
0 0.470588 0.996078
0.0627451 0.470588 0.996078
0.403922 0.466667 0.996078
0.733333 0.486275 0.996078
0.996078 0.498039 0.996078
0 0.741176 0.992157
0.0627451 0.741176 0.996078
0.411765 0.745098 0.996078
0.729412 0.772549 0.996078
0.992157 0.776471 0.996078
0 0.992157 0.992157
0.0745098 0.992157 0.992157
0.419608 0.996078 0.992157
0.737255 0.992157 0.992157
0.992157 0.992157 0.996078
