assets/luts/cinematic/RR NT Boost.cube
#Generated by Picture Instruments - Unlimited Filters
TITLE "RR NT Boost"
LUT_3D_SIZE 17
0 0 0
0.0392157 0 0
0.109804 0 0
0.172549 0 0.00392157
0.243137 0 0.00392157
0.305882 0 0
0.372549 0.00392157 0.00784314
0.443137 0.00392157 0
0.501961 0 0
0.564706 0 0
0.627451 0 0
0.690196 0 0
0.752941 0 0
0.815686 0 0
0.878431 0 0
0.941176 0 0.00392157
0.992157 0 0
0.00392157 0.00392157 0.00392157
0.0392157 0.00784314 0
0.109804 0.0156863 0
0.176471 0.0235294 0.00392157
0.247059 0.0313725 0.00392157
0.301961 0.0392157 0.00392157
0.372549 0.0431373 0
0.439216 0.054902 0.00392157
0.501961 0.0666667 0
0.564706 0.0666667 0
0.623529 0.0627451 0
0.690196 0.0627451 0
0.752941 0.0666667 0
0.815686 0.0588235 0
0.87451 0.0627451 0
0.937255 0.0627451 0
0.996078 0.0627451 0
0 0.0627451 0
0.0509804 0.0666667 0
0.109804 0.0784314 0.00392157
0.172549 0.0862745 0
0.25098 0.0941176 0
0.313725 0.101961 0
0.372549 0.109804 0.00392157
0.443137 0.105882 0
0.505882 0.12549 0
0.568627 0.12549 0
0.631373 0.12549 0
0.690196 0.121569 0
0.752941 0.12549 0
0.819608 0.12549 0
0.886275 0.121569 0.00392157
0.94902 0.121569 0.00392157
0.996078 0.121569 0
0 0.129412 0
0.0431373 0.137255 0
0.113725 0.145098 0
0.172549 0.152941 0.00392157
0.247059 0.160784 0
0.309804 0.164706 0
0.372549 0.172549 0
0.443137 0.180392 0.00392157
0.509804 0.188235 0
0.564706 0.188235 0
0.627451 0.188235 0
0.690196 0.188235 0
0.760784 0.188235 0.00392157
0.815686 0.188235 0
0.878431 0.188235 0
0.94902 0.184314 0.00392157
0.992157 0.184314 0
0 0.207843 0.00392157
0.0470588 0.203922 0
0.113725 0.211765 0
0.180392 0.215686 0
0.243137 0.223529 0.00392157
0.309804 0.235294 0.00392157
0.368627 0.235294 0
0.439216 0.243137 0.00392157
0.501961 0.25098 0
0.564706 0.247059 0
0.623529 0.25098 0
0.690196 0.25098 0
0.752941 0.25098 0
0.819608 0.25098 0.00392157
0.878431 0.254902 0
0.937255 0.25098 0.00392157
0.996078 0.25098 0.00392157
0.00392157 0.266667 0
0.054902 0.270588 0.00392157
0.121569 0.278431 0
0.176471 0.278431 0
0.247059 0.286275 0
0.309804 0.294118 0.00392157
0.376471 0.301961 0
0.45098 0.309804 0.00392157
0.498039 0.305882 0.00392157
0.568627 0.313725 0
0.635294 0.309804 0
0.701961 0.309804 0.00392157
0.752941 0.309804 0
0.823529 0.317647 0
0.886275 0.309804 0.00392157
0.945098 0.313725 0
0.996078 0.313725 0
0 0.333333 0
0.054902 0.337255 0
0.12549 0.345098 0.00392157
0.192157 0.34902 0
0.254902 0.356863 0
0.305882 0.356863 0.00392157
0.376471 0.364706 0
0.443137 0.368627 0
0.509804 0.376471 0
0.564706 0.364706 0.00392157
0.627451 0.376471 0
0.698039 0.372549 0.00392157
0.760784 0.372549 0.00392157
0.819608 0.376471 0
0.878431 0.372549 0.00392157
0.941176 0.376471 0
0.996078 0.376471 0
0 0.4 0
0.0627451 0.407843 0
0.121569 0.415686 0.00392157
0.184314 0.415686 0
0.25098 0.419608 0
0.313725 0.427451 0.00392157
0.376471 0.443137 0.00392157
0.443137 0.435294 0
0.501961 0.431373 0
0.568627 0.439216 0
0.635294 0.439216 0.00392157
0.686275 0.435294 0.00392157
0.760784 0.439216 0
0.815686 0.431373 0
0.878431 0.439216 0
0.941176 0.443137 0
0.996078 0.439216 0
0 0.466667 0.00392157
0.0627451 0.466667 0.00392157
0.129412 0.482353 0
0.180392 0.490196 0
0.247059 0.482353 0.00392157
0.309804 0.490196 0
0.376471 0.498039 0
0.439216 0.505882 0
0.494118 0.505882 0
0.556863 0.498039 0
0.623529 0.501961 0.00392157
0.690196 0.498039 0
0.752941 0.505882 0
0.811765 0.501961 0.00392157
0.870588 0.498039 0
0.941176 0.498039 0
0.996078 0.498039 0
0.00392157 0.529412 0
0.0627451 0.537255 0
0.129412 0.537255 0
0.196078 0.541176 0
0.258824 0.54902 0.00392157
0.321569 0.552941 0.00392157
0.380392 0.556863 0
0.435294 0.560784 0
0.505882 0.564706 0.00392157
0.568627 0.556863 0
0.627451 0.564706 0
0.694118 0.568627 0
0.74902 0.560784 0
0.819608 0.564706 0
0.886275 0.564706 0
0.945098 0.552941 0.00392157
0.996078 0.552941 0.00392157
0 0.596078 0
0.0627451 0.6 0.00392157
0.12549 0.6 0
0.192157 0.603922 0
0.25098 0.607843 0
0.313725 0.615686 0.00392157
0.380392 0.619608 0.00784314
0.439216 0.619608 0
0.501961 0.619608 0
0.564706 0.627451 0.00392157
0.627451 0.627451 0
0.690196 0.631373 0
0.752941 0.627451 0
0.815686 0.627451 0
0.87451 0.623529 0.00392157
0.94902 0.627451 0
0.996078 0.619608 0
0.00392157 0.658824 0
0.0627451 0.662745 0.00392157
0.12549 0.666667 0
0.188235 0.666667 0.00392157
0.254902 0.678431 0.00392157
0.313725 0.67451 0.00392157
0.376471 0.682353 0
0.439216 0.682353 0.00392157
0.501961 0.686275 0
0.556863 0.686275 0
0.619608 0.686275 0
0.690196 0.690196 0
0.752941 0.694118 0
0.815686 0.694118 0
0.870588 0.686275 0
0.937255 0.690196 0
0.996078 0.690196 0
0.00392157 0.72549 0.00392157
0.0666667 0.72549 0.00392157
0.12549 0.72549 0
0.184314 0.733333 0
0.25098 0.741176 0.00392157
0.313725 0.741176 0
0.376471 0.737255 0.00392157
0.431373 0.741176 0
0.505882 0.745098 0.00392157
0.568627 0.745098 0.00392157
0.627451 0.74902 0.00392157
0.686275 0.745098 0.00392157
0.74902 0.752941 0
0.823529 0.74902 0.00392157
0.886275 0.752941 0
0.94902 0.752941 0.00392157
0.996078 0.745098 0
0 0.796078 0
0.0627451 0.796078 0
0.12549 0.796078 0
0.188235 0.8 0
0.254902 0.8 0.00392157
0.317647 0.8 0
0.376471 0.803922 0
0.443137 0.803922 0
0.501961 0.807843 0
0.560784 0.807843 0.00392157
0.623529 0.811765 0.00392157
0.686275 0.811765 0
0.756863 0.819608 0
0.807843 0.815686 0
0.878431 0.815686 0.00392157
0.941176 0.815686 0
0.992157 0.815686 0
0.00392157 0.866667 0.00392157
0.0588235 0.866667 0
0.12549 0.862745 0
0.184314 0.866667 0
0.25098 0.870588 0.00392157
0.313725 0.870588 0
0.376471 0.870588 0
0.439216 0.870588 0.00392157
0.498039 0.866667 0
0.560784 0.87451 0
0.623529 0.878431 0
0.686275 0.87451 0
0.752941 0.870588 0
0.815686 0.882353 0
0.878431 0.890196 0
0.933333 0.87451 0
0.996078 0.87451 0
0.00392157 0.933333 0
0.0666667 0.933333 0
0.133333 0.933333 0.00392157
0.184314 0.933333 0
0.25098 0.937255 0
0.313725 0.937255 0
0.376471 0.937255 0.00392157
0.435294 0.933333 0
0.501961 0.933333 0.00392157
0.568627 0.941176 0
0.631373 0.941176 0.00392157
0.694118 0.941176 0
0.745098 0.937255 0
0.819608 0.941176 0
0.886275 0.945098 0
0.941176 0.937255 0
0.996078 0.937255 0
0 0.996078 0
0.0627451 0.996078 0
0.121569 0.996078 0
0.184314 0.996078 0
0.25098 0.996078 0
0.313725 0.996078 0
0.372549 0.996078 0.00392157
0.435294 0.996078 0
0.501961 0.996078 0
0.564706 0.996078 0
0.627451 0.996078 0.00392157
0.682353 0.996078 0
0.74902 0.996078 0
0.815686 0.996078 0
0.878431 0.996078 0
0.937255 0.996078 0
0.992157 0.996078 0
0 0 0.00784314
0.0431373 0.00392157 0.00784314
0.113725 0 0.0156863
0.176471 0 0.027451
0.243137 0.00392157 0.0352941
0.313725 0 0.0431373
0.376471 0 0.0470588
0.439216 0 0.054902
0.501961 0 0.0588235
0.568627 0 0.0666667
0.631373 0 0.0627451
0.694118 0 0.0627451
0.752941 0 0.0627451
0.815686 0 0.0627451
0.882353 0 0.0627451
0.945098 0 0.0666667
0.996078 0 0.0627451
0 0.00784314 0.00392157
0.0392157 0.00392157 0.00784314
0.113725 0.0117647 0.0156863
0.176471 0.0196078 0.0196078
0.247059 0.027451 0.0313725
0.309804 0.027451 0.0313725
0.376471 0.0392157 0.0431373
0.45098 0.0470588 0.0509804
0.513725 0.0588235 0.0588235
0.576471 0.0509804 0.0470588
0.639216 0.0509804 0.054902
0.701961 0.0509804 0.0509804
0.768627 0.0470588 0.0470588
0.827451 0.0431373 0.0509804
0.894118 0.0470588 0.0509804
0.960784 0.0431373 0.0470588
0.996078 0.0627451 0.0627451
0 0.0705882 0.00784314
0.0392157 0.0705882 0.0117647
0.105882 0.0784314 0.00784314
0.172549 0.0823529 0.0196078
0.243137 0.0901961 0.0313725
0.309804 0.101961 0.0392157
0.372549 0.101961 0.0392157
0.435294 0.109804 0.0470588
0.509804 0.117647 0.054902
0.572549 0.121569 0.0509804
0.639216 0.117647 0.0509804
0.694118 0.117647 0.054902
0.764706 0.109804 0.0470588
0.827451 0.117647 0.0509804
0.894118 0.109804 0.0509804
0.952941 0.105882 0.0470588
0.996078 0.121569 0.054902
0 0.137255 0.0117647
0.0470588 0.141176 0.0156863
0.117647 0.145098 0.0156863
0.172549 0.14902 0.0235294
0.25098 0.160784 0.027451
0.317647 0.164706 0.0352941
0.380392 0.168627 0.0352941
0.45098 0.172549 0.0470588
0.513725 0.180392 0.0588235
0.572549 0.180392 0.054902
0.647059 0.180392 0.054902
0.705882 0.176471 0.0509804
0.764706 0.172549 0.0509804
0.831373 0.176471 0.0509804
0.898039 0.176471 0.0431373
0.960784 0.176471 0.0470588
0.996078 0.184314 0.0588235
0 0.2 0.0117647
0.0509804 0.207843 0.0117647
0.113725 0.219608 0.0196078
0.180392 0.219608 0.0235294
0.25098 0.227451 0.0313725
0.309804 0.231373 0.0313725
0.376471 0.235294 0.0392157
0.447059 0.243137 0.0470588
0.513725 0.247059 0.054902
0.576471 0.25098 0.054902
0.639216 0.247059 0.0509804
0.701961 0.247059 0.0470588
0.768627 0.243137 0.0431373
0.831373 0.239216 0.054902
0.894118 0.243137 0.0470588
0.960784 0.239216 0.0431373
0.996078 0.25098 0.0627451
0 0.278431 0.0196078
0.0431373 0.282353 0.0117647
0.117647 0.282353 0.0235294
0.184314 0.290196 0.027451
0.247059 0.294118 0.0352941
0.313725 0.301961 0.0313725
0.380392 0.305882 0.0392157
0.439216 0.309804 0.0470588
0.505882 0.313725 0.054902
0.576471 0.309804 0.054902
0.639216 0.313725 0.054902
0.698039 0.309804 0.0470588
0.768627 0.309804 0.0470588
0.831373 0.309804 0.0470588
0.894118 0.309804 0.0509804
0.960784 0.301961 0.0470588
0.996078 0.309804 0.0627451
0 0.341176 0.0235294
0.054902 0.341176 0.0235294
0.121569 0.345098 0.027451
0.184314 0.352941 0.0313725
0.247059 0.356863 0.027451
0.313725 0.360784 0.0392157
0.376471 0.368627 0.0431373
0.447059 0.376471 0.0470588
0.517647 0.380392 0.0588235
0.572549 0.372549 0.0470588
0.643137 0.376471 0.0509804
0.709804 0.376471 0.0588235
0.768627 0.368627 0.0470588
0.835294 0.368627 0.0470588
0.898039 0.368627 0.0470588
0.960784 0.368627 0.0509804
0.996078 0.372549 0.054902
0 0.407843 0.027451
0.0509804 0.411765 0.0235294
0.121569 0.419608 0.0352941
0.180392 0.423529 0.0352941
0.25098 0.423529 0.0392157
0.317647 0.435294 0.0431373
0.376471 0.431373 0.0470588
0.447059 0.439216 0.0470588
0.513725 0.443137 0.0588235
0.576471 0.435294 0.054902
0.639216 0.435294 0.0470588
0.705882 0.439216 0.0509804
0.764706 0.435294 0.0509804
0.835294 0.435294 0.0509804
0.898039 0.435294 0.0509804
0.956863 0.435294 0.0392157
0.996078 0.435294 0.054902
0 0.470588 0.027451
0.054902 0.482353 0.0313725
0.12549 0.490196 0.0313725
0.184314 0.486275 0.0392157
0.243137 0.490196 0.0392157
0.313725 0.498039 0.0431373
0.384314 0.505882 0.0470588
0.443137 0.509804 0.0588235
0.509804 0.513725 0.054902
0.572549 0.505882 0.0509804
0.635294 0.505882 0.054902
0.701961 0.505882 0.054902
0.760784 0.498039 0.0392157
0.827451 0.498039 0.0509804
0.894118 0.505882 0.0470588
0.956863 0.498039 0.0431373
0.996078 0.498039 0.0627451
0.00392157 0.533333 0.0313725
0.0470588 0.54902 0.0156863
0.113725 0.545098 0.0235294
0.176471 0.552941 0.027451
0.243137 0.556863 0.0352941
0.309804 0.556863 0.0352941
0.376471 0.560784 0.0431373
0.443137 0.568627 0.0392157
0.505882 0.576471 0.0509804
0.564706 0.572549 0.0509804
0.639216 0.576471 0.0470588
0.698039 0.568627 0.054902
0.760784 0.564706 0.0431373
0.831373 0.568627 0.0470588
0.890196 0.564706 0.054902
0.956863 0.560784 0.0431373
0.996078 0.560784 0.0588235
0 0.603922 0.0235294
0.0509804 0.611765 0.0156863
0.113725 0.611765 0.0196078
0.184314 0.615686 0.0235294
0.25098 0.623529 0.027451
0.313725 0.623529 0.0313725
0.380392 0.627451 0.0431373
0.439216 0.631373 0.0392157
0.501961 0.631373 0.0392157
0.580392 0.635294 0.0509804
0.643137 0.639216 0.0509804
0.701961 0.635294 0.0470588
0.764706 0.631373 0.0470588
0.827451 0.623529 0.0431373
0.894118 0.631373 0.0470588
0.964706 0.627451 0.0509804
0.996078 0.627451 0.0588235
0 0.662745 0.0235294
0.0588235 0.67451 0.0117647
0.117647 0.678431 0.0196078
0.180392 0.678431 0.0156863
0.247059 0.682353 0.027451
0.309804 0.686275 0.027451
0.380392 0.690196 0.0352941
0.443137 0.690196 0.0392157
0.509804 0.694118 0.0352941
0.568627 0.698039 0.0431373
0.631373 0.698039 0.0470588
0.698039 0.701961 0.0509804
0.768627 0.701961 0.0509804
0.827451 0.698039 0.0431373
0.898039 0.694118 0.0509804
0.956863 0.694118 0.0431373
0.996078 0.686275 0.0588235
0 0.733333 0.0156863
0.0392157 0.741176 0.00392157
0.113725 0.741176 0.0117647
0.176471 0.741176 0.0117647
0.243137 0.745098 0.0196078
0.313725 0.752941 0.0235294
0.364706 0.752941 0.0196078
0.439216 0.752941 0.0352941
0.505882 0.756863 0.0352941
0.568627 0.756863 0.0352941
0.627451 0.760784 0.0352941
0.690196 0.760784 0.0392157
0.760784 0.764706 0.0509804
0.827451 0.764706 0.0470588
0.890196 0.764706 0.0470588
0.952941 0.756863 0.0470588
0.996078 0.752941 0.0588235
0 0.8 0.00392157
0.054902 0.815686 0
0.117647 0.815686 0.00784314
0.176471 0.811765 0.00784314
0.243137 0.815686 0.0117647
0.313725 0.819608 0.0196078
0.376471 0.819608 0.027451
0.443137 0.811765 0.0196078
0.501961 0.819608 0.0313725
0.572549 0.823529 0.0352941
0.639216 0.831373 0.0352941
0.701961 0.831373 0.0431373
0.760784 0.827451 0.0431373
0.823529 0.827451 0.0509804
0.898039 0.823529 0.0470588
0.964706 0.823529 0.0470588
0.996078 0.811765 0.0588235
0 0.866667 0.00784314
0.0509804 0.87451 0
0.113725 0.882353 0.00392157
0.180392 0.882353 0.00392157
0.25098 0.886275 0.0117647
0.313725 0.886275 0.0117647
0.376471 0.886275 0.0156863
0.435294 0.882353 0.0196078
0.509804 0.890196 0.0235294
0.568627 0.886275 0.0352941
0.631373 0.886275 0.0313725
0.698039 0.894118 0.0352941
0.756863 0.890196 0.0352941
0.835294 0.894118 0.0509804
0.890196 0.894118 0.0470588
0.952941 0.890196 0.0392157
0.996078 0.882353 0.0627451
0 0.933333 0.00784314
0.054902 0.945098 0.00392157
0.109804 0.945098 0.00392157
0.176471 0.952941 0
0.239216 0.952941 0
0.309804 0.956863 0.00784314
0.368627 0.952941 0.00392157
0.439216 0.952941 0.00784314
0.494118 0.952941 0.0156863
0.564706 0.952941 0.0196078
0.627451 0.952941 0.027451
0.690196 0.952941 0.0235294
0.760784 0.956863 0.0352941
0.823529 0.956863 0.0352941
0.890196 0.952941 0.0392157
0.952941 0.960784 0.0470588
0.996078 0.941176 0.0627451
0 0.996078 0
0.0588235 0.996078 0.00392157
0.121569 0.996078 0.00392157
0.184314 0.996078 0.00784314
0.247059 0.996078 0.0117647
0.309804 0.996078 0.0196078
0.368627 0.996078 0.0235294
0.439216 0.996078 0.0235294
0.501961 0.996078 0.027451
0.564706 0.996078 0.0352941
0.627451 0.996078 0.0313725
0.686275 0.992157 0.0431373
0.74902 0.996078 0.0392157
0.811765 0.996078 0.0470588
0.878431 0.996078 0.0509804
0.941176 0.996078 0.0588235
0.996078 0.996078 0.0627451
0.00392157 0 0.054902
0.0313725 0 0.0588235
0.105882 0 0.0666667
0.168627 0 0.0745098
0.247059 0 0.0823529
0.309804 0.00392157 0.105882
0.368627 0 0.105882
0.431373 0 0.113725
0.505882 0 0.117647
0.564706 0 0.129412
0.631373 0 0.129412
0.686275 0 0.121569
0.74902 0 0.129412
0.815686 0 0.12549
0.882353 0 0.12549
0.937255 0 0.12549
0.996078 0 0.12549
0 0.00784314 0.054902
0.0431373 0.0117647 0.0627451
0.113725 0.00784314 0.0666667
0.168627 0.0196078 0.0705882
0.247059 0.0235294 0.0823529
0.309804 0.0313725 0.0941176
0.380392 0.0392157 0.105882
0.45098 0.0470588 0.121569
0.513725 0.054902 0.117647
0.572549 0.0509804 0.117647
0.643137 0.0509804 0.12549
0.705882 0.0509804 0.117647
0.772549 0.0470588 0.117647
0.831373 0.0431373 0.113725
0.898039 0.0470588 0.113725
0.964706 0.0431373 0.109804
0.996078 0.054902 0.121569
0 0.0784314 0.0431373
0.0352941 0.0784314 0.054902
0.109804 0.0784314 0.0666667
0.176471 0.0823529 0.0745098
0.247059 0.0901961 0.0901961
0.309804 0.0980392 0.0901961
0.376471 0.101961 0.101961
0.443137 0.113725 0.113725
0.509804 0.117647 0.12549
0.576471 0.121569 0.121569
0.639216 0.113725 0.109804
0.701961 0.113725 0.117647
0.764706 0.113725 0.113725
0.831373 0.109804 0.109804
0.890196 0.105882 0.113725
0.956863 0.109804 0.113725
0.996078 0.121569 0.121569
0 0.145098 0.054902
0.0392157 0.14902 0.0588235
0.0980392 0.145098 0.0588235
0.172549 0.152941 0.0745098
0.247059 0.160784 0.0784314
0.309804 0.164706 0.101961
0.380392 0.172549 0.101961
0.439216 0.176471 0.101961
0.505882 0.188235 0.121569
0.572549 0.180392 0.117647
0.635294 0.184314 0.113725
0.701961 0.180392 0.113725
0.756863 0.180392 0.117647
0.827451 0.172549 0.109804
0.890196 0.180392 0.113725
0.956863 0.172549 0.113725
0.996078 0.184314 0.121569
0.00392157 0.207843 0.0588235
0.0509804 0.215686 0.0588235
0.113725 0.207843 0.0666667
0.176471 0.215686 0.0784314
0.247059 0.223529 0.0823529
0.309804 0.231373 0.0941176
0.376471 0.235294 0.101961
0.447059 0.239216 0.113725
0.517647 0.247059 0.117647
0.576471 0.243137 0.121569
0.635294 0.243137 0.117647
0.709804 0.243137 0.117647
0.768627 0.239216 0.113725
0.827451 0.235294 0.113725
0.894118 0.239216 0.113725
0.960784 0.239216 0.105882
0.996078 0.25098 0.12549
0.00392157 0.282353 0.054902
0.0470588 0.278431 0.0588235
0.113725 0.282353 0.0705882
0.180392 0.286275 0.0705882
0.243137 0.294118 0.0862745
0.313725 0.301961 0.0941176
0.380392 0.301961 0.0941176
0.443137 0.313725 0.113725
0.509804 0.313725 0.121569
0.576471 0.309804 0.117647
0.639216 0.313725 0.117647
0.701961 0.309804 0.113725
0.764706 0.309804 0.109804
0.831373 0.305882 0.105882
0.894118 0.301961 0.117647
0.956863 0.305882 0.109804
0.996078 0.309804 0.12549
0 0.345098 0.054902
0.0431373 0.345098 0.0627451
0.109804 0.34902 0.0745098
0.172549 0.352941 0.0705882
0.243137 0.360784 0.0784314
0.313725 0.364706 0.0941176
0.380392 0.368627 0.0980392
0.443137 0.376471 0.105882
0.509804 0.380392 0.117647
0.568627 0.376471 0.117647
0.639216 0.372549 0.117647
0.701961 0.376471 0.117647
0.760784 0.372549 0.109804
0.831373 0.372549 0.109804
0.894118 0.372549 0.109804
0.956863 0.372549 0.113725
0.996078 0.372549 0.117647
0 0.407843 0.0588235
0.0470588 0.411765 0.0627451
0.117647 0.415686 0.0705882
0.184314 0.419608 0.0823529
0.25098 0.423529 0.0901961
0.309804 0.427451 0.0901961
0.376471 0.431373 0.0980392
0.447059 0.439216 0.113725
0.513725 0.443137 0.121569
0.580392 0.443137 0.121569
0.635294 0.435294 0.109804
0.705882 0.439216 0.113725
0.772549 0.439216 0.121569
0.831373 0.431373 0.109804
0.898039 0.431373 0.109804
0.960784 0.431373 0.109804
0.996078 0.435294 0.12549
0 0.47451 0.0627451
0.054902 0.482353 0.0627451
0.121569 0.478431 0.0666667
0.184314 0.486275 0.0862745
0.247059 0.494118 0.0862745
0.317647 0.501961 0.0941176
0.384314 0.505882 0.101961
0.443137 0.498039 0.113725
0.509804 0.509804 0.117647
0.576471 0.505882 0.121569
0.639216 0.498039 0.117647
0.701961 0.498039 0.109804
0.768627 0.501961 0.113725
0.827451 0.498039 0.113725
0.898039 0.498039 0.113725
0.960784 0.498039 0.113725
0.996078 0.498039 0.12549
0.00392157 0.537255 0.0509804
0.0509804 0.545098 0.0509804
0.117647 0.545098 0.054902
0.184314 0.552941 0.0666667
0.247059 0.552941 0.0823529
0.305882 0.556863 0.0784314
0.372549 0.560784 0.0901961
0.439216 0.572549 0.101961
0.505882 0.576471 0.113725
0.572549 0.576471 0.117647
0.635294 0.568627 0.113725
0.698039 0.568627 0.117647
0.764706 0.568627 0.117647
0.823529 0.560784 0.101961
0.890196 0.560784 0.113725
0.956863 0.568627 0.109804
0.996078 0.560784 0.117647
0.00392157 0.603922 0.0470588
0.0431373 0.603922 0.0392157
0.113725 0.611765 0.0509804
0.184314 0.611765 0.0588235
0.25098 0.619608 0.0705882
0.305882 0.623529 0.0784314
0.372549 0.623529 0.0823529
0.439216 0.627451 0.0941176
0.505882 0.631373 0.0941176
0.568627 0.639216 0.113725
0.627451 0.635294 0.113725
0.701961 0.639216 0.109804
0.760784 0.631373 0.117647
0.823529 0.627451 0.105882
0.894118 0.631373 0.109804
0.952941 0.627451 0.117647
0.992157 0.623529 0.117647
0 0.666667 0.0431373
0.0509804 0.682353 0.0392157
0.121569 0.678431 0.0431373
0.184314 0.678431 0.0470588
0.247059 0.686275 0.0588235
0.313725 0.690196 0.0666667
0.380392 0.694118 0.0784314
0.443137 0.690196 0.0901961
0.509804 0.694118 0.0901961
0.576471 0.698039 0.0901961
0.639216 0.694118 0.109804
0.705882 0.701961 0.113725
0.764706 0.698039 0.109804
0.827451 0.694118 0.109804
0.890196 0.686275 0.105882
0.956863 0.694118 0.109804
0.996078 0.690196 0.121569
0.00392157 0.729412 0.027451
0.0431373 0.741176 0.027451
0.117647 0.741176 0.0352941
0.176471 0.745098 0.0431373
0.247059 0.745098 0.0509804
0.305882 0.74902 0.0588235
0.372549 0.752941 0.0588235
0.443137 0.752941 0.0823529
0.498039 0.756863 0.0901961
0.568627 0.756863 0.0901961
0.631373 0.760784 0.0980392
0.698039 0.756863 0.109804
0.760784 0.764706 0.113725
0.831373 0.764706 0.113725
0.890196 0.760784 0.105882
0.960784 0.756863 0.113725
0.996078 0.74902 0.12549
0 0.803922 0.0235294
0.0431373 0.815686 0.0156863
0.113725 0.811765 0.027451
0.176471 0.811765 0.0313725
0.243137 0.807843 0.0392157
0.301961 0.811765 0.0431373
0.376471 0.819608 0.0588235
0.435294 0.815686 0.0588235
0.501961 0.819608 0.0745098
0.564706 0.819608 0.0823529
0.631373 0.831373 0.0901961
0.690196 0.827451 0.0901961
0.756863 0.827451 0.105882
0.823529 0.827451 0.113725
0.890196 0.827451 0.109804
0.952941 0.827451 0.109804
0.992157 0.811765 0.117647
0 0.866667 0.0156863
0.0509804 0.882353 0.0117647
0.121569 0.882353 0.0156863
0.180392 0.886275 0.027451
0.239216 0.882353 0.027451
0.305882 0.886275 0.0313725
0.376471 0.890196 0.0470588
0.439216 0.886275 0.0627451
0.501961 0.886275 0.0588235
0.564706 0.886275 0.0745098
0.635294 0.890196 0.0823529
0.698039 0.890196 0.0862745
0.764706 0.894118 0.0980392
0.823529 0.890196 0.0980392
0.886275 0.890196 0.113725
0.960784 0.886275 0.109804
0.992157 0.878431 0.113725
0 0.937255 0
0.0392157 0.94902 0
0.113725 0.94902 0.00784314
0.172549 0.952941 0.0156863
0.239216 0.956863 0.0235294
0.309804 0.952941 0.0313725
0.372549 0.952941 0.0352941
0.435294 0.952941 0.0392157
0.498039 0.952941 0.054902
0.572549 0.952941 0.0627451
0.627451 0.94902 0.0705882
0.694118 0.952941 0.0823529
0.760784 0.956863 0.0823529
0.823529 0.956863 0.0980392
0.898039 0.956863 0.105882
0.952941 0.956863 0.109804
0.996078 0.937255 0.121569
0 0.992157 0
0.054902 0.992157 0.00392157
0.121569 0.996078 0.0117647
0.188235 0.996078 0.0196078
0.25098 0.996078 0.0313725
0.309804 0.996078 0.0313725
0.372549 0.996078 0.0431373
0.435294 0.996078 0.054902
0.498039 0.996078 0.0588235
0.556863 0.996078 0.0627451
0.627451 0.996078 0.0784314
0.694118 0.996078 0.0823529
0.756863 0.996078 0.0901961
0.815686 0.996078 0.0980392
0.878431 0.996078 0.105882
0.937255 0.996078 0.113725
0.992157 0.992157 0.121569
0 0 0.117647
0.0392157 0 0.113725
0.101961 0 0.137255
0.172549 0 0.141176
0.243137 0 0.152941
0.301961 0 0.164706
0.372549 0 0.172549
0.439216 0 0.180392
0.501961 0 0.188235
0.564706 0 0.192157
0.627451 0 0.188235
0.690196 0 0.184314
0.752941 0 0.192157
0.815686 0 0.192157
0.886275 0 0.188235
0.941176 0 0.192157
0.996078 0 0.188235
0 0.0156863 0.113725
0.0352941 0.0117647 0.121569
0.0980392 0.0196078 0.129412
0.172549 0.0196078 0.141176
0.243137 0.027451 0.14902
0.313725 0.0352941 0.160784
0.376471 0.0431373 0.172549
0.439216 0.0470588 0.180392
0.505882 0.054902 0.184314
0.576471 0.054902 0.176471
0.639216 0.0509804 0.188235
0.701961 0.054902 0.188235
0.756863 0.0470588 0.168627
0.823529 0.0470588 0.184314
0.890196 0.0470588 0.176471
0.952941 0.0470588 0.172549
