assets/luts/cinematic/RR NT Boost&Punch.cube
#Generated by Picture Instruments - Unlimited Filters
TITLE "RR NT Boost&Punch"
LUT_3D_SIZE 5
0 0 0
0.188235 0 0
0.501961 0 0
0.8 0 0.00392157
0.992157 0 0
0.00392157 0.145098 0.00392157
0.184314 0.164706 0
0.505882 0.192157 0
0.803922 0.192157 0
0.996078 0.188235 0
0 0.454902 0.00392157
0.188235 0.478431 0.00392157
0.494118 0.505882 0
0.796078 0.501961 0
0.996078 0.498039 0
0.00392157 0.772549 0.00392157
0.192157 0.792157 0
0.501961 0.792157 0.00392157
0.796078 0.803922 0
0.996078 0.792157 0
0 0.996078 0
0.192157 0.996078 0
0.501961 0.996078 0
0.796078 0.996078 0
0.992157 0.992157 0
0 0 0.117647
0.184314 0.00392157 0.156863
0.513725 0 0.196078
0.8 0 0.192157
0.992157 0 0.188235
0 0.164706 0.109804
0.184314 0.160784 0.160784
0.509804 0.192157 0.188235
0.807843 0.180392 0.180392
0.992157 0.184314 0.192157
0.00392157 0.478431 0.113725
0.188235 0.494118 0.156863
0.513725 0.509804 0.188235
0.803922 0.498039 0.176471
0.996078 0.498039 0.196078
0 0.780392 0.0862745
0.176471 0.792157 0.129412
0.498039 0.8 0.14902
0.8 0.807843 0.176471
0.996078 0.796078 0.188235
0.00392157 0.996078 0.0745098
0.188235 0.996078 0.113725
0.498039 0.996078 0.133333
0.8 0.996078 0.152941
0.996078 0.992157 0.192157
0.00784314 0 0.419608
0.137255 0 0.462745
0.509804 0 0.494118
0.803922 0 0.498039
0.996078 0 0.501961
0.00392157 0.164706 0.407843
0.12549 0.160784 0.470588
0.509804 0.184314 0.505882
0.803922 0.180392 0.501961
0.996078 0.184314 0.498039
0 0.501961 0.403922
0.129412 0.505882 0.45098
0.501961 0.501961 0.501961
0.803922 0.498039 0.498039
0.992157 0.498039 0.509804
0 0.792157 0.368627
0.117647 0.807843 0.423529
0.494118 0.8 0.470588
0.8 0.803922 0.498039
0.996078 0.8 0.498039
0 0.992157 0.345098
0.129412 0.996078 0.392157
0.505882 0.996078 0.454902
0.8 0.996078 0.47451
0.996078 0.996078 0.505882
0 0 0.752941
0.0784314 0 0.768627
0.423529 0 0.780392
0.792157 0.00392157 0.8
0.996078 0 0.8
0 0.141176 0.760784
0.0823529 0.141176 0.780392
0.439216 0.156863 0.792157
0.807843 0.180392 0.8
0.992157 0.188235 0.8
0 0.482353 0.74902
0.0784314 0.482353 0.776471
0.423529 0.470588 0.792157
0.803922 0.486275 0.796078
0.996078 0.494118 0.8
0 0.803922 0.745098
0.0784314 0.803922 0.772549
0.443137 0.803922 0.784314
0.803922 0.823529 0.807843
0.996078 0.819608 0.807843
0 0.996078 0.733333
0.0862745 0.996078 0.756863
0.45098 0.996078 0.772549
0.807843 0.996078 0.807843
0.996078 0.996078 0.811765
0 0 0.992157
0.0392157 0 0.996078
0.364706 0 0.996078
0.776471 0 0.996078
0.996078 0 0.992157
0 0.121569 0.992157
0.0431373 0.117647 0.996078
0.376471 0.141176 0.996078
0.780392 0.164706 0.996078
0.996078 0.188235 0.992157
0 0.462745 0.992157
0.0392157 0.458824 0.996078
0.372549 0.458824 0.996078
0.780392 0.478431 0.996078
0.996078 0.505882 0.992157
0 0.788235 0.996078
0.0431373 0.784314 0.996078
0.380392 0.792157 0.996078
0.784314 0.815686 0.996078
0.988235 0.819608 0.996078
0 0.992157 0.992157
0.0431373 0.992157 0.996078
0.4 0.996078 0.992157
0.784314 0.992157 0.996078
0.992157 0.996078 0.992157
