assets/luts/cinematic/RR NT Jupiter.cube
#Generated by Picture Instruments - Unlimited Filters
TITLE "RR NT Jupiter"
LUT_3D_SIZE 5
0.054902 0.0470588 0.0509804
0.164706 0.0666667 0.0823529
0.396078 0.133333 0.160784
0.658824 0.211765 0.243137
0.698039 0.223529 0.258824
0.101961 0.113725 0.0784314
0.137255 0.12549 0.0901961
0.333333 0.188235 0.156863
0.639216 0.270588 0.262745
0.686275 0.278431 0.27451
0.203922 0.266667 0.141176
0.215686 0.270588 0.133333
0.298039 0.301961 0.168627
0.627451 0.407843 0.301961
0.694118 0.411765 0.317647
0.415686 0.54902 0.258824
0.443137 0.576471 0.27451
0.529412 0.619608 0.305882
0.705882 0.666667 0.317647
0.796078 0.694118 0.313725
0.631373 0.839216 0.298039
0.654902 0.831373 0.298039
0.666667 0.792157 0.313725
0.752941 0.792157 0.305882
0.803922 0.796078 0.298039
0.0784314 0.0745098 0.145098
0.109804 0.0666667 0.129412
0.321569 0.117647 0.168627
0.643137 0.211765 0.262745
0.694118 0.223529 0.262745
0.0705882 0.156863 0.14902
0.0980392 0.141176 0.164706
0.258824 0.172549 0.184314
0.611765 0.262745 0.278431
0.686275 0.27451 0.290196
0.117647 0.294118 0.152941
0.141176 0.301961 0.137255
0.270588 0.309804 0.211765
0.596078 0.396078 0.321569
0.705882 0.423529 0.356863
0.352941 0.564706 0.298039
0.372549 0.564706 0.32549
0.517647 0.635294 0.352941
0.690196 0.682353 0.388235
0.807843 0.698039 0.368627
0.611765 0.85098 0.380392
0.643137 0.854902 0.380392
0.698039 0.835294 0.376471
0.760784 0.815686 0.376471
0.827451 0.807843 0.376471
0.133333 0.141176 0.341176
0.145098 0.137255 0.321569
0.239216 0.117647 0.278431
0.6 0.203922 0.329412
0.694118 0.235294 0.337255
0.137255 0.188235 0.352941
0.129412 0.184314 0.337255
0.211765 0.188235 0.290196
0.584314 0.258824 0.337255
0.694118 0.298039 0.360784
0.141176 0.388235 0.356863
0.121569 0.356863 0.32549
0.215686 0.329412 0.352941
0.584314 0.4 0.423529
0.745098 0.447059 0.45098
0.239216 0.603922 0.290196
0.254902 0.588235 0.313725
0.396078 0.635294 0.411765
0.701961 0.72549 0.545098
0.847059 0.74902 0.517647
0.329412 0.823529 0.329412
0.392157 0.831373 0.360784
0.721569 0.905882 0.556863
0.803922 0.866667 0.572549
0.878431 0.87451 0.588235
0.207843 0.207843 0.552941
0.211765 0.2 0.541176
0.262745 0.196078 0.501961
0.529412 0.223529 0.521569
0.666667 0.266667 0.545098
0.215686 0.243137 0.556863
0.207843 0.235294 0.541176
0.266667 0.254902 0.533333
0.52549 0.282353 0.529412
0.678431 0.329412 0.568627
0.211765 0.376471 0.603922
0.203922 0.360784 0.592157
0.258824 0.333333 0.560784
0.580392 0.431373 0.623529
0.780392 0.498039 0.678431
0.254902 0.619608 0.537255
0.258824 0.627451 0.556863
0.301961 0.647059 0.6
0.709804 0.701961 0.713725
0.901961 0.752941 0.741176
0.270588 0.815686 0.541176
0.270588 0.823529 0.533333
0.368627 0.839216 0.584314
0.870588 0.929412 0.764706
0.92549 0.917647 0.784314
0.25098 0.243137 0.682353
0.254902 0.247059 0.678431
0.298039 0.254902 0.682353
0.541176 0.27451 0.698039
0.662745 0.294118 0.713725
0.262745 0.27451 0.686275
0.258824 0.270588 0.690196
0.298039 0.286275 0.698039
0.537255 0.321569 0.717647
0.690196 0.360784 0.737255
0.266667 0.364706 0.694118
0.27451 0.364706 0.686275
0.294118 0.34902 0.694118
0.592157 0.458824 0.760784
0.796078 0.52549 0.819608
0.254902 0.72549 0.815686
0.25098 0.713725 0.815686
0.27451 0.694118 0.819608
0.733333 0.729412 0.882353
0.905882 0.776471 0.905882
0.25098 0.792157 0.729412
0.25098 0.8 0.737255
0.286275 0.807843 0.752941
0.756863 0.921569 0.917647
0.952941 0.952941 0.952941
