assets/luts/cinematic/RR NT Jupiter.cube
#Generated by Picture Instruments - Unlimited Filters
TITLE "RR NT Jupiter"
LUT_3D_SIZE 9
0.054902 0.0470588 0.0509804
0.0980392 0.0509804 0.0588235
0.164706 0.0666667 0.0823529
0.27451 0.0980392 0.117647
0.396078 0.133333 0.160784
0.556863 0.176471 0.211765
0.658824 0.211765 0.243137
0.690196 0.219608 0.254902
0.698039 0.223529 0.258824
0.0705882 0.0666667 0.0588235
0.0901961 0.0745098 0.0705882
0.145098 0.0901961 0.0862745
0.243137 0.121569 0.113725
0.380392 0.160784 0.164706
0.52549 0.2 0.219608
0.647059 0.235294 0.254902
0.686275 0.243137 0.258824
0.694118 0.25098 0.266667
0.101961 0.113725 0.0784314
0.109804 0.121569 0.0862745
0.137255 0.12549 0.0901961
0.203922 0.14902 0.105882
0.333333 0.188235 0.156863
0.490196 0.227451 0.203922
0.639216 0.270588 0.262745
0.670588 0.278431 0.270588
0.686275 0.278431 0.27451
0.152941 0.188235 0.105882
0.14902 0.176471 0.105882
0.168627 0.2 0.109804
0.2 0.196078 0.113725
0.309804 0.227451 0.160784
0.478431 0.258824 0.207843
0.631373 0.305882 0.27451
0.682353 0.317647 0.290196
0.690196 0.32549 0.294118
0.203922 0.266667 0.141176
0.211765 0.278431 0.129412
0.215686 0.270588 0.133333
0.25098 0.298039 0.14902
0.298039 0.301961 0.168627
0.462745 0.34902 0.231373
0.627451 0.407843 0.301961
0.682353 0.403922 0.317647
0.694118 0.411765 0.317647
0.294118 0.392157 0.176471
0.298039 0.415686 0.180392
0.313725 0.411765 0.184314
0.333333 0.427451 0.192157
0.392157 0.447059 0.239216
0.501961 0.490196 0.282353
0.678431 0.541176 0.329412
0.741176 0.560784 0.32549
0.752941 0.556863 0.32549
0.415686 0.54902 0.258824
0.415686 0.54902 0.247059
0.443137 0.576471 0.27451
0.47451 0.584314 0.282353
0.529412 0.619608 0.305882
0.607843 0.639216 0.313725
0.705882 0.666667 0.317647
0.780392 0.690196 0.321569
0.796078 0.694118 0.313725
0.552941 0.737255 0.305882
0.560784 0.745098 0.305882
0.584314 0.752941 0.301961
0.6 0.74902 0.305882
0.615686 0.741176 0.305882
0.662745 0.737255 0.317647
0.737255 0.745098 0.313725
0.8 0.760784 0.309804
0.803922 0.760784 0.305882
0.631373 0.839216 0.298039
0.635294 0.835294 0.298039
0.654902 0.831373 0.298039
0.666667 0.823529 0.305882
0.666667 0.792157 0.313725
0.717647 0.792157 0.305882
0.752941 0.792157 0.305882
0.803922 0.788235 0.298039
0.803922 0.796078 0.298039
0.054902 0.0509804 0.0745098
0.0705882 0.0509804 0.0784314
0.129412 0.0627451 0.0941176
0.223529 0.0784314 0.109804
0.368627 0.129412 0.160784
0.52549 0.172549 0.207843
0.639216 0.207843 0.25098
0.682353 0.223529 0.254902
0.694118 0.219608 0.254902
0.0705882 0.0745098 0.0901961
0.0784314 0.0745098 0.0941176
0.117647 0.0823529 0.101961
0.207843 0.109804 0.12549
0.321569 0.145098 0.164706
0.505882 0.196078 0.215686
0.639216 0.235294 0.25098
0.678431 0.243137 0.266667
0.698039 0.254902 0.278431
0.0823529 0.121569 0.0901961
0.0862745 0.12549 0.0901961
0.121569 0.129412 0.109804
0.180392 0.145098 0.12549
0.298039 0.176471 0.164706
0.482353 0.227451 0.219608
0.623529 0.266667 0.262745
0.67451 0.282353 0.282353
0.686275 0.278431 0.282353
0.101961 0.196078 0.101961
0.109804 0.188235 0.113725
0.160784 0.192157 0.137255
0.180392 0.196078 0.137255
0.262745 0.215686 0.160784
0.443137 0.254902 0.215686
0.603922 0.286275 0.270588
0.67451 0.321569 0.290196
0.690196 0.32549 0.298039
0.156863 0.270588 0.14902
0.188235 0.262745 0.164706
0.207843 0.270588 0.168627
0.247059 0.301961 0.164706
0.270588 0.294118 0.192157
0.443137 0.333333 0.239216
0.619608 0.4 0.309804
0.686275 0.419608 0.337255
0.701961 0.419608 0.333333
0.278431 0.4 0.215686
0.278431 0.392157 0.211765
0.317647 0.411765 0.219608
0.333333 0.423529 0.219608
0.403922 0.470588 0.258824
0.482353 0.494118 0.309804
0.658824 0.541176 0.337255
0.74902 0.564706 0.345098
0.760784 0.568627 0.341176
0.392157 0.552941 0.278431
0.415686 0.564706 0.278431
0.439216 0.568627 0.298039
0.47451 0.592157 0.301961
0.52549 0.631373 0.333333
0.580392 0.635294 0.333333
0.701961 0.678431 0.34902
0.776471 0.694118 0.337255
0.796078 0.698039 0.333333
0.54902 0.745098 0.329412
0.552941 0.737255 0.329412
0.556863 0.733333 0.329412
0.603922 0.756863 0.329412
0.623529 0.752941 0.329412
0.658824 0.741176 0.345098
0.737255 0.760784 0.337255
0.8 0.768627 0.333333
0.811765 0.764706 0.32549
0.623529 0.819608 0.329412
0.643137 0.843137 0.32549
0.654902 0.839216 0.329412
0.670588 0.831373 0.329412
0.682353 0.811765 0.337255
0.705882 0.796078 0.341176
0.764706 0.803922 0.329412
0.807843 0.796078 0.32549
0.807843 0.796078 0.32549
0.0784314 0.0745098 0.145098
0.0823529 0.0705882 0.145098
0.109804 0.0666667 0.129412
0.180392 0.0862745 0.141176
0.321569 0.117647 0.168627
0.490196 0.168627 0.223529
0.643137 0.211765 0.262745
0.678431 0.219608 0.254902
0.694118 0.223529 0.262745
0.0705882 0.0941176 0.14902
0.0823529 0.0901961 0.141176
0.0980392 0.0901961 0.141176
0.172549 0.109804 0.152941
0.27451 0.133333 0.172549
0.466667 0.184314 0.227451
0.615686 0.235294 0.270588
0.682353 0.254902 0.278431
0.686275 0.25098 0.278431
0.0705882 0.156863 0.14902
0.0745098 0.152941 0.156863
0.0980392 0.141176 0.164706
0.14902 0.145098 0.164706
0.258824 0.172549 0.184314
0.447059 0.215686 0.231373
0.611765 0.262745 0.278431
0.678431 0.27451 0.286275
0.686275 0.27451 0.290196
0.0901961 0.2 0.141176
0.0901961 0.196078 0.141176
0.109804 0.188235 0.145098
0.164706 0.180392 0.176471
0.243137 0.207843 0.188235
0.431373 0.243137 0.227451
0.603922 0.298039 0.290196
0.678431 0.321569 0.309804
0.682353 0.321569 0.317647
0.117647 0.294118 0.152941
0.129412 0.290196 0.152941
0.141176 0.301961 0.137255
0.223529 0.294118 0.203922
0.270588 0.309804 0.211765
0.407843 0.32549 0.25098
0.596078 0.396078 0.321569
0.694118 0.423529 0.360784
0.705882 0.423529 0.356863
0.2 0.419608 0.180392
0.188235 0.411765 0.180392
0.235294 0.403922 0.211765
0.32549 0.411765 0.231373
0.403922 0.47451 0.286275
0.462745 0.486275 0.337255
0.662745 0.54902 0.376471
0.74902 0.568627 0.372549
0.776471 0.580392 0.372549
0.352941 0.564706 0.298039
0.364706 0.564706 0.32549
0.372549 0.564706 0.32549
0.47451 0.6 0.345098
0.517647 0.635294 0.352941
0.572549 0.65098 0.372549
0.690196 0.682353 0.388235
0.788235 0.701961 0.368627
0.807843 0.698039 0.368627
0.501961 0.729412 0.384314
0.52549 0.733333 0.380392
0.560784 0.756863 0.368627
0.592157 0.768627 0.364706
0.635294 0.780392 0.368627
0.658824 0.756863 0.388235
0.741176 0.772549 0.380392
0.811765 0.780392 0.384314
0.831373 0.780392 0.372549
0.611765 0.85098 0.380392
0.627451 0.843137 0.380392
0.643137 0.854902 0.380392
0.67451 0.843137 0.380392
0.698039 0.835294 0.376471
0.721569 0.811765 0.388235
0.760784 0.815686 0.376471
0.823529 0.823529 0.388235
0.827451 0.807843 0.376471
0.101961 0.101961 0.235294
0.101961 0.0980392 0.223529
0.109804 0.0980392 0.211765
0.156863 0.0941176 0.2
0.266667 0.109804 0.203922
0.466667 0.160784 0.247059
0.611765 0.207843 0.282353
0.682353 0.223529 0.294118
0.690196 0.223529 0.301961
0.0941176 0.113725 0.227451
0.101961 0.117647 0.223529
0.109804 0.117647 0.215686
0.152941 0.117647 0.2
0.239216 0.129412 0.215686
0.45098 0.180392 0.25098
0.607843 0.231373 0.286275
0.678431 0.254902 0.313725
0.694118 0.262745 0.313725
0.0901961 0.172549 0.247059
0.0901961 0.164706 0.231373
0.0941176 0.152941 0.227451
0.145098 0.152941 0.211765
0.231373 0.168627 0.211765
0.403922 0.207843 0.25098
0.588235 0.262745 0.301961
0.678431 0.286275 0.317647
0.690196 0.290196 0.321569
0.0784314 0.215686 0.192157
0.0823529 0.219608 0.196078
0.0901961 0.211765 0.192157
0.137255 0.2 0.2
0.215686 0.207843 0.227451
0.4 0.239216 0.254902
0.576471 0.294118 0.305882
0.682353 0.333333 0.34902
0.694118 0.333333 0.345098
0.12549 0.317647 0.2
0.121569 0.313725 0.196078
0.109804 0.301961 0.184314
0.164706 0.286275 0.203922
0.254902 0.298039 0.243137
0.403922 0.333333 0.286275
0.592157 0.396078 0.360784
0.701961 0.435294 0.392157
0.717647 0.431373 0.388235
0.164706 0.447059 0.180392
0.168627 0.435294 0.192157
0.180392 0.423529 0.192157
0.239216 0.427451 0.231373
0.368627 0.45098 0.317647
0.458824 0.494118 0.372549
0.639216 0.54902 0.415686
0.760784 0.584314 0.419608
0.788235 0.588235 0.411765
0.254902 0.576471 0.243137
0.27451 0.568627 0.247059
0.282353 0.568627 0.258824
0.407843 0.576471 0.368627
0.517647 0.635294 0.403922
0.596078 0.678431 0.415686
0.690196 0.690196 0.439216
0.811765 0.72549 0.431373
0.831373 0.721569 0.423529
0.4 0.72549 0.341176
0.415686 0.733333 0.356863
0.454902 0.74902 0.388235
0.54902 0.752941 0.439216
0.639216 0.792157 0.427451
0.67451 0.788235 0.435294
0.752941 0.792157 0.45098
0.827451 0.803922 0.447059
0.839216 0.796078 0.447059
0.490196 0.819608 0.392157
0.529412 0.823529 0.419608
0.572549 0.839216 0.427451
0.658824 0.870588 0.435294
0.721569 0.878431 0.435294
0.741176 0.843137 0.458824
0.772549 0.831373 0.458824
0.835294 0.843137 0.466667
0.85098 0.839216 0.454902
0.133333 0.141176 0.341176
0.133333 0.141176 0.341176
0.145098 0.137255 0.321569
0.156863 0.121569 0.290196
0.239216 0.117647 0.278431
0.411765 0.156863 0.290196
0.6 0.203922 0.329412
0.678431 0.231373 0.333333
0.694118 0.235294 0.337255
0.133333 0.14902 0.337255
0.133333 0.14902 0.337255
0.141176 0.156863 0.341176
0.160784 0.152941 0.305882
0.223529 0.156863 0.298039
0.392157 0.176471 0.298039
0.584314 0.223529 0.321569
0.67451 0.258824 0.345098
0.690196 0.262745 0.345098
0.137255 0.188235 0.352941
0.137255 0.188235 0.352941
0.129412 0.184314 0.337255
0.160784 0.184314 0.32549
0.211765 0.188235 0.290196
0.376471 0.211765 0.305882
0.584314 0.258824 0.337255
0.67451 0.290196 0.34902
0.694118 0.298039 0.360784
0.12549 0.270588 0.384314
0.129412 0.27451 0.388235
0.113725 0.258824 0.360784
0.152941 0.235294 0.34902
0.215686 0.235294 0.321569
0.360784 0.247059 0.32549
0.560784 0.294118 0.345098
0.686275 0.345098 0.380392
0.705882 0.352941 0.392157
0.141176 0.388235 0.356863
0.121569 0.34902 0.294118
0.121569 0.356863 0.32549
0.145098 0.345098 0.32549
0.215686 0.329412 0.352941
0.372549 0.345098 0.376471
0.584314 0.4 0.423529
0.72549 0.443137 0.458824
0.745098 0.447059 0.45098
0.176471 0.478431 0.298039
0.160784 0.454902 0.301961
0.176471 0.454902 0.282353
0.192157 0.431373 0.298039
0.313725 0.45098 0.364706
0.470588 0.494118 0.494118
0.670588 0.568627 0.501961
0.788235 0.603922 0.494118
0.807843 0.6 0.482353
0.239216 0.603922 0.290196
0.239216 0.592157 0.309804
0.254902 0.588235 0.313725
0.298039 0.596078 0.352941
0.396078 0.635294 0.411765
0.611765 0.686275 0.509804
0.701961 0.72549 0.545098
0.831373 0.74902 0.533333
0.847059 0.74902 0.517647
0.298039 0.733333 0.333333
0.309804 0.729412 0.333333
0.321569 0.733333 0.329412
0.368627 0.752941 0.368627
0.580392 0.788235 0.509804
0.709804 0.831373 0.533333
0.780392 0.819608 0.572549
0.862745 0.827451 0.556863
0.866667 0.827451 0.54902
0.329412 0.823529 0.329412
0.364706 0.819608 0.337255
0.392157 0.831373 0.360784
0.501961 0.85098 0.427451
0.721569 0.905882 0.556863
0.780392 0.886275 0.568627
0.803922 0.866667 0.572549
0.866667 0.870588 0.580392
0.878431 0.87451 0.588235
0.176471 0.168627 0.454902
0.172549 0.172549 0.447059
0.164706 0.160784 0.419608
0.188235 0.164706 0.415686
0.243137 0.160784 0.392157
0.368627 0.156863 0.384314
0.560784 0.215686 0.415686
0.67451 0.247059 0.411765
0.682353 0.247059 0.427451
0.168627 0.180392 0.443137
0.176471 0.180392 0.443137
0.184314 0.188235 0.45098
0.196078 0.192157 0.427451
0.243137 0.192157 0.403922
0.372549 0.188235 0.392157
0.54902 0.239216 0.423529
0.670588 0.266667 0.435294
0.686275 0.270588 0.419608
0.180392 0.219608 0.462745
0.172549 0.211765 0.45098
0.172549 0.203922 0.447059
0.188235 0.207843 0.427451
0.243137 0.227451 0.423529
0.352941 0.227451 0.419608
0.552941 0.266667 0.435294
0.67451 0.298039 0.447059
0.698039 0.305882 0.454902
0.172549 0.262745 0.466667
0.168627 0.25098 0.458824
0.172549 0.254902 0.462745
0.184314 0.247059 0.439216
0.243137 0.258824 0.443137
0.337255 0.266667 0.419608
0.537255 0.309804 0.458824
0.698039 0.368627 0.501961
0.705882 0.364706 0.501961
0.160784 0.415686 0.52549
0.156863 0.407843 0.517647
0.156863 0.403922 0.52549
0.168627 0.364706 0.494118
0.231373 0.333333 0.470588
0.380392 0.368627 0.482353
0.580392 0.423529 0.52549
0.741176 0.458824 0.552941
0.776471 0.470588 0.560784
0.188235 0.494118 0.439216
0.192157 0.498039 0.447059
0.184314 0.470588 0.403922
0.192157 0.47451 0.431373
0.247059 0.478431 0.470588
0.403922 0.470588 0.501961
0.65098 0.545098 0.572549
0.807843 0.588235 0.592157
0.819608 0.576471 0.580392
0.239216 0.611765 0.419608
0.243137 0.611765 0.423529
0.235294 0.6 0.423529
0.262745 0.615686 0.447059
0.333333 0.615686 0.490196
0.541176 0.65098 0.560784
0.698039 0.705882 0.619608
0.85098 0.745098 0.631373
0.870588 0.733333 0.607843
0.278431 0.741176 0.435294
0.282353 0.729412 0.423529
0.301961 0.721569 0.443137
0.321569 0.752941 0.447059
0.407843 0.760784 0.501961
0.698039 0.831373 0.631373
0.776471 0.823529 0.643137
0.87451 0.843137 0.658824
0.894118 0.847059 0.643137
0.298039 0.8 0.423529
0.313725 0.807843 0.423529
0.317647 0.811765 0.431373
0.368627 0.815686 0.447059
0.447059 0.858824 0.494118
0.796078 0.92549 0.654902
0.827451 0.886275 0.658824
0.886275 0.894118 0.670588
0.901961 0.894118 0.670588
0.207843 0.207843 0.552941
0.207843 0.207843 0.560784
0.211765 0.2 0.541176
0.227451 0.203922 0.541176
0.262745 0.196078 0.501961
0.372549 0.2 0.501961
0.529412 0.223529 0.521569
0.647059 0.266667 0.545098
0.666667 0.266667 0.545098
0.211765 0.211765 0.556863
0.207843 0.207843 0.545098
0.211765 0.211765 0.556863
0.227451 0.219608 0.545098
0.270588 0.227451 0.533333
0.384314 0.227451 0.513725
0.521569 0.243137 0.517647
0.647059 0.290196 0.552941
0.678431 0.290196 0.545098
0.215686 0.243137 0.556863
0.207843 0.235294 0.541176
0.207843 0.235294 0.541176
0.227451 0.239216 0.556863
0.266667 0.254902 0.533333
0.364706 0.258824 0.521569
0.52549 0.282353 0.529412
0.658824 0.321569 0.560784
0.678431 0.329412 0.568627
0.211765 0.286275 0.552941
0.219608 0.286275 0.560784
0.223529 0.282353 0.552941
0.231373 0.282353 0.54902
0.27451 0.294118 0.545098
0.364706 0.301961 0.545098
0.533333 0.337255 0.584314
0.686275 0.392157 0.611765
0.717647 0.4 0.627451
0.211765 0.376471 0.603922
0.203922 0.360784 0.592157
0.203922 0.360784 0.592157
0.223529 0.341176 0.576471
0.258824 0.333333 0.560784
0.392157 0.384314 0.580392
0.580392 0.431373 0.623529
0.74902 0.490196 0.670588
0.780392 0.498039 0.678431
0.247059 0.596078 0.666667
0.239216 0.584314 0.662745
0.235294 0.580392 0.658824
0.243137 0.564706 0.658824
0.262745 0.517647 0.635294
0.427451 0.490196 0.623529
0.627451 0.545098 0.666667
0.819608 0.607843 0.709804
0.839216 0.603922 0.705882
0.254902 0.619608 0.537255
0.254902 0.611765 0.541176
0.258824 0.627451 0.556863
0.258824 0.619608 0.560784
0.301961 0.647059 0.6
0.458824 0.658824 0.639216
0.709804 0.701961 0.713725
0.87451 0.741176 0.745098
0.901961 0.752941 0.741176
0.258824 0.737255 0.541176
0.266667 0.756863 0.529412
0.262745 0.741176 0.54902
0.286275 0.737255 0.568627
0.337255 0.764706 0.6
0.521569 0.803922 0.654902
0.823529 0.854902 0.756863
0.898039 0.858824 0.760784
0.921569 0.866667 0.764706
0.270588 0.815686 0.541176
0.270588 0.819608 0.52549
0.270588 0.823529 0.533333
0.298039 0.831373 0.533333
0.368627 0.839216 0.584314
0.596078 0.894118 0.639216
0.870588 0.929412 0.764706
0.909804 0.913725 0.784314
0.92549 0.917647 0.784314
0.247059 0.235294 0.647059
0.247059 0.235294 0.647059
0.247059 0.235294 0.639216
0.258824 0.231373 0.635294
0.286275 0.239216 0.623529
0.396078 0.25098 0.627451
0.537255 0.254902 0.643137
0.65098 0.282353 0.65098
0.658824 0.286275 0.654902
0.243137 0.239216 0.639216
0.247059 0.243137 0.643137
0.247059 0.243137 0.643137
0.254902 0.247059 0.643137
0.290196 0.262745 0.639216
0.384314 0.262745 0.631373
0.541176 0.286275 0.647059
0.639216 0.301961 0.65098
0.666667 0.313725 0.658824
0.247059 0.266667 0.635294
0.247059 0.266667 0.635294
0.247059 0.266667 0.635294
0.25098 0.262745 0.635294
0.301961 0.290196 0.647059
0.380392 0.301961 0.643137
0.537255 0.317647 0.662745
0.654902 0.341176 0.67451
0.678431 0.34902 0.682353
0.254902 0.313725 0.647059
0.25098 0.309804 0.635294
0.258824 0.305882 0.643137
0.262745 0.301961 0.635294
0.290196 0.313725 0.65098
0.396078 0.337255 0.654902
0.537255 0.360784 0.678431
0.694118 0.411765 0.709804
0.72549 0.415686 0.717647
0.254902 0.364706 0.654902
0.25098 0.360784 0.65098
0.25098 0.360784 0.65098
0.262745 0.356863 0.647059
0.294118 0.356863 0.65098
0.407843 0.392157 0.682353
0.588235 0.462745 0.72549
0.752941 0.509804 0.772549
0.792157 0.521569 0.776471
0.247059 0.537255 0.729412
0.247059 0.52549 0.729412
0.247059 0.521569 0.721569
0.258824 0.490196 0.709804
0.27451 0.466667 0.698039
0.431373 0.494118 0.698039
0.658824 0.580392 0.788235
0.803922 0.607843 0.807843
0.843137 0.619608 0.819608
0.254902 0.737255 0.768627
0.25098 0.737255 0.776471
0.25098 0.721569 0.776471
0.258824 0.729412 0.784314
0.294118 0.737255 0.8
0.419608 0.701961 0.8
0.729412 0.729412 0.839216
0.870588 0.760784 0.858824
0.901961 0.764706 0.866667
0.254902 0.760784 0.682353
0.262745 0.741176 0.65098
0.247059 0.745098 0.662745
0.258824 0.752941 0.698039
0.290196 0.764706 0.698039
0.45098 0.807843 0.788235
0.741176 0.85098 0.854902
0.929412 0.890196 0.894118
0.94902 0.894118 0.894118
0.266667 0.788235 0.643137
0.270588 0.784314 0.643137
0.262745 0.792157 0.639216
0.282353 0.788235 0.65098
0.317647 0.803922 0.694118
0.498039 0.862745 0.780392
0.792157 0.929412 0.847059
0.933333 0.941176 0.890196
0.945098 0.941176 0.890196
0.25098 0.243137 0.682353
0.25098 0.243137 0.682353
0.254902 0.247059 0.678431
0.278431 0.25098 0.686275
0.298039 0.254902 0.682353
0.403922 0.258824 0.682353
0.541176 0.27451 0.698039
0.643137 0.290196 0.705882
0.662745 0.294118 0.713725
0.258824 0.25098 0.682353
0.254902 0.247059 0.678431
0.254902 0.247059 0.678431
0.266667 0.258824 0.690196
0.290196 0.258824 0.686275
0.388235 0.282353 0.690196
0.533333 0.294118 0.698039
0.65098 0.313725 0.717647
0.662745 0.32549 0.721569
0.262745 0.27451 0.686275
0.254902 0.270588 0.686275
0.258824 0.270588 0.690196
0.266667 0.270588 0.682353
0.298039 0.286275 0.698039
0.396078 0.305882 0.698039
0.537255 0.321569 0.717647
0.666667 0.356863 0.733333
0.690196 0.360784 0.737255
0.266667 0.321569 0.686275
0.258824 0.313725 0.686275
0.262745 0.313725 0.690196
0.266667 0.309804 0.678431
0.298039 0.317647 0.694118
0.4 0.345098 0.713725
0.54902 0.368627 0.72549
0.701961 0.419608 0.764706
0.733333 0.419608 0.768627
0.266667 0.364706 0.694118
0.27451 0.364706 0.686275
0.27451 0.364706 0.686275
0.278431 0.356863 0.694118
0.294118 0.34902 0.694118
0.407843 0.388235 0.717647
0.592157 0.458824 0.760784
0.760784 0.509804 0.807843
0.796078 0.52549 0.819608
0.254902 0.494118 0.737255
0.262745 0.498039 0.741176
0.262745 0.478431 0.733333
0.266667 0.47451 0.733333
0.294118 0.462745 0.72549
0.447059 0.490196 0.737255
0.658824 0.588235 0.827451
0.811765 0.615686 0.862745
0.847059 0.623529 0.858824
0.254902 0.72549 0.815686
0.25098 0.713725 0.819608
0.25098 0.713725 0.815686
0.258824 0.709804 0.811765
0.27451 0.694118 0.819608
0.439216 0.654902 0.827451
0.733333 0.729412 0.882353
0.87451 0.768627 0.901961
0.905882 0.776471 0.905882
0.25098 0.796078 0.823529
0.254902 0.796078 0.823529
0.25098 0.796078 0.823529
0.254902 0.803922 0.839216
0.282353 0.807843 0.85098
0.431373 0.831373 0.87451
0.74902 0.858824 0.929412
0.933333 0.894118 0.945098
0.937255 0.890196 0.941176
0.25098 0.792157 0.729412
0.25098 0.796078 0.729412
0.25098 0.8 0.737255
0.258824 0.8 0.74902
0.286275 0.807843 0.752941
0.447059 0.858824 0.827451
0.756863 0.921569 0.917647
0.941176 0.945098 0.952941
0.952941 0.952941 0.952941
