assets/luts/cinematic/RR NT Boost&Punch.cube
#Generated by Picture Instruments - Unlimited Filters
TITLE "RR NT Boost&Punch"
LUT_3D_SIZE 17
0 0 0
0.0235294 0 0
0.0705882 0 0
0.117647 0 0
0.188235 0 0
0.25098 0 0.00392157
0.333333 0.00392157 0.00392157
0.427451 0.00392157 0.00392157
0.501961 0 0
0.588235 0 0.00392157
0.666667 0 0.00392157
0.737255 0 0.00392157
0.8 0 0.00392157
0.854902 0 0
0.909804 0 0
0.956863 0 0
0.992157 0 0
0.00392157 0.00392157 0.00392157
0.0235294 0 0
0.0705882 0.0117647 0
0.113725 0.0156863 0
0.188235 0.0196078 0
0.247059 0.0235294 0
0.337255 0.027451 0
0.419608 0.0352941 0
0.501961 0.0431373 0.00392157
0.584314 0.0431373 0
0.658824 0.0392157 0
0.733333 0.0392157 0
0.8 0.0470588 0.00392157
0.854902 0.0392157 0
0.905882 0.0392157 0.00392157
0.952941 0.0431373 0.00392157
0.992157 0.0392157 0
0 0.0392157 0.00392157
0.0313725 0.0431373 0
0.0705882 0.0470588 0
0.117647 0.054902 0
0.192157 0.0627451 0
0.258824 0.0666667 0
0.337255 0.0666667 0.00392157
0.427451 0.0705882 0
0.509804 0.0823529 0
0.596078 0.0823529 0.00392157
0.666667 0.0823529 0
0.733333 0.0784314 0.00392157
0.796078 0.0823529 0
0.862745 0.0823529 0
0.909804 0.0784314 0
0.960784 0.0784314 0
0.996078 0.0784314 0
0 0.0862745 0.00392157
0.0313725 0.0901961 0
0.0745098 0.0941176 0.00392157
0.12549 0.101961 0
0.188235 0.109804 0.00392157
0.258824 0.113725 0
0.333333 0.117647 0
0.419608 0.12549 0
0.513725 0.133333 0.00392157
0.584314 0.137255 0.00392157
0.662745 0.137255 0
0.733333 0.133333 0
0.807843 0.129412 0
0.854902 0.133333 0
0.905882 0.133333 0
0.964706 0.129412 0.00392157
0.992157 0.129412 0
0.00392157 0.145098 0.00392157
0.0352941 0.145098 0
0.0745098 0.156863 0.00392157
0.12549 0.156863 0.00392157
0.184314 0.164706 0
0.25098 0.180392 0
0.329412 0.180392 0.00392157
0.423529 0.184314 0
0.505882 0.192157 0
0.588235 0.188235 0
0.662745 0.192157 0
0.733333 0.192157 0
0.803922 0.192157 0
0.858824 0.192157 0
0.905882 0.192157 0.00392157
0.952941 0.188235 0
0.996078 0.188235 0
0 0.207843 0
0.0392157 0.215686 0
0.0823529 0.219608 0
0.12549 0.215686 0
0.188235 0.231373 0
0.258824 0.243137 0
0.341176 0.247059 0.00392157
0.431373 0.258824 0.00392157
0.501961 0.25098 0
0.596078 0.262745 0
0.67451 0.262745 0.00392157
0.745098 0.262745 0
0.8 0.258824 0.00392157
0.862745 0.262745 0
0.913725 0.254902 0
0.964706 0.262745 0.00392157
0.996078 0.258824 0.00392157
0 0.286275 0
0.0392157 0.290196 0
0.0784314 0.298039 0.00392157
0.133333 0.305882 0
0.192157 0.313725 0
0.262745 0.313725 0
0.333333 0.32549 0
0.415686 0.329412 0
0.517647 0.337255 0
0.584314 0.329412 0
0.666667 0.337255 0
0.741176 0.333333 0
0.807843 0.337255 0
0.862745 0.337255 0.00392157
0.905882 0.333333 0
0.956863 0.337255 0
0.996078 0.341176 0
0 0.368627 0
0.0392157 0.380392 0
0.0823529 0.388235 0
0.129412 0.388235 0.00392157
0.192157 0.396078 0.00392157
0.258824 0.403922 0
0.337255 0.423529 0
0.419608 0.415686 0
0.505882 0.415686 0
0.592157 0.419608 0
0.666667 0.419608 0.00392157
0.733333 0.415686 0.00392157
0.803922 0.419608 0
0.854902 0.411765 0
0.909804 0.419608 0.00392157
0.956863 0.423529 0
0.996078 0.419608 0
0 0.454902 0.00392157
0.0392157 0.462745 0
0.0823529 0.478431 0
0.133333 0.486275 0
0.188235 0.478431 0.00392157
0.258824 0.486275 0.00392157
0.337255 0.498039 0
0.419608 0.509804 0
0.494118 0.505882 0
0.580392 0.498039 0
0.662745 0.501961 0
0.733333 0.501961 0
0.796078 0.501961 0
0.85098 0.501961 0
0.905882 0.501961 0
0.960784 0.498039 0.00392157
0.996078 0.498039 0
0.00392157 0.545098 0
0.0431373 0.545098 0
0.0862745 0.54902 0
0.137255 0.556863 0
0.2 0.564706 0.00392157
0.266667 0.572549 0.00392157
0.337255 0.568627 0.00392157
0.419608 0.576471 0
0.509804 0.580392 0
0.596078 0.576471 0.00392157
0.662745 0.584314 0
0.741176 0.584314 0
0.8 0.580392 0.00392157
0.858824 0.584314 0.00392157
0.913725 0.584314 0
0.960784 0.572549 0
0.996078 0.576471 0
0 0.623529 0
0.0431373 0.631373 0.00392157
0.0823529 0.631373 0
0.129412 0.635294 0
0.188235 0.639216 0
0.266667 0.65098 0.00392157
0.337255 0.654902 0
0.423529 0.654902 0.00392157
0.501961 0.654902 0
0.588235 0.662745 0
0.654902 0.662745 0
0.733333 0.662745 0.00392157
0.796078 0.662745 0.00392157
0.858824 0.658824 0.00392157
0.905882 0.662745 0
0.964706 0.662745 0.00392157
0.996078 0.65098 0
0 0.701961 0
0.0431373 0.705882 0.00392157
0.0862745 0.709804 0.00392157
0.129412 0.709804 0
0.196078 0.721569 0.00392157
0.254902 0.717647 0
0.337255 0.721569 0
0.419608 0.72549 0.00392157
0.501961 0.733333 0.00392157
0.576471 0.72549 0.00392157
0.654902 0.729412 0
0.729412 0.729412 0
0.803922 0.733333 0.00392157
0.854902 0.741176 0
0.905882 0.729412 0
0.94902 0.733333 0
0.996078 0.733333 0.00392157
0.00392157 0.772549 0.00392157
0.0470588 0.776471 0.00392157
0.0823529 0.772549 0
0.129412 0.780392 0.00392157
0.192157 0.792157 0
0.258824 0.788235 0
0.337255 0.784314 0
0.419608 0.788235 0.00392157
0.501961 0.792157 0.00392157
0.592157 0.792157 0.00392157
0.666667 0.796078 0
0.72549 0.792157 0
0.796078 0.803922 0
0.862745 0.796078 0.00392157
0.909804 0.8 0
0.960784 0.8 0
0.996078 0.792157 0
0 0.835294 0.00392157
0.0392157 0.843137 0
0.0823529 0.839216 0.00392157
0.141176 0.843137 0.00392157
0.196078 0.843137 0.00392157
0.262745 0.839216 0.00392157
0.333333 0.847059 0
0.427451 0.847059 0
0.505882 0.847059 0
0.584314 0.843137 0.00392157
0.658824 0.85098 0.00392157
0.729412 0.85098 0
0.803922 0.858824 0
0.85098 0.854902 0
0.909804 0.85098 0
0.956863 0.854902 0.00392157
0.988235 0.85098 0
0 0.898039 0
0.0352941 0.894118 0.00392157
0.0862745 0.898039 0.00392157
0.129412 0.894118 0
0.192157 0.901961 0.00392157
0.262745 0.901961 0.00392157
0.329412 0.901961 0.00392157
0.419608 0.901961 0
0.498039 0.901961 0
0.580392 0.905882 0.00392157
0.658824 0.905882 0
0.72549 0.905882 0
0.8 0.909804 0
0.854902 0.909804 0
0.905882 0.913725 0
0.952941 0.901961 0.00392157
0.996078 0.901961 0.00392157
0 0.94902 0
0.0392157 0.94902 0
0.0901961 0.94902 0
0.129412 0.94902 0
0.192157 0.952941 0
0.266667 0.952941 0
0.333333 0.952941 0
0.419608 0.94902 0
0.501961 0.94902 0
0.596078 0.952941 0
0.662745 0.956863 0.00392157
0.741176 0.960784 0
0.796078 0.952941 0
0.854902 0.956863 0
0.905882 0.960784 0
0.960784 0.952941 0
0.996078 0.952941 0
0 0.996078 0
0.0392157 0.996078 0
0.0784314 0.996078 0
0.129412 0.996078 0
0.192157 0.996078 0
0.266667 0.996078 0
0.333333 0.996078 0
0.411765 0.996078 0
0.501961 0.996078 0
0.580392 0.996078 0
0.662745 0.992157 0.00392157
0.72549 0.996078 0
0.796078 0.996078 0
0.854902 0.996078 0
0.905882 0.996078 0
0.952941 0.992157 0
0.992157 0.992157 0
0 0 0.00784314
0.0235294 0 0
0.0745098 0 0.0156863
0.117647 0 0.0156863
0.184314 0 0.0235294
0.258824 0.00392157 0.027451
0.337255 0 0.0352941
0.419608 0 0.0392157
0.498039 0 0.0352941
0.592157 0 0.0431373
0.666667 0 0.0352941
0.745098 0 0.0392157
0.8 0 0.0431373
0.85098 0 0.0352941
0.909804 0.00392157 0.0431373
0.964706 0 0.0431373
0.996078 0 0.0392157
0.00392157 0.00392157 0.00392157
0.027451 0.00392157 0.00392157
0.0705882 0.00784314 0.00784314
0.121569 0.00784314 0.0156863
0.188235 0.0156863 0.0196078
0.258824 0.0156863 0.0196078
0.337255 0.0235294 0.027451
0.435294 0.0313725 0.0352941
0.517647 0.0392157 0.0352941
0.596078 0.0313725 0.0313725
0.678431 0.027451 0.027451
0.752941 0.0313725 0.0313725
0.807843 0.0313725 0.0352941
0.866667 0.027451 0.027451
0.92549 0.0313725 0.0352941
0.968627 0.027451 0.0313725
0.992157 0.0352941 0.0352941
0 0.0470588 0.00784314
0.0196078 0.0431373 0.00392157
0.0666667 0.0509804 0.00784314
0.117647 0.0509804 0.0117647
0.188235 0.0627451 0.0196078
0.254902 0.0666667 0.0196078
0.333333 0.0666667 0.0235294
0.419608 0.0745098 0.0352941
0.513725 0.0784314 0.0352941
0.596078 0.0784314 0.0313725
0.678431 0.0745098 0.027451
0.74902 0.0823529 0.0313725
0.807843 0.0705882 0.027451
0.870588 0.0784314 0.0313725
0.921569 0.0745098 0.0313725
0.964706 0.0705882 0.027451
0.996078 0.0784314 0.0352941
0 0.0941176 0.00784314
0.0313725 0.0901961 0.00784314
0.0784314 0.0980392 0.0117647
0.121569 0.101961 0.0156863
0.188235 0.109804 0.0156863
0.262745 0.113725 0.0235294
0.345098 0.117647 0.0235294
0.435294 0.121569 0.0313725
0.513725 0.12549 0.0352941
0.603922 0.12549 0.0352941
0.682353 0.12549 0.0313725
0.752941 0.12549 0.0313725
0.807843 0.117647 0.027451
0.866667 0.121569 0.0352941
0.921569 0.121569 0.027451
0.976471 0.117647 0.0313725
0.996078 0.12549 0.0352941
0.00392157 0.141176 0.0156863
0.0313725 0.14902 0.0156863
0.0784314 0.156863 0.0117647
0.121569 0.160784 0.0156863
0.188235 0.168627 0.0196078
0.258824 0.172549 0.0117647
0.341176 0.176471 0.027451
0.431373 0.180392 0.0313725
0.513725 0.184314 0.0392157
0.603922 0.188235 0.0352941
0.682353 0.188235 0.0313725
0.74902 0.188235 0.0313725
0.807843 0.184314 0.027451
0.870588 0.180392 0.027451
0.921569 0.184314 0.0352941
0.972549 0.180392 0.0235294
0.996078 0.188235 0.0352941
0.00392157 0.215686 0.0117647
0.0313725 0.231373 0.0117647
0.0745098 0.227451 0.0196078
0.12549 0.231373 0.0156863
0.188235 0.239216 0.027451
0.254902 0.247059 0.0235294
0.337255 0.25098 0.0235294
0.419608 0.25098 0.0352941
0.517647 0.262745 0.0352941
0.596078 0.258824 0.0352941
0.678431 0.258824 0.0392157
0.74902 0.258824 0.0313725
0.811765 0.25098 0.0313725
0.870588 0.258824 0.027451
0.921569 0.258824 0.0352941
0.968627 0.25098 0.027451
0.996078 0.258824 0.0392157
0 0.294118 0.0117647
0.0313725 0.294118 0.0156863
0.0784314 0.305882 0.0156863
0.129412 0.309804 0.0156863
0.188235 0.313725 0.0156863
0.262745 0.317647 0.0235294
0.341176 0.329412 0.0196078
0.439216 0.337255 0.0352941
0.513725 0.345098 0.0392157
0.596078 0.333333 0.027451
0.678431 0.337255 0.027451
0.752941 0.337255 0.0392157
0.811765 0.329412 0.027451
0.870588 0.333333 0.027451
0.921569 0.32549 0.027451
0.968627 0.329412 0.027451
0.996078 0.333333 0.0392157
0 0.380392 0.0156863
0.0313725 0.380392 0.0117647
0.0784314 0.396078 0.0235294
0.12549 0.4 0.0156863
0.192157 0.403922 0.027451
0.266667 0.415686 0.0196078
0.337255 0.415686 0.027451
0.435294 0.419608 0.0313725
0.517647 0.423529 0.0392157
0.6 0.419608 0.0352941
0.682353 0.415686 0.0352941
0.74902 0.419608 0.0313725
0.807843 0.415686 0.0313725
0.87451 0.419608 0.0313725
0.921569 0.411765 0.027451
0.972549 0.415686 0.0235294
0.996078 0.415686 0.0392157
0 0.462745 0.0156863
0.0392157 0.470588 0.0196078
0.0784314 0.482353 0.0196078
0.133333 0.482353 0.027451
0.192157 0.486275 0.0235294
0.262745 0.494118 0.0235294
0.34902 0.509804 0.0313725
0.419608 0.513725 0.0352941
0.513725 0.513725 0.0352941
0.596078 0.509804 0.0313725
0.67451 0.509804 0.0352941
0.74902 0.513725 0.0352941
0.811765 0.501961 0.027451
0.870588 0.498039 0.0352941
0.917647 0.501961 0.0313725
0.968627 0.498039 0.027451
0.992157 0.498039 0.0352941
0.00392157 0.545098 0.0156863
0.0313725 0.560784 0.0156863
0.0784314 0.560784 0.0117647
0.12549 0.568627 0.0196078
0.188235 0.576471 0.0196078
0.25098 0.576471 0.027451
0.333333 0.580392 0.027451
0.419608 0.592157 0.0235294
0.509804 0.596078 0.0352941
0.584314 0.596078 0.0352941
0.678431 0.596078 0.0352941
0.745098 0.596078 0.0352941
0.807843 0.584314 0.0313725
0.870588 0.592157 0.0352941
0.917647 0.584314 0.027451
0.968627 0.576471 0.027451
0.996078 0.580392 0.0392157
0 0.631373 0.0117647
0.0352941 0.639216 0.0117647
0.0784314 0.643137 0.0156863
0.133333 0.65098 0.0196078
0.192157 0.654902 0.0117647
0.262745 0.654902 0.0235294
0.345098 0.662745 0.0235294
0.423529 0.666667 0.027451
0.505882 0.666667 0.0235294
0.603922 0.67451 0.0313725
0.682353 0.67451 0.0352941
0.74902 0.67451 0.0313725
0.803922 0.666667 0.0313725
0.866667 0.662745 0.0313725
0.921569 0.666667 0.0313725
0.972549 0.662745 0.027451
0.996078 0.662745 0.0352941
0 0.705882 0.0117647
0.0352941 0.713725 0.00784314
0.0784314 0.721569 0.00784314
0.12549 0.721569 0.0117647
0.184314 0.72549 0.0156863
0.258824 0.729412 0.0117647
0.337255 0.733333 0.027451
0.423529 0.733333 0.027451
0.509804 0.745098 0.027451
0.592157 0.741176 0.0235294
0.67451 0.745098 0.0313725
0.745098 0.74902 0.0352941
0.807843 0.752941 0.0313725
0.866667 0.74902 0.0352941
0.921569 0.741176 0.0313725
0.972549 0.741176 0.027451
0.996078 0.729412 0.0352941
0 0.780392 0.0156863
0.0235294 0.788235 0.00392157
0.0745098 0.788235 0.00784314
0.121569 0.792157 0.00784314
0.184314 0.792157 0.0156863
0.258824 0.8 0.0156863
0.32549 0.8 0.0117647
0.415686 0.8 0.0196078
0.501961 0.8 0.027451
0.596078 0.807843 0.0235294
0.662745 0.807843 0.0196078
0.741176 0.807843 0.0235294
0.803922 0.807843 0.0313725
0.870588 0.807843 0.0352941
0.921569 0.807843 0.0313725
0.968627 0.803922 0.027451
0.992157 0.8 0.0313725
0 0.843137 0
0.0352941 0.85098 0.00392157
0.0784314 0.854902 0.00392157
0.12549 0.85098 0.00392157
0.184314 0.854902 0.00784314
0.266667 0.858824 0.0156863
0.337255 0.858824 0.0156863
0.419608 0.854902 0.00784314
0.501961 0.858824 0.0156863
0.6 0.858824 0.0196078
0.682353 0.862745 0.027451
0.752941 0.866667 0.027451
0.807843 0.866667 0.0313725
0.862745 0.862745 0.0313725
0.921569 0.858824 0.0352941
0.968627 0.862745 0.027451
0.996078 0.85098 0.0352941
0 0.898039 0.00784314
0.0313725 0.905882 0
0.0745098 0.909804 0
0.12549 0.909804 0.00392157
0.184314 0.913725 0
0.258824 0.913725 0.0117647
0.337255 0.913725 0.0156863
0.415686 0.913725 0.00784314
0.513725 0.917647 0.0196078
0.588235 0.913725 0.0196078
0.670588 0.917647 0.0196078
0.74902 0.917647 0.0196078
0.811765 0.917647 0.027451
0.870588 0.921569 0.0313725
0.917647 0.921569 0.0352941
0.968627 0.917647 0.0235294
0.996078 0.905882 0.0392157
0 0.94902 0
0.0392157 0.964706 0
0.0666667 0.960784 0
0.121569 0.960784 0.00392157
0.180392 0.964706 0
0.25098 0.964706 0.00392157
0.321569 0.964706 0.00392157
0.415686 0.960784 0.00784314
0.498039 0.964706 0.0156863
0.580392 0.964706 0.0117647
0.658824 0.964706 0.0156863
0.733333 0.964706 0.0156863
0.807843 0.968627 0.0196078
0.858824 0.968627 0.0196078
0.917647 0.968627 0.027451
0.968627 0.972549 0.027451
0.996078 0.952941 0.0392157
0 0.996078 0
0.0392157 0.996078 0
0.0784314 0.992157 0.00392157
0.129412 0.996078 0.00392157
0.192157 0.996078 0.0117647
0.262745 0.992157 0.00784314
0.329412 0.996078 0.0117647
0.415686 0.996078 0.0156863
0.501961 0.996078 0.0156863
0.580392 0.996078 0.0156863
0.658824 0.996078 0.0196078
0.729412 0.996078 0.027451
0.796078 0.996078 0.0235294
0.85098 0.996078 0.0313725
0.905882 0.996078 0.0392157
0.956863 0.996078 0.0392157
0.992157 0.996078 0.0392157
0 0 0.0313725
0.0235294 0 0.0392157
0.0666667 0 0.0431373
0.117647 0 0.0470588
0.188235 0 0.054902
0.262745 0 0.0666667
0.329412 0 0.0705882
0.411765 0 0.0745098
0.505882 0 0.0784314
0.584314 0 0.0862745
0.662745 0 0.0823529
0.729412 0 0.0823529
0.796078 0 0.0862745
0.854902 0.00392157 0.0862745
0.909804 0.00392157 0.0823529
0.952941 0 0.0862745
0.996078 0 0.0862745
0.00392157 0.00784314 0.027451
0.027451 0.00784314 0.0352941
0.0745098 0.00784314 0.0470588
0.117647 0.0117647 0.0470588
0.184314 0.0156863 0.0509804
0.262745 0.0196078 0.0627451
0.345098 0.0235294 0.0705882
0.439216 0.027451 0.0823529
0.513725 0.0352941 0.0784314
0.596078 0.0313725 0.0705882
0.682353 0.0313725 0.0784314
0.752941 0.0313725 0.0784314
0.815686 0.0313725 0.0745098
0.87451 0.027451 0.0705882
0.921569 0.0313725 0.0745098
0.972549 0.0235294 0.0705882
0.996078 0.0313725 0.0745098
0.00392157 0.0509804 0.0352941
0.027451 0.0509804 0.0431373
0.0705882 0.0509804 0.0392157
0.121569 0.0509804 0.0509804
0.192157 0.0588235 0.054902
0.258824 0.0627451 0.0666667
0.341176 0.0666667 0.0666667
0.423529 0.0705882 0.0705882
0.517647 0.0784314 0.0745098
0.603922 0.0784314 0.0823529
0.678431 0.0745098 0.0745098
0.74902 0.0745098 0.0745098
0.811765 0.0745098 0.0784314
0.870588 0.0705882 0.0745098
0.92549 0.0705882 0.0666667
0.972549 0.0705882 0.0705882
0.996078 0.0784314 0.0823529
0.00392157 0.0980392 0.0352941
0.0196078 0.101961 0.0352941
0.0666667 0.0980392 0.0392157
0.117647 0.105882 0.0470588
0.184314 0.109804 0.0509804
0.258824 0.109804 0.0666667
0.337255 0.117647 0.0666667
0.419608 0.121569 0.0666667
0.513725 0.129412 0.0784314
0.6 0.12549 0.0823529
0.678431 0.129412 0.0784314
0.74902 0.133333 0.0745098
0.807843 0.129412 0.0745098
0.870588 0.117647 0.0745098
0.917647 0.12549 0.0705882
0.968627 0.121569 0.0784314
0.996078 0.129412 0.0784314
0 0.14902 0.0352941
0.0352941 0.156863 0.0352941
0.0745098 0.152941 0.0431373
0.12549 0.160784 0.054902
0.188235 0.168627 0.054902
0.254902 0.172549 0.0588235
0.34902 0.176471 0.0705882
0.431373 0.180392 0.0705882
0.517647 0.188235 0.0784314
0.596078 0.180392 0.0784314
0.678431 0.188235 0.0784314
0.752941 0.184314 0.0784314
0.811765 0.188235 0.0745098
0.866667 0.180392 0.0745098
0.917647 0.180392 0.0666667
0.968627 0.180392 0.0705882
0.996078 0.192157 0.0784314
0 0.227451 0.0313725
0.027451 0.219608 0.0352941
0.0745098 0.227451 0.0431373
0.12549 0.235294 0.0470588
0.188235 0.239216 0.0588235
0.262745 0.247059 0.0627451
0.337255 0.25098 0.0666667
0.423529 0.258824 0.0705882
0.513725 0.262745 0.0823529
0.6 0.258824 0.0823529
0.678431 0.258824 0.0784314
0.74902 0.258824 0.0705882
0.811765 0.258824 0.0784314
0.866667 0.25098 0.0745098
0.921569 0.243137 0.0745098
0.968627 0.254902 0.0705882
0.996078 0.258824 0.0823529
0 0.298039 0.0431373
0.027451 0.305882 0.0392157
0.0705882 0.309804 0.0392157
0.12549 0.309804 0.0431373
0.188235 0.313725 0.0509804
0.258824 0.32549 0.0588235
0.341176 0.329412 0.0666667
0.427451 0.337255 0.0705882
0.513725 0.345098 0.0784314
0.592157 0.337255 0.0784314
0.678431 0.337255 0.0745098
0.745098 0.333333 0.0784314
0.811765 0.333333 0.0784314
0.866667 0.32549 0.0705882
0.92549 0.329412 0.0666667
0.968627 0.333333 0.0784314
0.996078 0.333333 0.0784314
0.00392157 0.380392 0.0392157
0.0313725 0.384314 0.0392157
0.0784314 0.388235 0.0392157
0.129412 0.396078 0.054902
0.188235 0.4 0.054902
0.258824 0.4 0.0588235
0.337255 0.407843 0.0705882
0.435294 0.419608 0.0705882
0.517647 0.423529 0.0784314
0.6 0.419608 0.0745098
0.67451 0.415686 0.0745098
0.752941 0.415686 0.0745098
0.811765 0.419608 0.0823529
0.87451 0.407843 0.0784314
0.921569 0.403922 0.0705882
0.972549 0.407843 0.0705882
0.996078 0.415686 0.0862745
0 0.466667 0.0431373
0.0392157 0.478431 0.0470588
0.0784314 0.478431 0.0470588
0.133333 0.482353 0.0509804
0.188235 0.486275 0.0588235
0.270588 0.498039 0.0666667
0.352941 0.509804 0.0627451
0.427451 0.505882 0.0705882
0.513725 0.513725 0.0823529
0.596078 0.509804 0.0745098
0.67451 0.501961 0.0745098
0.74902 0.498039 0.0745098
0.807843 0.501961 0.0745098
0.870588 0.498039 0.0745098
0.921569 0.498039 0.0745098
0.972549 0.501961 0.0705882
0.996078 0.501961 0.0862745
0 0.54902 0.0352941
0.0313725 0.556863 0.027451
0.0745098 0.560784 0.0352941
0.12549 0.568627 0.0431373
0.188235 0.568627 0.0470588
0.258824 0.580392 0.054902
0.337255 0.576471 0.0666667
0.423529 0.596078 0.0666667
0.509804 0.596078 0.0705882
0.596078 0.596078 0.0784314
0.670588 0.592157 0.0705882
0.74902 0.592157 0.0784314
0.807843 0.596078 0.0784314
0.858824 0.584314 0.0745098
0.921569 0.580392 0.0745098
0.968627 0.580392 0.0705882
0.996078 0.580392 0.0745098
0.00392157 0.635294 0.027451
0.0313725 0.639216 0.027451
0.0745098 0.643137 0.0352941
0.129412 0.643137 0.0392157
0.188235 0.658824 0.0431373
0.262745 0.658824 0.054902
0.329412 0.654902 0.0509804
0.415686 0.662745 0.0627451
0.505882 0.666667 0.0627451
0.592157 0.67451 0.0745098
0.662745 0.67451 0.0745098
0.74902 0.67451 0.0705882
0.807843 0.666667 0.0784314
0.862745 0.662745 0.0705882
0.917647 0.670588 0.0705882
0.968627 0.662745 0.0745098
0.996078 0.654902 0.0784314
0 0.709804 0.0235294
0.0352941 0.717647 0.0235294
0.0784314 0.72549 0.027451
0.12549 0.72549 0.0352941
0.188235 0.72549 0.0431373
0.266667 0.729412 0.0470588
0.34902 0.733333 0.054902
0.427451 0.733333 0.0588235
0.513725 0.741176 0.0627451
0.596078 0.745098 0.0588235
0.678431 0.741176 0.0705882
0.752941 0.745098 0.0745098
0.807843 0.745098 0.0666667
0.866667 0.741176 0.0784314
0.917647 0.733333 0.0745098
0.968627 0.741176 0.0745098
0.996078 0.729412 0.0784314
0.00392157 0.776471 0.0196078
0.027451 0.792157 0.0156863
0.0745098 0.788235 0.0196078
0.121569 0.796078 0.027451
0.184314 0.796078 0.0313725
0.247059 0.796078 0.0392157
0.329412 0.8 0.0392157
0.419608 0.8 0.0509804
0.501961 0.803922 0.0588235
0.596078 0.8 0.0588235
0.670588 0.807843 0.0627451
0.745098 0.807843 0.0745098
0.807843 0.807843 0.0784314
0.866667 0.807843 0.0745098
0.917647 0.807843 0.0705882
0.964706 0.803922 0.0666667
0.996078 0.796078 0.0784314
0 0.847059 0.0196078
0.0313725 0.858824 0.0117647
0.0705882 0.85098 0.0156863
0.117647 0.85098 0.0235294
0.184314 0.85098 0.0235294
0.25098 0.847059 0.027451
0.333333 0.858824 0.0392157
0.407843 0.854902 0.0352941
0.498039 0.858824 0.0470588
0.588235 0.858824 0.054902
0.662745 0.866667 0.054902
0.733333 0.862745 0.0588235
0.807843 0.866667 0.0705882
0.862745 0.866667 0.0745098
0.917647 0.866667 0.0705882
0.968627 0.866667 0.0784314
0.996078 0.85098 0.0823529
0 0.898039 0.0156863
0.0352941 0.909804 0.00392157
0.0823529 0.909804 0.0117647
0.12549 0.905882 0.0156863
0.184314 0.909804 0.0235294
0.258824 0.913725 0.0235294
0.337255 0.913725 0.027451
0.419608 0.913725 0.0431373
0.501961 0.913725 0.0352941
0.584314 0.913725 0.0509804
0.67451 0.917647 0.0509804
0.745098 0.917647 0.0509804
0.803922 0.921569 0.0588235
0.862745 0.917647 0.0666667
0.913725 0.917647 0.0705882
0.972549 0.913725 0.0705882
0.996078 0.905882 0.0784314
0 0.952941 0.00392157
0.027451 0.960784 0.00392157
0.0666667 0.960784 0
0.117647 0.960784 0.00784314
0.184314 0.964706 0.0117647
0.262745 0.964706 0.0156863
0.329412 0.964706 0.0196078
0.411765 0.964706 0.027451
0.498039 0.964706 0.0313725
0.596078 0.964706 0.0392157
0.662745 0.960784 0.0470588
0.741176 0.960784 0.0470588
0.811765 0.968627 0.0509804
0.862745 0.972549 0.0627451
0.921569 0.964706 0.0745098
0.964706 0.968627 0.0745098
0.996078 0.94902 0.0862745
0 0.992157 0
0.0352941 0.996078 0.00392157
0.0784314 0.992157 0.0117647
0.133333 0.996078 0.0156863
0.192157 0.996078 0.0196078
0.258824 0.996078 0.0156863
0.333333 0.992157 0.027451
0.415686 0.996078 0.0392157
0.505882 0.996078 0.0392157
0.576471 0.996078 0.0392157
0.662745 0.996078 0.0509804
0.741176 0.996078 0.054902
0.803922 0.996078 0.0588235
0.854902 0.996078 0.0627451
0.905882 0.996078 0.0745098
0.952941 0.996078 0.0784314
0.996078 0.992157 0.0823529
0.00392157 0 0.0784314
0.027451 0 0.0784314
0.0705882 0 0.0941176
0.117647 0 0.0941176
0.188235 0 0.101961
0.247059 0 0.105882
0.333333 0 0.121569
0.423529 0 0.12549
0.501961 0 0.129412
0.588235 0 0.137255
0.662745 0 0.137255
0.737255 0 0.129412
0.8 0 0.137255
0.854902 0 0.137255
0.905882 0 0.12549
0.956863 0 0.133333
0.996078 0 0.133333
0 0.0117647 0.0784314
0.0235294 0.00784314 0.0745098
0.0627451 0.0117647 0.0823529
0.121569 0.0117647 0.0980392
0.180392 0.0156863 0.101961
0.254902 0.0235294 0.101961
0.337255 0.027451 0.113725
0.419608 0.027451 0.121569
0.513725 0.0352941 0.133333
0.596078 0.0313725 0.121569
0.682353 0.027451 0.129412
0.74902 0.0352941 0.12549
0.807843 0.0313725 0.121569
0.862745 0.0313725 0.121569
0.92549 0.0313725 0.121569
0.968627 0.0313725 0.121569
