assets/luts/cinematic/RR NT Jupiter.cube
#Generated by Picture Instruments - Unlimited Filters
TITLE "RR NT Jupiter"
LUT_3D_SIZE 17
0.054902 0.0470588 0.0509804
0.0666667 0.0509804 0.054902
0.0980392 0.0509804 0.0588235
0.133333 0.0588235 0.0745098
0.164706 0.0666667 0.0823529
0.223529 0.0784314 0.105882
0.27451 0.0980392 0.117647
0.329412 0.113725 0.137255
0.396078 0.133333 0.160784
0.470588 0.152941 0.188235
0.556863 0.176471 0.211765
0.619608 0.2 0.231373
0.658824 0.211765 0.243137
0.678431 0.219608 0.254902
0.690196 0.219608 0.254902
0.698039 0.223529 0.258824
0.698039 0.223529 0.258824
0.054902 0.0470588 0.0509804
0.0705882 0.054902 0.0588235
0.0901961 0.054902 0.0588235
0.121569 0.0666667 0.0666667
0.152941 0.0823529 0.0823529
0.2 0.0862745 0.101961
0.25098 0.0980392 0.109804
0.313725 0.121569 0.137255
0.376471 0.137255 0.156863
0.462745 0.168627 0.188235
0.537255 0.188235 0.211765
0.615686 0.207843 0.235294
0.639216 0.219608 0.243137
0.678431 0.235294 0.258824
0.686275 0.235294 0.262745
0.690196 0.231373 0.262745
0.690196 0.231373 0.262745
0.0705882 0.0666667 0.0588235
0.0823529 0.0666667 0.0627451
0.0901961 0.0745098 0.0705882
0.109804 0.0784314 0.0705882
0.145098 0.0901961 0.0862745
0.192157 0.0980392 0.0980392
0.243137 0.121569 0.113725
0.294118 0.129412 0.137255
0.380392 0.160784 0.164706
0.454902 0.180392 0.188235
0.52549 0.2 0.219608
0.603922 0.227451 0.243137
0.647059 0.235294 0.254902
0.666667 0.25098 0.266667
0.686275 0.243137 0.258824
0.694118 0.25098 0.266667
0.694118 0.25098 0.266667
0.0823529 0.0862745 0.0666667
0.0862745 0.0901961 0.0705882
0.0980392 0.0941176 0.0784314
0.113725 0.101961 0.0745098
0.137255 0.109804 0.0862745
0.168627 0.117647 0.0862745
0.223529 0.133333 0.109804
0.270588 0.14902 0.137255
0.345098 0.168627 0.156863
0.419608 0.192157 0.184314
0.509804 0.215686 0.203922
0.588235 0.235294 0.235294
0.643137 0.258824 0.262745
0.662745 0.258824 0.262745
0.678431 0.262745 0.270588
0.690196 0.266667 0.266667
0.690196 0.266667 0.266667
0.101961 0.113725 0.0784314
0.109804 0.121569 0.0862745
0.109804 0.121569 0.0862745
0.117647 0.12549 0.0823529
0.137255 0.12549 0.0901961
0.172549 0.137255 0.101961
0.203922 0.14902 0.105882
0.25098 0.152941 0.12549
0.333333 0.188235 0.156863
0.411765 0.203922 0.180392
0.490196 0.227451 0.203922
0.568627 0.25098 0.239216
0.639216 0.270588 0.262745
0.666667 0.27451 0.27451
0.670588 0.278431 0.270588
0.686275 0.278431 0.27451
0.686275 0.278431 0.27451
0.121569 0.14902 0.0862745
0.12549 0.152941 0.0901961
0.129412 0.156863 0.0941176
0.133333 0.14902 0.0901961
0.141176 0.14902 0.0980392
0.168627 0.160784 0.101961
0.203922 0.176471 0.113725
0.254902 0.184314 0.129412
0.309804 0.2 0.152941
0.403922 0.219608 0.180392
0.494118 0.243137 0.207843
0.572549 0.270588 0.247059
0.631373 0.290196 0.262745
0.662745 0.298039 0.278431
0.67451 0.301961 0.286275
0.686275 0.305882 0.282353
0.686275 0.305882 0.282353
0.152941 0.188235 0.105882
0.145098 0.172549 0.101961
0.14902 0.176471 0.105882
0.152941 0.192157 0.101961
0.168627 0.2 0.109804
0.168627 0.188235 0.109804
0.2 0.196078 0.113725
0.235294 0.203922 0.129412
0.309804 0.227451 0.160784
0.384314 0.239216 0.176471
0.478431 0.258824 0.207843
0.556863 0.282353 0.243137
0.631373 0.305882 0.27451
0.654902 0.305882 0.27451
0.682353 0.317647 0.290196
0.690196 0.32549 0.294118
0.690196 0.32549 0.294118
0.168627 0.219608 0.117647
0.172549 0.227451 0.121569
0.172549 0.223529 0.121569
0.168627 0.219608 0.113725
0.180392 0.219608 0.121569
0.203922 0.239216 0.133333
0.211765 0.231373 0.141176
0.235294 0.235294 0.133333
0.282353 0.254902 0.145098
0.368627 0.27451 0.180392
0.478431 0.294118 0.223529
0.541176 0.309804 0.239216
0.619608 0.337255 0.278431
0.658824 0.356863 0.294118
0.67451 0.352941 0.298039
0.690196 0.368627 0.313725
0.686275 0.364706 0.309804
0.203922 0.266667 0.141176
0.211765 0.270588 0.141176
0.211765 0.278431 0.129412
0.219608 0.282353 0.137255
0.215686 0.270588 0.133333
0.235294 0.298039 0.145098
0.25098 0.298039 0.14902
0.266667 0.294118 0.164706
0.298039 0.301961 0.168627
0.352941 0.309804 0.184314
0.462745 0.34902 0.231373
0.556863 0.376471 0.27451
0.627451 0.407843 0.301961
0.662745 0.403922 0.309804
0.682353 0.403922 0.317647
0.698039 0.415686 0.321569
0.694118 0.411765 0.317647
0.243137 0.313725 0.14902
0.235294 0.305882 0.14902
0.247059 0.333333 0.152941
0.254902 0.341176 0.156863
0.266667 0.352941 0.160784
0.278431 0.356863 0.164706
0.286275 0.352941 0.168627
0.301961 0.364706 0.172549
0.345098 0.380392 0.211765
0.403922 0.392157 0.231373
0.478431 0.419608 0.258824
0.568627 0.45098 0.301961
0.654902 0.478431 0.32549
0.690196 0.478431 0.329412
0.713725 0.486275 0.329412
0.72549 0.482353 0.329412
0.72549 0.482353 0.329412
0.294118 0.392157 0.176471
0.294118 0.392157 0.176471
0.298039 0.415686 0.180392
0.305882 0.419608 0.184314
0.313725 0.411765 0.184314
0.329412 0.423529 0.196078
0.333333 0.427451 0.192157
0.368627 0.447059 0.215686
0.392157 0.447059 0.239216
0.447059 0.462745 0.262745
0.501961 0.490196 0.282353
0.592157 0.52549 0.313725
0.678431 0.541176 0.329412
0.713725 0.552941 0.333333
0.741176 0.560784 0.32549
0.756863 0.564706 0.333333
0.752941 0.556863 0.32549
0.341176 0.462745 0.2
0.341176 0.462745 0.2
0.345098 0.462745 0.207843
0.356863 0.470588 0.207843
0.368627 0.494118 0.215686
0.392157 0.509804 0.227451
0.419608 0.52549 0.254902
0.431373 0.513725 0.262745
0.466667 0.54902 0.286275
0.482353 0.537255 0.298039
0.541176 0.560784 0.309804
0.607843 0.580392 0.305882
0.698039 0.611765 0.317647
0.733333 0.623529 0.333333
0.756863 0.627451 0.32549
0.776471 0.623529 0.321569
0.776471 0.623529 0.321569
0.415686 0.54902 0.258824
0.423529 0.556863 0.262745
0.415686 0.54902 0.247059
0.431373 0.564706 0.262745
0.443137 0.576471 0.27451
0.454902 0.576471 0.278431
0.47451 0.584314 0.282353
0.501961 0.607843 0.294118
0.529412 0.619608 0.305882
0.54902 0.623529 0.305882
0.607843 0.639216 0.313725
0.643137 0.654902 0.313725
0.705882 0.666667 0.317647
0.745098 0.678431 0.317647
0.780392 0.690196 0.321569
0.796078 0.698039 0.317647
0.796078 0.694118 0.313725
0.47451 0.639216 0.298039
0.490196 0.654902 0.301961
0.498039 0.658824 0.298039
0.513725 0.67451 0.298039
0.517647 0.67451 0.301961
0.537255 0.678431 0.301961
0.556863 0.694118 0.301961
0.572549 0.717647 0.301961
0.576471 0.694118 0.309804
0.596078 0.694118 0.32549
0.643137 0.705882 0.317647
0.686275 0.709804 0.317647
0.713725 0.717647 0.317647
0.760784 0.72549 0.321569
0.784314 0.733333 0.313725
0.8 0.733333 0.309804
0.8 0.733333 0.309804
0.552941 0.737255 0.305882
0.54902 0.737255 0.298039
0.560784 0.745098 0.305882
0.560784 0.745098 0.290196
0.584314 0.752941 0.301961
0.592157 0.74902 0.298039
0.6 0.74902 0.305882
0.603922 0.74902 0.301961
0.615686 0.741176 0.305882
0.631373 0.741176 0.305882
0.662745 0.737255 0.317647
0.705882 0.745098 0.305882
0.737255 0.745098 0.313725
0.760784 0.752941 0.309804
0.8 0.760784 0.309804
0.807843 0.764706 0.309804
0.803922 0.760784 0.305882
0.603922 0.796078 0.305882
0.6 0.796078 0.301961
0.603922 0.796078 0.294118
0.619608 0.792157 0.305882
0.619608 0.796078 0.298039
0.631373 0.784314 0.309804
0.643137 0.796078 0.305882
0.647059 0.776471 0.317647
0.662745 0.784314 0.313725
0.666667 0.780392 0.32549
0.705882 0.780392 0.317647
0.741176 0.784314 0.313725
0.74902 0.780392 0.305882
0.776471 0.796078 0.301961
0.803922 0.780392 0.294118
0.803922 0.780392 0.294118
0.803922 0.780392 0.298039
0.631373 0.839216 0.298039
0.639216 0.839216 0.298039
0.635294 0.835294 0.298039
0.647059 0.827451 0.301961
0.654902 0.831373 0.298039
0.654902 0.807843 0.305882
0.666667 0.823529 0.305882
0.662745 0.8 0.301961
0.666667 0.792157 0.313725
0.690196 0.784314 0.309804
0.717647 0.792157 0.305882
0.737255 0.792157 0.301961
0.752941 0.792157 0.305882
0.776471 0.796078 0.301961
0.803922 0.788235 0.298039
0.803922 0.796078 0.298039
0.803922 0.796078 0.298039
0.054902 0.0470588 0.0588235
0.0666667 0.0470588 0.0627451
0.0862745 0.0509804 0.0705882
0.113725 0.054902 0.0745098
0.14902 0.0588235 0.0823529
0.203922 0.0745098 0.101961
0.25098 0.0901961 0.113725
0.313725 0.105882 0.137255
0.388235 0.133333 0.164706
0.466667 0.152941 0.188235
0.552941 0.180392 0.211765
0.619608 0.2 0.239216
0.65098 0.215686 0.25098
0.67451 0.219608 0.254902
0.690196 0.219608 0.254902
0.698039 0.223529 0.258824
0.694118 0.219608 0.254902
0.0588235 0.0509804 0.0627451
0.0588235 0.0509804 0.0627451
0.0823529 0.0588235 0.0745098
0.101961 0.0588235 0.0745098
0.137255 0.0745098 0.0862745
0.180392 0.0823529 0.0980392
0.239216 0.0980392 0.113725
0.294118 0.117647 0.137255
0.376471 0.141176 0.168627
0.439216 0.160784 0.184314
0.521569 0.180392 0.203922
0.6 0.203922 0.235294
0.643137 0.223529 0.254902
0.67451 0.227451 0.258824
0.678431 0.227451 0.254902
0.690196 0.231373 0.262745
0.690196 0.231373 0.262745
0.0666667 0.0666667 0.0745098
0.0666667 0.0666667 0.0666667
0.0784314 0.0705882 0.0745098
0.101961 0.0784314 0.0862745
0.129412 0.0823529 0.0901961
0.172549 0.0980392 0.105882
0.211765 0.109804 0.113725
0.262745 0.12549 0.129412
0.345098 0.152941 0.164706
0.427451 0.172549 0.188235
0.509804 0.2 0.211765
0.580392 0.219608 0.231373
0.643137 0.239216 0.254902
0.666667 0.25098 0.266667
0.690196 0.247059 0.270588
0.690196 0.247059 0.262745
0.690196 0.247059 0.262745
0.0823529 0.0901961 0.0862745
0.0901961 0.0901961 0.0823529
0.0901961 0.0901961 0.0823529
0.101961 0.0980392 0.0823529
0.12549 0.113725 0.0941176
0.156863 0.113725 0.0980392
0.207843 0.133333 0.109804
0.262745 0.14902 0.133333
0.329412 0.168627 0.160784
0.423529 0.188235 0.184314
0.509804 0.211765 0.211765
0.580392 0.227451 0.235294
0.627451 0.25098 0.254902
0.662745 0.258824 0.262745
0.678431 0.262745 0.270588
0.686275 0.258824 0.270588
0.686275 0.258824 0.270588
0.0980392 0.105882 0.101961
0.101961 0.109804 0.0901961
0.117647 0.121569 0.0980392
0.117647 0.129412 0.0901961
0.12549 0.12549 0.0941176
0.152941 0.137255 0.101961
0.188235 0.14902 0.113725
0.25098 0.160784 0.137255
0.317647 0.180392 0.156863
0.403922 0.2 0.184314
0.478431 0.223529 0.207843
0.560784 0.25098 0.235294
0.635294 0.266667 0.266667
0.666667 0.27451 0.27451
0.670588 0.278431 0.270588
0.690196 0.282353 0.278431
0.690196 0.282353 0.282353
0.113725 0.156863 0.101961
0.12549 0.156863 0.105882
0.12549 0.14902 0.101961
0.137255 0.164706 0.101961
0.145098 0.156863 0.113725
0.14902 0.14902 0.101961
0.184314 0.172549 0.113725
0.223529 0.176471 0.129412
0.290196 0.196078 0.14902
0.380392 0.223529 0.184314
0.470588 0.235294 0.203922
0.54902 0.254902 0.235294
0.627451 0.282353 0.266667
0.662745 0.290196 0.27451
0.670588 0.298039 0.27451
0.682353 0.298039 0.286275
0.682353 0.298039 0.286275
0.14902 0.180392 0.12549
0.145098 0.180392 0.12549
0.152941 0.196078 0.117647
0.160784 0.196078 0.121569
0.156863 0.184314 0.121569
0.168627 0.2 0.117647
0.184314 0.196078 0.129412
0.227451 0.2 0.137255
0.286275 0.219608 0.156863
0.364706 0.231373 0.184314
0.47451 0.25098 0.207843
0.552941 0.278431 0.239216
0.619608 0.294118 0.270588
0.654902 0.305882 0.282353
0.678431 0.313725 0.294118
0.690196 0.32549 0.294118
0.690196 0.32549 0.294118
0.156863 0.207843 0.129412
0.172549 0.219608 0.12549
0.168627 0.219608 0.12549
0.172549 0.219608 0.12549
0.180392 0.219608 0.12549
0.196078 0.235294 0.137255
0.203922 0.235294 0.137255
0.223529 0.239216 0.14902
0.270588 0.247059 0.152941
0.364706 0.278431 0.196078
0.454902 0.286275 0.219608
0.545098 0.313725 0.25098
0.615686 0.333333 0.27451
0.658824 0.352941 0.301961
0.682353 0.360784 0.305882
0.686275 0.364706 0.309804
0.686275 0.364706 0.309804
0.192157 0.266667 0.145098
0.2 0.266667 0.141176
0.211765 0.27451 0.14902
0.207843 0.270588 0.14902
0.219608 0.278431 0.145098
0.235294 0.298039 0.152941
0.25098 0.294118 0.160784
0.262745 0.309804 0.164706
0.282353 0.301961 0.176471
0.356863 0.313725 0.196078
0.45098 0.345098 0.239216
0.545098 0.372549 0.266667
0.615686 0.396078 0.298039
0.670588 0.411765 0.317647
0.686275 0.419608 0.329412
0.709804 0.415686 0.333333
0.694118 0.411765 0.32549
0.239216 0.329412 0.160784
0.239216 0.329412 0.164706
0.247059 0.317647 0.168627
0.258824 0.345098 0.164706
0.266667 0.352941 0.172549
0.266667 0.352941 0.160784
0.282353 0.34902 0.176471
0.309804 0.372549 0.192157
0.337255 0.380392 0.211765
0.376471 0.384314 0.227451
0.462745 0.407843 0.254902
0.556863 0.447059 0.301961
0.643137 0.470588 0.333333
0.694118 0.490196 0.333333
0.717647 0.490196 0.333333
0.737255 0.494118 0.341176
0.737255 0.494118 0.341176
0.282353 0.392157 0.196078
0.290196 0.396078 0.188235
0.282353 0.376471 0.188235
0.294118 0.4 0.192157
0.309804 0.419608 0.188235
0.32549 0.423529 0.196078
0.345098 0.439216 0.211765
0.364706 0.439216 0.223529
0.388235 0.454902 0.243137
0.439216 0.470588 0.278431
0.509804 0.494118 0.305882
0.588235 0.52549 0.321569
0.666667 0.545098 0.333333
0.713725 0.552941 0.333333
0.745098 0.564706 0.329412
0.760784 0.568627 0.337255
0.760784 0.564706 0.333333
0.341176 0.466667 0.211765
0.345098 0.470588 0.215686
0.34902 0.470588 0.207843
0.352941 0.47451 0.211765
0.364706 0.478431 0.223529
0.380392 0.501961 0.227451
0.407843 0.509804 0.254902
0.431373 0.517647 0.266667
0.454902 0.52549 0.282353
0.490196 0.541176 0.321569
0.545098 0.560784 0.329412
0.603922 0.584314 0.32549
0.690196 0.619608 0.329412
0.729412 0.619608 0.329412
0.760784 0.619608 0.329412
0.784314 0.639216 0.333333
0.768627 0.611765 0.333333
0.415686 0.564706 0.270588
0.407843 0.556863 0.262745
0.411765 0.560784 0.262745
0.431373 0.564706 0.266667
0.431373 0.584314 0.266667
0.470588 0.603922 0.294118
0.478431 0.607843 0.290196
0.501961 0.627451 0.301961
0.517647 0.623529 0.313725
0.54902 0.643137 0.313725
0.580392 0.631373 0.317647
0.635294 0.654902 0.32549
0.698039 0.670588 0.32549
0.74902 0.690196 0.32549
0.780392 0.701961 0.329412
0.792157 0.690196 0.32549
0.792157 0.690196 0.32549
0.478431 0.643137 0.301961
0.482353 0.647059 0.305882
0.486275 0.65098 0.313725
0.494118 0.65098 0.305882
0.509804 0.662745 0.305882
0.537255 0.694118 0.313725
0.560784 0.709804 0.305882
0.560784 0.698039 0.305882
0.576471 0.701961 0.313725
0.6 0.705882 0.32549
0.631373 0.709804 0.329412
0.690196 0.721569 0.333333
0.717647 0.713725 0.321569
0.756863 0.721569 0.32549
0.788235 0.733333 0.321569
0.807843 0.733333 0.321569
0.803922 0.729412 0.317647
0.54902 0.737255 0.309804
0.54902 0.737255 0.309804
0.556863 0.737255 0.309804
0.560784 0.741176 0.313725
0.572549 0.745098 0.309804
0.584314 0.74902 0.309804
0.603922 0.760784 0.313725
0.615686 0.760784 0.309804
0.619608 0.745098 0.317647
0.627451 0.737255 0.32549
0.654902 0.737255 0.32549
0.701961 0.74902 0.317647
0.741176 0.756863 0.321569
0.768627 0.760784 0.32549
0.796078 0.756863 0.313725
0.803922 0.764706 0.313725
0.803922 0.764706 0.309804
0.596078 0.792157 0.317647
0.607843 0.803922 0.313725
0.611765 0.803922 0.313725
0.615686 0.796078 0.309804
0.615686 0.8 0.309804
0.639216 0.803922 0.317647
0.635294 0.788235 0.321569
0.65098 0.803922 0.317647
0.658824 0.792157 0.321569
0.662745 0.776471 0.321569
0.694118 0.792157 0.333333
0.729412 0.788235 0.321569
0.74902 0.784314 0.317647
0.776471 0.792157 0.309804
0.796078 0.788235 0.305882
0.807843 0.792157 0.301961
0.807843 0.788235 0.305882
0.627451 0.835294 0.313725
0.627451 0.823529 0.313725
0.639216 0.831373 0.309804
0.65098 0.839216 0.309804
0.647059 0.827451 0.309804
0.658824 0.819608 0.317647
0.662745 0.815686 0.313725
0.666667 0.811765 0.317647
0.67451 0.796078 0.32549
0.682353 0.792157 0.321569
0.705882 0.792157 0.317647
0.733333 0.796078 0.313725
0.752941 0.792157 0.313725
0.776471 0.8 0.309804
0.8 0.803922 0.305882
0.807843 0.792157 0.301961
0.803922 0.792157 0.305882
0.054902 0.0509804 0.0745098
0.0627451 0.0509804 0.0784314
0.0705882 0.0509804 0.0784314
0.0941176 0.0509804 0.0745098
0.129412 0.0627451 0.0941176
0.168627 0.0666667 0.101961
0.223529 0.0784314 0.109804
0.278431 0.101961 0.129412
0.368627 0.129412 0.160784
0.435294 0.14902 0.184314
0.52549 0.172549 0.207843
0.603922 0.196078 0.231373
0.639216 0.207843 0.25098
0.670588 0.215686 0.25098
0.682353 0.223529 0.254902
0.694118 0.219608 0.254902
0.694118 0.219608 0.254902
0.0588235 0.054902 0.0784314
0.0588235 0.054902 0.0784314
0.0627451 0.0509804 0.0784314
0.0823529 0.054902 0.0823529
0.121569 0.0705882 0.0980392
0.168627 0.0784314 0.109804
0.219608 0.0980392 0.129412
0.27451 0.113725 0.137255
0.337255 0.129412 0.160784
0.419608 0.156863 0.192157
0.517647 0.184314 0.211765
0.584314 0.203922 0.231373
0.643137 0.223529 0.254902
0.662745 0.227451 0.254902
0.682353 0.239216 0.262745
0.690196 0.231373 0.262745
0.690196 0.231373 0.262745
0.0705882 0.0745098 0.0901961
0.0705882 0.0745098 0.0901961
0.0784314 0.0745098 0.0941176
0.0823529 0.0745098 0.0941176
0.117647 0.0823529 0.101961
0.156863 0.0980392 0.109804
0.207843 0.109804 0.12549
0.258824 0.121569 0.145098
0.321569 0.145098 0.164706
0.419608 0.176471 0.196078
0.505882 0.196078 0.215686
0.576471 0.219608 0.239216
0.639216 0.235294 0.25098
0.658824 0.239216 0.262745
0.678431 0.243137 0.266667
0.698039 0.254902 0.278431
0.698039 0.254902 0.278431
0.0745098 0.0980392 0.0980392
0.0745098 0.0980392 0.0980392
0.0901961 0.0941176 0.101961
0.0941176 0.0980392 0.105882
0.109804 0.105882 0.0980392
0.145098 0.109804 0.113725
0.188235 0.133333 0.129412
0.243137 0.141176 0.145098
0.305882 0.152941 0.156863
0.396078 0.184314 0.184314
0.482353 0.215686 0.219608
0.560784 0.231373 0.231373
0.623529 0.247059 0.254902
0.662745 0.258824 0.270588
0.67451 0.258824 0.266667
0.682353 0.266667 0.27451
0.682353 0.266667 0.27451
0.0823529 0.121569 0.0901961
0.0901961 0.113725 0.101961
0.0862745 0.12549 0.0901961
0.105882 0.121569 0.117647
0.121569 0.129412 0.109804
0.133333 0.129412 0.109804
0.180392 0.145098 0.12549
0.235294 0.160784 0.137255
0.298039 0.176471 0.164706
0.384314 0.196078 0.188235
0.482353 0.227451 0.219608
0.564706 0.247059 0.243137
0.623529 0.266667 0.262745
0.662745 0.270588 0.270588
0.67451 0.282353 0.282353
0.686275 0.278431 0.282353
0.686275 0.278431 0.282353
0.0941176 0.145098 0.109804
0.0980392 0.14902 0.113725
0.113725 0.160784 0.105882
0.133333 0.164706 0.117647
0.129412 0.160784 0.117647
0.152941 0.160784 0.117647
0.168627 0.168627 0.121569
0.223529 0.184314 0.14902
0.27451 0.196078 0.160784
0.368627 0.219608 0.184314
0.470588 0.239216 0.223529
0.541176 0.262745 0.239216
0.615686 0.282353 0.262745
0.658824 0.294118 0.27451
0.670588 0.298039 0.282353
0.690196 0.298039 0.290196
0.686275 0.294118 0.286275
0.101961 0.196078 0.101961
0.113725 0.188235 0.113725
0.109804 0.188235 0.113725
0.12549 0.192157 0.121569
0.160784 0.192157 0.137255
0.168627 0.196078 0.133333
0.180392 0.196078 0.137255
0.219608 0.196078 0.141176
0.262745 0.215686 0.160784
0.345098 0.227451 0.184314
0.443137 0.254902 0.215686
0.537255 0.27451 0.243137
0.603922 0.286275 0.270588
0.654902 0.305882 0.282353
0.67451 0.321569 0.290196
0.690196 0.32549 0.298039
0.690196 0.32549 0.298039
0.137255 0.215686 0.117647
0.141176 0.219608 0.121569
0.121569 0.215686 0.121569
0.129412 0.223529 0.129412
0.164706 0.219608 0.152941
0.188235 0.223529 0.141176
0.2 0.231373 0.145098
0.219608 0.231373 0.156863
0.262745 0.254902 0.172549
0.352941 0.262745 0.192157
0.435294 0.282353 0.215686
0.537255 0.309804 0.254902
0.615686 0.333333 0.286275
0.654902 0.34902 0.298039
0.678431 0.34902 0.305882
0.690196 0.364706 0.309804
0.690196 0.34902 0.309804
0.156863 0.270588 0.14902
0.156863 0.270588 0.14902
0.188235 0.262745 0.164706
0.176471 0.278431 0.160784
0.207843 0.270588 0.168627
0.227451 0.278431 0.164706
0.247059 0.301961 0.164706
0.25098 0.294118 0.168627
0.270588 0.294118 0.192157
0.329412 0.309804 0.192157
0.443137 0.333333 0.239216
0.537255 0.356863 0.266667
0.619608 0.4 0.309804
0.666667 0.411765 0.333333
0.686275 0.419608 0.337255
0.701961 0.419608 0.333333
0.701961 0.419608 0.333333
0.231373 0.333333 0.188235
0.231373 0.333333 0.196078
0.227451 0.321569 0.196078
0.239216 0.329412 0.192157
0.243137 0.341176 0.184314
0.270588 0.341176 0.184314
0.286275 0.356863 0.192157
0.301961 0.368627 0.196078
0.333333 0.396078 0.219608
0.372549 0.388235 0.243137
0.447059 0.407843 0.266667
0.541176 0.447059 0.305882
0.631373 0.47451 0.333333
0.682353 0.47451 0.341176
0.721569 0.494118 0.345098
0.733333 0.490196 0.345098
0.729412 0.486275 0.341176
0.278431 0.4 0.215686
0.278431 0.392157 0.211765
0.278431 0.392157 0.211765
0.282353 0.396078 0.203922
0.317647 0.411765 0.219608
0.32549 0.431373 0.215686
0.333333 0.423529 0.219608
0.360784 0.431373 0.235294
0.403922 0.470588 0.258824
0.427451 0.47451 0.282353
0.482353 0.494118 0.309804
0.564706 0.509804 0.333333
0.658824 0.541176 0.337255
0.709804 0.556863 0.341176
0.74902 0.564706 0.345098
0.760784 0.568627 0.341176
0.760784 0.568627 0.341176
0.329412 0.466667 0.239216
0.329412 0.470588 0.231373
0.329412 0.470588 0.231373
0.341176 0.466667 0.223529
0.360784 0.47451 0.243137
0.380392 0.501961 0.239216
0.403922 0.517647 0.258824
0.427451 0.529412 0.27451
0.462745 0.541176 0.294118
0.482353 0.541176 0.32549
0.541176 0.560784 0.333333
0.615686 0.596078 0.345098
0.686275 0.607843 0.337255
0.733333 0.619608 0.345098
0.776471 0.635294 0.345098
0.780392 0.631373 0.337255
0.780392 0.631373 0.337255
0.392157 0.552941 0.278431
0.403922 0.556863 0.286275
0.415686 0.564706 0.278431
0.415686 0.564706 0.278431
0.439216 0.568627 0.298039
0.454902 0.580392 0.301961
0.47451 0.592157 0.301961
0.498039 0.619608 0.313725
0.52549 0.631373 0.333333
0.552941 0.643137 0.329412
0.580392 0.635294 0.333333
0.643137 0.662745 0.34902
0.701961 0.678431 0.34902
0.752941 0.701961 0.337255
0.776471 0.694118 0.337255
0.8 0.698039 0.333333
0.796078 0.698039 0.333333
0.482353 0.658824 0.32549
0.494118 0.666667 0.321569
0.486275 0.65098 0.32549
0.494118 0.647059 0.321569
0.498039 0.662745 0.32549
0.533333 0.694118 0.317647
0.552941 0.709804 0.329412
0.560784 0.701961 0.321569
0.584314 0.721569 0.329412
0.6 0.705882 0.337255
0.623529 0.717647 0.34902
0.658824 0.713725 0.341176
0.717647 0.72549 0.345098
0.760784 0.729412 0.341176
0.792157 0.741176 0.333333
0.811765 0.737255 0.333333
0.807843 0.733333 0.333333
0.54902 0.745098 0.329412
0.552941 0.745098 0.333333
0.552941 0.737255 0.329412
0.560784 0.737255 0.333333
0.556863 0.733333 0.329412
0.584314 0.752941 0.329412
0.603922 0.756863 0.329412
0.611765 0.760784 0.32549
0.623529 0.752941 0.329412
0.635294 0.760784 0.337255
0.658824 0.741176 0.345098
0.705882 0.756863 0.341176
0.737255 0.760784 0.337255
0.768627 0.756863 0.337255
0.8 0.768627 0.333333
0.811765 0.764706 0.32549
0.811765 0.764706 0.32549
0.596078 0.811765 0.32549
0.6 0.8 0.333333
0.607843 0.8 0.333333
0.615686 0.803922 0.333333
0.619608 0.811765 0.333333
0.627451 0.8 0.32549
0.643137 0.803922 0.32549
0.658824 0.807843 0.337255
0.662745 0.8 0.329412
0.670588 0.780392 0.345098
0.678431 0.784314 0.341176
0.72549 0.792157 0.341176
0.756863 0.792157 0.341176
0.776471 0.796078 0.32549
0.811765 0.792157 0.329412
0.815686 0.796078 0.32549
0.815686 0.796078 0.32549
0.623529 0.819608 0.329412
0.631373 0.831373 0.32549
0.643137 0.843137 0.32549
0.643137 0.843137 0.333333
0.654902 0.839216 0.329412
0.654902 0.819608 0.333333
0.670588 0.831373 0.329412
0.678431 0.819608 0.333333
0.682353 0.811765 0.337255
0.682353 0.796078 0.345098
0.705882 0.796078 0.341176
0.729412 0.8 0.333333
0.764706 0.803922 0.329412
0.780392 0.803922 0.32549
0.807843 0.796078 0.32549
0.807843 0.796078 0.32549
0.807843 0.796078 0.32549
0.0705882 0.0627451 0.113725
0.0666667 0.0588235 0.109804
0.0745098 0.0588235 0.117647
0.0862745 0.054902 0.0980392
0.109804 0.0627451 0.109804
0.14902 0.0705882 0.117647
0.211765 0.0862745 0.137255
0.266667 0.101961 0.141176
0.329412 0.121569 0.160784
0.419608 0.145098 0.184314
0.509804 0.172549 0.215686
0.588235 0.196078 0.235294
0.639216 0.207843 0.25098
0.666667 0.211765 0.254902
0.682353 0.223529 0.258824
0.694118 0.223529 0.258824
0.694118 0.223529 0.258824
0.0745098 0.0705882 0.12549
0.0784314 0.0705882 0.113725
0.0745098 0.0588235 0.113725
0.0823529 0.0705882 0.113725
0.101961 0.0705882 0.113725
0.145098 0.0823529 0.121569
0.192157 0.0901961 0.133333
0.239216 0.0980392 0.137255
