assets/luts/cinematic/RR NT Boost&Punch.cube
#Generated by Picture Instruments - Unlimited Filters
TITLE "RR NT Boost&Punch"
LUT_3D_SIZE 9
0 0 0
0.0705882 0 0
0.188235 0 0
0.333333 0.00392157 0.00392157
0.501961 0 0
0.666667 0 0.00392157
0.8 0 0.00392157
0.909804 0 0
0.992157 0 0
0 0.0392157 0.00392157
0.0705882 0.0470588 0
0.192157 0.0627451 0
0.337255 0.0666667 0.00392157
0.509804 0.0823529 0
0.666667 0.0823529 0
0.796078 0.0823529 0
0.909804 0.0784314 0
0.996078 0.0784314 0
0.00392157 0.145098 0.00392157
0.0745098 0.156863 0.00392157
0.184314 0.164706 0
0.329412 0.180392 0.00392157
0.505882 0.192157 0
0.662745 0.192157 0
0.803922 0.192157 0
0.905882 0.192157 0.00392157
0.996078 0.188235 0
0 0.286275 0
0.0784314 0.298039 0.00392157
0.192157 0.313725 0
0.333333 0.32549 0
0.517647 0.337255 0
0.666667 0.337255 0
0.807843 0.337255 0
0.905882 0.333333 0
0.996078 0.341176 0
0 0.454902 0.00392157
0.0823529 0.478431 0
0.188235 0.478431 0.00392157
0.337255 0.498039 0
0.494118 0.505882 0
0.662745 0.501961 0
0.796078 0.501961 0
0.905882 0.501961 0
0.996078 0.498039 0
0 0.623529 0
0.0823529 0.631373 0
0.188235 0.639216 0
0.337255 0.654902 0
0.501961 0.654902 0
0.654902 0.662745 0
0.796078 0.662745 0.00392157
0.905882 0.662745 0
0.996078 0.65098 0
0.00392157 0.772549 0.00392157
0.0823529 0.772549 0
0.192157 0.792157 0
0.337255 0.784314 0
0.501961 0.792157 0.00392157
0.666667 0.796078 0
0.796078 0.803922 0
0.909804 0.8 0
0.996078 0.792157 0
0 0.898039 0
0.0862745 0.898039 0.00392157
0.192157 0.901961 0.00392157
0.329412 0.901961 0.00392157
0.498039 0.901961 0
0.658824 0.905882 0
0.8 0.909804 0
0.905882 0.913725 0
0.996078 0.901961 0.00392157
0 0.996078 0
0.0784314 0.996078 0
0.192157 0.996078 0
0.333333 0.996078 0
0.501961 0.996078 0
0.662745 0.992157 0.00392157
0.796078 0.996078 0
0.905882 0.996078 0
0.992157 0.992157 0
0 0 0.0313725
0.0666667 0 0.0431373
0.188235 0 0.054902
0.329412 0 0.0705882
0.505882 0 0.0784314
0.662745 0 0.0823529
0.796078 0 0.0862745
0.909804 0.00392157 0.0823529
0.996078 0 0.0862745
0.00392157 0.0509804 0.0352941
0.0705882 0.0509804 0.0392157
0.192157 0.0588235 0.054902
0.341176 0.0666667 0.0666667
0.517647 0.0784314 0.0745098
0.678431 0.0745098 0.0745098
0.811765 0.0745098 0.0784314
0.92549 0.0705882 0.0666667
0.996078 0.0784314 0.0823529
0 0.14902 0.0352941
0.0745098 0.152941 0.0431373
0.188235 0.168627 0.054902
0.34902 0.176471 0.0705882
0.517647 0.188235 0.0784314
0.678431 0.188235 0.0784314
0.811765 0.188235 0.0745098
0.917647 0.180392 0.0666667
0.996078 0.192157 0.0784314
0 0.298039 0.0431373
0.0705882 0.309804 0.0392157
0.188235 0.313725 0.0509804
0.341176 0.329412 0.0666667
0.513725 0.345098 0.0784314
0.678431 0.337255 0.0745098
0.811765 0.333333 0.0784314
0.92549 0.329412 0.0666667
0.996078 0.333333 0.0784314
0 0.466667 0.0431373
0.0784314 0.478431 0.0470588
0.188235 0.486275 0.0588235
0.352941 0.509804 0.0627451
0.513725 0.513725 0.0823529
0.67451 0.501961 0.0745098
0.807843 0.501961 0.0745098
0.921569 0.498039 0.0745098
0.996078 0.501961 0.0862745
0.00392157 0.635294 0.027451
0.0745098 0.643137 0.0352941
0.188235 0.658824 0.0431373
0.329412 0.654902 0.0509804
0.505882 0.666667 0.0627451
0.662745 0.67451 0.0745098
0.807843 0.666667 0.0784314
0.917647 0.670588 0.0705882
0.996078 0.654902 0.0784314
0.00392157 0.776471 0.0196078
0.0745098 0.788235 0.0196078
0.184314 0.796078 0.0313725
0.329412 0.8 0.0392157
0.501961 0.803922 0.0588235
0.670588 0.807843 0.0627451
0.807843 0.807843 0.0784314
0.917647 0.807843 0.0705882
0.996078 0.796078 0.0784314
0 0.898039 0.0156863
0.0823529 0.909804 0.0117647
0.184314 0.909804 0.0235294
0.337255 0.913725 0.027451
0.501961 0.913725 0.0352941
0.67451 0.917647 0.0509804
0.803922 0.921569 0.0588235
0.913725 0.917647 0.0705882
0.996078 0.905882 0.0784314
0 0.992157 0
0.0784314 0.992157 0.0117647
0.192157 0.996078 0.0196078
0.333333 0.992157 0.027451
0.505882 0.996078 0.0392157
0.662745 0.996078 0.0509804
0.803922 0.996078 0.0588235
0.905882 0.996078 0.0745098
0.996078 0.992157 0.0823529
0 0 0.117647
0.0627451 0 0.141176
0.184314 0.00392157 0.156863
0.337255 0 0.176471
0.513725 0 0.196078
0.666667 0 0.192157
0.8 0 0.192157
0.909804 0 0.188235
0.992157 0 0.188235
0 0.0509804 0.113725
0.0627451 0.0470588 0.137255
0.176471 0.0588235 0.160784
0.337255 0.0666667 0.176471
0.509804 0.0784314 0.184314
0.67451 0.0784314 0.176471
0.811765 0.0784314 0.192157
0.913725 0.0745098 0.184314
0.996078 0.0784314 0.184314
0 0.164706 0.109804
0.0627451 0.164706 0.129412
0.184314 0.160784 0.160784
0.333333 0.176471 0.176471
0.509804 0.192157 0.188235
0.67451 0.188235 0.188235
0.807843 0.180392 0.180392
0.917647 0.180392 0.176471
0.992157 0.184314 0.192157
0.00392157 0.317647 0.109804
0.0666667 0.313725 0.137255
0.188235 0.313725 0.152941
0.333333 0.317647 0.172549
0.513725 0.333333 0.192157
0.678431 0.333333 0.184314
0.807843 0.329412 0.176471
0.92549 0.329412 0.184314
0.996078 0.329412 0.188235
0.00392157 0.478431 0.113725
0.0705882 0.486275 0.133333
0.188235 0.494118 0.156863
0.333333 0.498039 0.160784
0.513725 0.509804 0.188235
0.670588 0.509804 0.188235
0.803922 0.498039 0.176471
0.917647 0.498039 0.184314
0.996078 0.498039 0.196078
0.00392157 0.639216 0.101961
0.0627451 0.654902 0.117647
0.184314 0.65098 0.141176
0.337255 0.658824 0.156863
0.513725 0.666667 0.168627
0.67451 0.67451 0.188235
0.803922 0.662745 0.184314
0.917647 0.658824 0.176471
0.996078 0.662745 0.196078
0 0.780392 0.0862745
0.0627451 0.796078 0.101961
0.176471 0.792157 0.129412
0.333333 0.8 0.141176
0.498039 0.8 0.14902
0.662745 0.807843 0.160784
0.8 0.807843 0.176471
0.913725 0.803922 0.180392
0.996078 0.796078 0.188235
0 0.901961 0.0784314
0.0627451 0.909804 0.0941176
0.180392 0.905882 0.113725
0.329412 0.909804 0.12549
0.501961 0.909804 0.133333
0.666667 0.913725 0.156863
0.807843 0.913725 0.164706
0.913725 0.917647 0.176471
0.996078 0.901961 0.188235
0.00392157 0.996078 0.0745098
0.0666667 0.996078 0.0901961
0.188235 0.996078 0.113725
0.333333 0.996078 0.121569
0.498039 0.996078 0.133333
0.658824 0.996078 0.14902
0.8 0.996078 0.152941
0.905882 0.996078 0.180392
0.996078 0.992157 0.192157
0 0 0.25098
0.0509804 0 0.27451
0.160784 0 0.298039
0.333333 0 0.32549
0.501961 0 0.32549
0.662745 0 0.341176
0.796078 0 0.329412
0.909804 0 0.337255
0.996078 0 0.337255
0 0.054902 0.247059
0.0509804 0.054902 0.278431
0.152941 0.054902 0.309804
0.341176 0.0627451 0.329412
0.513725 0.0784314 0.337255
0.682353 0.0745098 0.333333
0.803922 0.0705882 0.337255
0.921569 0.0705882 0.337255
0.996078 0.0745098 0.333333
0.00392157 0.172549 0.239216
0.0470588 0.164706 0.266667
0.152941 0.172549 0.298039
0.329412 0.172549 0.317647
0.509804 0.188235 0.337255
0.662745 0.184314 0.329412
0.811765 0.184314 0.32549
0.913725 0.184314 0.337255
0.996078 0.188235 0.341176
0.00392157 0.32549 0.235294
0.0509804 0.329412 0.266667
0.156863 0.32549 0.286275
0.333333 0.32549 0.329412
0.498039 0.333333 0.337255
0.666667 0.329412 0.333333
0.811765 0.329412 0.337255
0.913725 0.32549 0.321569
0.996078 0.333333 0.337255
0 0.486275 0.239216
0.054902 0.501961 0.266667
0.152941 0.494118 0.294118
0.341176 0.494118 0.317647
0.505882 0.498039 0.337255
0.670588 0.501961 0.337255
0.807843 0.498039 0.329412
0.917647 0.490196 0.321569
0.996078 0.498039 0.337255
0 0.65098 0.219608
0.0509804 0.662745 0.243137
0.152941 0.654902 0.27451
0.329412 0.662745 0.305882
0.501961 0.658824 0.309804
0.666667 0.662745 0.337255
0.807843 0.666667 0.329412
0.913725 0.658824 0.329412
0.996078 0.658824 0.333333
0 0.792157 0.211765
0.0470588 0.8 0.223529
0.14902 0.796078 0.254902
0.32549 0.796078 0.27451
0.498039 0.8 0.298039
0.666667 0.807843 0.313725
0.807843 0.807843 0.329412
0.917647 0.8 0.329412
0.996078 0.796078 0.333333
0.00392157 0.901961 0.2
0.0431373 0.913725 0.203922
0.145098 0.913725 0.239216
0.317647 0.909804 0.270588
0.494118 0.909804 0.27451
0.654902 0.909804 0.298039
0.8 0.917647 0.305882
0.901961 0.913725 0.321569
0.996078 0.905882 0.345098
0 0.996078 0.192157
0.0588235 0.996078 0.203922
0.156863 0.996078 0.239216
0.329412 0.996078 0.258824
0.494118 0.996078 0.270588
0.662745 0.996078 0.294118
0.792157 0.996078 0.305882
0.905882 0.992157 0.329412
0.992157 0.996078 0.341176
0.00784314 0 0.419608
0.0509804 0 0.447059
0.137255 0 0.462745
0.298039 0 0.486275
0.509804 0 0.494118
0.662745 0 0.498039
0.803922 0 0.498039
0.913725 0 0.498039
0.996078 0 0.501961
0 0.0509804 0.411765
0.0431373 0.0509804 0.454902
0.129412 0.0588235 0.482353
0.298039 0.0666667 0.498039
0.509804 0.0784314 0.521569
0.67451 0.0745098 0.498039
0.807843 0.0705882 0.501961
0.917647 0.0705882 0.498039
0.992157 0.0784314 0.498039
0.00392157 0.164706 0.407843
0.0470588 0.164706 0.447059
0.12549 0.160784 0.470588
0.301961 0.180392 0.494118
0.509804 0.184314 0.505882
0.678431 0.184314 0.501961
0.803922 0.180392 0.501961
0.917647 0.184314 0.501961
0.996078 0.184314 0.498039
0.00392157 0.32549 0.407843
0.0431373 0.333333 0.447059
0.121569 0.329412 0.454902
0.294118 0.329412 0.482353
0.501961 0.333333 0.501961
0.670588 0.337255 0.501961
0.803922 0.329412 0.498039
0.913725 0.329412 0.486275
0.996078 0.333333 0.501961
0 0.501961 0.403922
0.0470588 0.513725 0.427451
0.129412 0.505882 0.45098
0.305882 0.498039 0.47451
0.501961 0.501961 0.501961
0.662745 0.498039 0.501961
0.803922 0.498039 0.498039
0.909804 0.494118 0.501961
0.992157 0.498039 0.509804
0.00392157 0.658824 0.388235
0.0470588 0.658824 0.419608
0.133333 0.662745 0.435294
0.301961 0.65098 0.462745
0.505882 0.658824 0.486275
0.666667 0.658824 0.498039
0.807843 0.662745 0.498039
0.913725 0.658824 0.494118
0.992157 0.658824 0.501961
0 0.792157 0.368627
0.0392157 0.803922 0.396078
0.117647 0.807843 0.423529
0.298039 0.803922 0.45098
0.494118 0.8 0.470588
0.662745 0.8 0.470588
0.8 0.803922 0.498039
0.909804 0.803922 0.494118
0.996078 0.8 0.498039
0 0.905882 0.364706
0.0431373 0.913725 0.384314
0.121569 0.909804 0.4
0.290196 0.909804 0.435294
0.494118 0.905882 0.443137
0.658824 0.909804 0.462745
0.807843 0.917647 0.482353
0.917647 0.913725 0.498039
0.996078 0.901961 0.498039
0 0.992157 0.345098
0.0470588 0.996078 0.368627
0.129412 0.996078 0.392157
0.305882 0.996078 0.419608
0.505882 0.996078 0.454902
0.658824 0.996078 0.466667
0.8 0.996078 0.47451
0.909804 0.992157 0.494118
0.996078 0.996078 0.505882
0 0 0.596078
0.0392157 0.00392157 0.611765
0.105882 0 0.615686
0.258824 0 0.635294
0.478431 0.00392157 0.658824
0.666667 0 0.662745
0.796078 0 0.662745
0.905882 0 0.658824
0.996078 0 0.662745
0 0.0431373 0.576471
0.0392157 0.0392157 0.619608
0.101961 0.0431373 0.635294
0.266667 0.054902 0.643137
0.470588 0.0588235 0.662745
0.678431 0.0745098 0.662745
0.811765 0.0705882 0.666667
0.921569 0.0705882 0.662745
0.996078 0.0784314 0.658824
0 0.152941 0.596078
0.0313725 0.145098 0.603922
0.101961 0.145098 0.631373
0.258824 0.164706 0.65098
0.470588 0.172549 0.658824
0.666667 0.184314 0.67451
0.807843 0.180392 0.658824
0.917647 0.180392 0.662745
0.992157 0.188235 0.658824
0 0.309804 0.580392
0.0313725 0.313725 0.611765
0.105882 0.313725 0.627451
0.25098 0.309804 0.643137
0.466667 0.317647 0.658824
0.670588 0.32549 0.662745
0.807843 0.329412 0.662745
0.921569 0.32549 0.658824
0.996078 0.333333 0.658824
0 0.490196 0.576471
0.0313725 0.501961 0.607843
0.0980392 0.501961 0.631373
0.258824 0.494118 0.635294
0.466667 0.498039 0.65098
0.658824 0.498039 0.662745
0.803922 0.501961 0.666667
0.913725 0.494118 0.658824
0.996078 0.498039 0.666667
0.00392157 0.662745 0.572549
0.0313725 0.682353 0.603922
0.101961 0.678431 0.615686
0.270588 0.666667 0.635294
0.470588 0.662745 0.639216
0.666667 0.682353 0.678431
0.803922 0.682353 0.67451
0.909804 0.682353 0.67451
0.996078 0.678431 0.67451
0 0.796078 0.54902
0.0352941 0.807843 0.596078
0.105882 0.803922 0.615686
0.270588 0.803922 0.623529
0.462745 0.796078 0.635294
0.666667 0.807843 0.666667
0.803922 0.807843 0.67451
0.909804 0.807843 0.678431
0.996078 0.807843 0.67451
0.00392157 0.905882 0.560784
0.027451 0.917647 0.564706
0.101961 0.913725 0.592157
0.258824 0.913725 0.607843
0.462745 0.909804 0.627451
0.662745 0.917647 0.658824
0.796078 0.917647 0.654902
0.909804 0.917647 0.670588
0.996078 0.913725 0.67451
0 0.996078 0.545098
0.0392157 0.996078 0.556863
0.105882 0.996078 0.580392
0.270588 0.996078 0.6
0.470588 0.996078 0.619608
0.666667 0.996078 0.65098
0.8 0.996078 0.654902
0.905882 0.992157 0.670588
0.992157 0.992157 0.67451
0 0 0.752941
0.0313725 0 0.772549
0.0784314 0 0.768627
0.223529 0 0.788235
0.423529 0 0.780392
0.639216 0 0.796078
0.792157 0.00392157 0.8
0.905882 0 0.8
0.996078 0 0.8
0 0.0352941 0.752941
0.0235294 0.0235294 0.776471
0.0745098 0.0313725 0.784314
0.227451 0.0431373 0.788235
0.435294 0.0588235 0.796078
0.654902 0.0705882 0.8
0.803922 0.0745098 0.807843
0.917647 0.0705882 0.811765
0.996078 0.0784314 0.8
0 0.141176 0.760784
0.0235294 0.141176 0.768627
0.0823529 0.141176 0.780392
0.215686 0.145098 0.788235
0.439216 0.156863 0.792157
0.639216 0.164706 0.803922
0.807843 0.180392 0.8
0.921569 0.176471 0.803922
0.992157 0.188235 0.8
0.00392157 0.309804 0.745098
0.0196078 0.294118 0.772549
0.0784314 0.298039 0.772549
0.215686 0.294118 0.784314
0.431373 0.305882 0.796078
0.635294 0.313725 0.8
0.807843 0.32549 0.811765
0.913725 0.329412 0.8
0.996078 0.333333 0.803922
0 0.482353 0.74902
0.0196078 0.482353 0.764706
0.0784314 0.482353 0.776471
0.235294 0.482353 0.784314
0.423529 0.470588 0.792157
0.635294 0.482353 0.8
0.803922 0.486275 0.796078
0.913725 0.494118 0.8
0.996078 0.494118 0.8
0 0.65098 0.745098
0.0156863 0.666667 0.768627
0.0784314 0.662745 0.780392
0.235294 0.662745 0.784314
0.435294 0.658824 0.776471
0.643137 0.678431 0.8
0.8 0.686275 0.807843
0.909804 0.686275 0.811765
0.996078 0.682353 0.807843
0 0.803922 0.745098
0.0235294 0.807843 0.764706
0.0784314 0.803922 0.772549
0.239216 0.811765 0.772549
0.443137 0.803922 0.784314
0.643137 0.807843 0.8
0.803922 0.823529 0.807843
0.913725 0.819608 0.811765
0.996078 0.819608 0.807843
0 0.905882 0.733333
0.027451 0.917647 0.74902
0.0823529 0.913725 0.764706
0.231373 0.913725 0.776471
0.443137 0.913725 0.776471
0.639216 0.909804 0.788235
0.803922 0.917647 0.807843
0.913725 0.913725 0.811765
0.996078 0.913725 0.815686
0 0.996078 0.733333
0.0313725 0.996078 0.745098
0.0862745 0.996078 0.756863
0.243137 0.996078 0.756863
0.45098 0.996078 0.772549
0.643137 0.996078 0.788235
0.807843 0.996078 0.807843
0.913725 0.996078 0.811765
0.996078 0.996078 0.811765
0.00392157 0 0.886275
0.0235294 0.00392157 0.894118
0.0666667 0 0.894118
0.192157 0 0.898039
0.403922 0 0.898039
0.615686 0 0.905882
0.784314 0 0.905882
0.909804 0.00392157 0.905882
0.996078 0 0.905882
0 0.0235294 0.886275
0.0117647 0.0196078 0.901961
0.054902 0.027451 0.913725
0.180392 0.0313725 0.905882
0.403922 0.0431373 0.917647
0.615686 0.0509804 0.909804
0.8 0.0627451 0.921569
0.913725 0.0705882 0.921569
0.996078 0.0784314 0.909804
0.00392157 0.133333 0.882353
0.0117647 0.12549 0.901961
0.0509804 0.117647 0.905882
0.180392 0.133333 0.909804
0.392157 0.145098 0.901961
0.615686 0.156863 0.909804
0.796078 0.172549 0.913725
0.921569 0.180392 0.917647
0.996078 0.184314 0.909804
0 0.290196 0.882353
0.0117647 0.278431 0.909804
0.0509804 0.286275 0.905882
0.188235 0.27451 0.905882
0.396078 0.278431 0.905882
0.615686 0.298039 0.905882
0.788235 0.305882 0.905882
0.921569 0.321569 0.909804
0.996078 0.333333 0.905882
0 0.470588 0.890196
0.0117647 0.466667 0.894118
0.054902 0.470588 0.909804
0.184314 0.466667 0.901961
0.396078 0.466667 0.905882
0.615686 0.470588 0.913725
0.788235 0.482353 0.909804
0.909804 0.494118 0.917647
0.996078 0.498039 0.909804
0 0.65098 0.894118
0.0117647 0.65098 0.905882
0.054902 0.65098 0.898039
0.188235 0.65098 0.901961
0.411765 0.643137 0.909804
0.619608 0.662745 0.905882
0.792157 0.67451 0.917647
0.909804 0.67451 0.909804
0.992157 0.682353 0.909804
0.00392157 0.796078 0.87451
0.0117647 0.803922 0.898039
0.054902 0.803922 0.905882
0.2 0.803922 0.905882
0.407843 0.807843 0.905882
0.611765 0.807843 0.905882
0.792157 0.815686 0.909804
0.905882 0.819608 0.909804
0.996078 0.823529 0.913725
0 0.905882 0.87451
0.0156863 0.921569 0.890196
0.054902 0.921569 0.894118
0.2 0.917647 0.901961
0.419608 0.913725 0.898039
0.619608 0.917647 0.901961
0.792157 0.917647 0.905882
0.913725 0.921569 0.917647
0.996078 0.913725 0.917647
0 0.996078 0.878431
0.0196078 0.996078 0.882353
0.0627451 0.996078 0.890196
0.215686 0.996078 0.886275
0.415686 0.996078 0.898039
0.627451 0.996078 0.905882
0.796078 0.996078 0.905882
0.909804 0.996078 0.913725
0.996078 0.996078 0.917647
0 0 0.992157
0.0117647 0 0.996078
0.0392157 0 0.996078
0.164706 0 0.996078
0.364706 0 0.996078
0.592157 0 0.996078
0.776471 0 0.996078
0.901961 0 0.996078
0.996078 0 0.992157
0 0.0117647 0.992157
0.00784314 0.0117647 0.996078
0.0392157 0.0196078 0.996078
0.172549 0.0313725 0.996078
0.372549 0.0392157 0.996078
0.592157 0.0470588 0.996078
0.780392 0.0627451 0.996078
0.901961 0.0666667 0.996078
0.992157 0.0745098 0.996078
0 0.121569 0.992157
0.00784314 0.117647 0.996078
0.0431373 0.117647 0.996078
0.160784 0.12549 0.996078
0.376471 0.141176 0.996078
0.6 0.152941 0.996078
0.780392 0.164706 0.996078
0.909804 0.176471 0.992157
0.996078 0.188235 0.992157
0 0.278431 0.996078
0.00392157 0.27451 0.996078
0.0392157 0.27451 0.996078
0.160784 0.270588 0.996078
0.372549 0.286275 0.996078
0.596078 0.298039 0.996078
0.772549 0.305882 0.996078
0.901961 0.32549 0.996078
0.996078 0.333333 0.996078
0 0.462745 0.992157
0.00392157 0.462745 0.996078
0.0392157 0.458824 0.996078
0.172549 0.454902 0.996078
0.372549 0.458824 0.996078
0.596078 0.466667 0.996078
0.780392 0.478431 0.996078
0.905882 0.486275 0.996078
0.996078 0.505882 0.992157
0 0.635294 0.996078
0.00784314 0.643137 0.996078
0.0392157 0.639216 0.996078
0.176471 0.647059 0.996078
0.372549 0.639216 0.996078
0.6 0.658824 0.996078
0.776471 0.666667 0.996078
0.905882 0.678431 0.996078
0.996078 0.682353 0.996078
0 0.788235 0.996078
0.00784314 0.784314 0.996078
0.0431373 0.784314 0.996078
0.184314 0.792157 0.996078
0.380392 0.792157 0.996078
0.603922 0.803922 0.992157
0.784314 0.815686 0.996078
0.901961 0.815686 0.996078
0.988235 0.819608 0.996078
0 0.905882 0.996078
0.00784314 0.898039 0.992157
0.0470588 0.901961 0.996078
0.188235 0.898039 0.996078
0.396078 0.901961 0.996078
0.607843 0.905882 0.996078
0.788235 0.917647 0.996078
0.901961 0.917647 0.996078
0.992157 0.917647 0.996078
0 0.992157 0.992157
0.00784314 0.992157 0.996078
0.0431373 0.992157 0.996078
0.196078 0.992157 0.996078
0.4 0.996078 0.992157
0.619608 0.996078 0.992157
0.784314 0.992157 0.996078
0.905882 0.992157 0.992157
0.992157 0.996078 0.992157
