assets/luts/cinematic/RR NT Boost.cube
#Generated by Picture Instruments - Unlimited Filters
TITLE "RR NT Boost"
LUT_3D_SIZE 9
0 0 0
0.109804 0 0
0.243137 0 0.00392157
0.372549 0.00392157 0.00784314
0.501961 0 0
0.627451 0 0
0.752941 0 0
0.878431 0 0
0.992157 0 0
0 0.0627451 0
0.109804 0.0784314 0.00392157
0.25098 0.0941176 0
0.372549 0.109804 0.00392157
0.505882 0.12549 0
0.631373 0.12549 0
0.752941 0.12549 0
0.886275 0.121569 0.00392157
0.996078 0.121569 0
0 0.207843 0.00392157
0.113725 0.211765 0
0.243137 0.223529 0.00392157
0.368627 0.235294 0
0.501961 0.25098 0
0.623529 0.25098 0
0.752941 0.25098 0
0.878431 0.254902 0
0.996078 0.25098 0.00392157
0 0.333333 0
0.12549 0.345098 0.00392157
0.254902 0.356863 0
0.376471 0.364706 0
0.509804 0.376471 0
0.627451 0.376471 0
0.760784 0.372549 0.00392157
0.878431 0.372549 0.00392157
0.996078 0.376471 0
0 0.466667 0.00392157
0.129412 0.482353 0
0.247059 0.482353 0.00392157
0.376471 0.498039 0
0.494118 0.505882 0
0.623529 0.501961 0.00392157
0.752941 0.505882 0
0.870588 0.498039 0
0.996078 0.498039 0
0 0.596078 0
0.12549 0.6 0
0.25098 0.607843 0
0.380392 0.619608 0.00784314
0.501961 0.619608 0
0.627451 0.627451 0
0.752941 0.627451 0
0.87451 0.623529 0.00392157
0.996078 0.619608 0
0.00392157 0.72549 0.00392157
0.12549 0.72549 0
0.25098 0.741176 0.00392157
0.376471 0.737255 0.00392157
0.505882 0.745098 0.00392157
0.627451 0.74902 0.00392157
0.74902 0.752941 0
0.886275 0.752941 0
0.996078 0.745098 0
0.00392157 0.866667 0.00392157
0.12549 0.862745 0
0.25098 0.870588 0.00392157
0.376471 0.870588 0
0.498039 0.866667 0
0.623529 0.878431 0
0.752941 0.870588 0
0.878431 0.890196 0
0.996078 0.87451 0
0 0.996078 0
0.121569 0.996078 0
0.25098 0.996078 0
0.372549 0.996078 0.00392157
0.501961 0.996078 0
0.627451 0.996078 0.00392157
0.74902 0.996078 0
0.878431 0.996078 0
0.992157 0.996078 0
0.00392157 0 0.054902
0.105882 0 0.0666667
0.247059 0 0.0823529
0.368627 0 0.105882
0.505882 0 0.117647
0.631373 0 0.129412
0.74902 0 0.129412
0.882353 0 0.12549
0.996078 0 0.12549
0 0.0784314 0.0431373
0.109804 0.0784314 0.0666667
0.247059 0.0901961 0.0901961
0.376471 0.101961 0.101961
0.509804 0.117647 0.12549
0.639216 0.113725 0.109804
0.764706 0.113725 0.113725
0.890196 0.105882 0.113725
0.996078 0.121569 0.121569
0.00392157 0.207843 0.0588235
0.113725 0.207843 0.0666667
0.247059 0.223529 0.0823529
0.376471 0.235294 0.101961
0.517647 0.247059 0.117647
0.635294 0.243137 0.117647
0.768627 0.239216 0.113725
0.894118 0.239216 0.113725
0.996078 0.25098 0.12549
0 0.345098 0.054902
0.109804 0.34902 0.0745098
0.243137 0.360784 0.0784314
0.380392 0.368627 0.0980392
0.509804 0.380392 0.117647
0.639216 0.372549 0.117647
0.760784 0.372549 0.109804
0.894118 0.372549 0.109804
0.996078 0.372549 0.117647
0 0.47451 0.0627451
0.121569 0.478431 0.0666667
0.247059 0.494118 0.0862745
0.384314 0.505882 0.101961
0.509804 0.509804 0.117647
0.639216 0.498039 0.117647
0.768627 0.501961 0.113725
0.898039 0.498039 0.113725
0.996078 0.498039 0.12549
0.00392157 0.603922 0.0470588
0.113725 0.611765 0.0509804
0.25098 0.619608 0.0705882
0.372549 0.623529 0.0823529
0.505882 0.631373 0.0941176
0.627451 0.635294 0.113725
0.760784 0.631373 0.117647
0.894118 0.631373 0.109804
0.992157 0.623529 0.117647
0.00392157 0.729412 0.027451
0.117647 0.741176 0.0352941
0.247059 0.745098 0.0509804
0.372549 0.752941 0.0588235
0.498039 0.756863 0.0901961
0.631373 0.760784 0.0980392
0.760784 0.764706 0.113725
0.890196 0.760784 0.105882
0.996078 0.74902 0.12549
0 0.866667 0.0156863
0.121569 0.882353 0.0156863
0.239216 0.882353 0.027451
0.376471 0.890196 0.0470588
0.501961 0.886275 0.0588235
0.635294 0.890196 0.0823529
0.764706 0.894118 0.0980392
0.886275 0.890196 0.113725
0.992157 0.878431 0.113725
0 0.992157 0
0.121569 0.996078 0.0117647
0.25098 0.996078 0.0313725
0.372549 0.996078 0.0431373
0.498039 0.996078 0.0588235
0.627451 0.996078 0.0784314
0.756863 0.996078 0.0901961
0.878431 0.996078 0.105882
0.992157 0.992157 0.121569
0.00392157 0 0.172549
0.0941176 0 0.196078
0.247059 0 0.215686
0.372549 0 0.235294
0.505882 0 0.25098
0.627451 0 0.25098
0.756863 0 0.254902
0.878431 0 0.247059
0.996078 0 0.254902
0 0.0784314 0.160784
0.0941176 0.0823529 0.196078
0.235294 0.0901961 0.219608
0.376471 0.105882 0.227451
0.505882 0.113725 0.247059
0.639216 0.117647 0.239216
0.764706 0.117647 0.25098
0.886275 0.109804 0.247059
0.996078 0.121569 0.239216
0 0.223529 0.164706
0.0941176 0.223529 0.188235
0.243137 0.219608 0.219608
0.376471 0.235294 0.235294
0.505882 0.247059 0.25098
0.635294 0.243137 0.25098
0.764706 0.239216 0.235294
0.890196 0.239216 0.239216
0.996078 0.243137 0.247059
0 0.360784 0.160784
0.0980392 0.360784 0.192157
0.25098 0.356863 0.219608
0.372549 0.360784 0.231373
0.513725 0.376471 0.25098
0.643137 0.372549 0.243137
0.760784 0.368627 0.243137
0.894118 0.364706 0.239216
0.996078 0.372549 0.247059
0 0.482353 0.164706
0.105882 0.490196 0.188235
0.247059 0.494118 0.215686
0.376471 0.498039 0.223529
0.505882 0.509804 0.25098
0.635294 0.505882 0.243137
0.764706 0.498039 0.243137
0.886275 0.498039 0.235294
0.996078 0.498039 0.25098
0 0.607843 0.14902
0.0980392 0.615686 0.176471
0.239216 0.615686 0.192157
0.376471 0.623529 0.211765
0.509804 0.631373 0.227451
0.635294 0.635294 0.243137
0.764706 0.623529 0.243137
0.894118 0.627451 0.239216
0.996078 0.627451 0.25098
0 0.733333 0.133333
0.0941176 0.74902 0.152941
0.239216 0.745098 0.180392
0.372549 0.752941 0.2
0.490196 0.752941 0.207843
0.631373 0.756863 0.219608
0.752941 0.760784 0.239216
0.886275 0.756863 0.243137
0.996078 0.752941 0.243137
0.00392157 0.866667 0.129412
0.0941176 0.882353 0.129412
0.235294 0.878431 0.160784
0.364706 0.878431 0.180392
0.498039 0.882353 0.196078
0.627451 0.886275 0.211765
0.756863 0.886275 0.223529
0.886275 0.890196 0.239216
0.996078 0.878431 0.247059
0 0.996078 0.113725
0.109804 0.996078 0.133333
0.25098 0.996078 0.164706
0.376471 0.996078 0.176471
0.498039 0.996078 0.188235
0.619608 0.996078 0.207843
0.752941 0.992157 0.215686
0.87451 0.996078 0.231373
0.996078 0.992157 0.25098
0.00392157 0 0.305882
0.0862745 0 0.32549
0.215686 0.00392157 0.34902
0.372549 0 0.368627
0.501961 0 0.364706
0.627451 0 0.376471
0.74902 0 0.372549
0.878431 0 0.376471
0.996078 0 0.376471
0 0.0823529 0.305882
0.0823529 0.0823529 0.333333
0.211765 0.0823529 0.352941
0.376471 0.0980392 0.364706
0.509804 0.113725 0.372549
0.643137 0.113725 0.372549
0.764706 0.113725 0.372549
0.898039 0.109804 0.376471
0.996078 0.121569 0.372549
0 0.231373 0.301961
0.0823529 0.223529 0.317647
0.211765 0.227451 0.341176
0.368627 0.231373 0.360784
0.505882 0.25098 0.376471
0.631373 0.239216 0.372549
0.764706 0.243137 0.364706
0.890196 0.243137 0.376471
0.996078 0.247059 0.376471
0 0.364706 0.290196
0.0784314 0.368627 0.317647
0.207843 0.364706 0.333333
0.372549 0.364706 0.368627
0.498039 0.372549 0.376471
0.631373 0.372549 0.376471
0.760784 0.368627 0.376471
0.890196 0.364706 0.360784
0.996078 0.372549 0.372549
0.00392157 0.490196 0.294118
0.0862745 0.501961 0.313725
0.211765 0.494118 0.337255
0.376471 0.494118 0.360784
0.501961 0.498039 0.376471
0.639216 0.501961 0.376471
0.768627 0.498039 0.368627
0.886275 0.494118 0.368627
0.996078 0.498039 0.372549
0 0.611765 0.282353
0.0784314 0.623529 0.298039
0.215686 0.623529 0.329412
0.368627 0.627451 0.34902
0.501961 0.623529 0.356863
0.631373 0.635294 0.376471
0.760784 0.631373 0.368627
0.890196 0.623529 0.368627
0.996078 0.627451 0.372549
0 0.745098 0.266667
0.0784314 0.752941 0.282353
0.207843 0.74902 0.309804
0.368627 0.74902 0.329412
0.498039 0.752941 0.345098
0.631373 0.760784 0.352941
0.760784 0.760784 0.368627
0.890196 0.74902 0.368627
0.996078 0.74902 0.368627
0.00392157 0.870588 0.254902
0.0705882 0.886275 0.266667
0.203922 0.890196 0.290196
0.360784 0.87451 0.317647
0.494118 0.882353 0.32549
0.619608 0.882353 0.337255
0.752941 0.886275 0.345098
0.878431 0.886275 0.364706
0.996078 0.878431 0.376471
0 0.996078 0.247059
0.0823529 0.996078 0.262745
0.215686 0.996078 0.294118
0.364706 0.996078 0.309804
0.494118 0.996078 0.32549
0.627451 0.996078 0.345098
0.745098 0.996078 0.345098
0.878431 0.992157 0.364706
0.992157 0.996078 0.376471
0 0 0.439216
0.0784314 0 0.454902
0.192157 0 0.470588
0.34902 0.00392157 0.486275
0.505882 0 0.494118
0.627451 0 0.501961
0.756863 0 0.498039
0.882353 0 0.501961
0.996078 0 0.501961
0 0.0823529 0.431373
0.0745098 0.0745098 0.466667
0.188235 0.0901961 0.486275
0.345098 0.101961 0.498039
0.501961 0.117647 0.513725
0.639216 0.113725 0.501961
0.764706 0.113725 0.505882
0.890196 0.113725 0.498039
0.996078 0.121569 0.501961
0.00392157 0.227451 0.435294
0.0745098 0.227451 0.458824
0.180392 0.215686 0.470588
0.34902 0.235294 0.494118
0.509804 0.239216 0.501961
0.635294 0.239216 0.498039
0.768627 0.239216 0.498039
0.890196 0.239216 0.498039
0.996078 0.243137 0.498039
0 0.364706 0.431373
0.0745098 0.372549 0.462745
0.180392 0.364706 0.466667
0.341176 0.368627 0.482353
0.494118 0.372549 0.498039
0.631373 0.376471 0.501961
0.756863 0.364706 0.498039
0.890196 0.368627 0.490196
0.996078 0.372549 0.501961
0.00392157 0.501961 0.427451
0.0705882 0.513725 0.443137
0.184314 0.505882 0.458824
0.34902 0.501961 0.482353
0.501961 0.501961 0.501961
0.623529 0.498039 0.501961
0.756863 0.498039 0.501961
0.886275 0.494118 0.501961
0.992157 0.498039 0.501961
0 0.623529 0.411765
0.0666667 0.623529 0.443137
0.192157 0.627451 0.458824
0.345098 0.619608 0.47451
0.501961 0.615686 0.494118
0.627451 0.623529 0.501961
0.764706 0.627451 0.501961
0.894118 0.623529 0.494118
0.996078 0.623529 0.498039
0 0.745098 0.4
0.0627451 0.752941 0.419608
0.172549 0.756863 0.439216
0.345098 0.752941 0.458824
0.494118 0.752941 0.47451
0.623529 0.752941 0.482353
0.756863 0.760784 0.501961
0.886275 0.756863 0.494118
0.996078 0.752941 0.498039
0 0.870588 0.396078
0.0666667 0.886275 0.415686
0.172549 0.882353 0.423529
0.341176 0.882353 0.454902
0.498039 0.878431 0.458824
0.623529 0.878431 0.470588
0.760784 0.890196 0.482353
0.886275 0.886275 0.494118
0.992157 0.878431 0.494118
0 0.988235 0.384314
0.0745098 0.992157 0.403922
0.184314 0.992157 0.419608
0.345098 0.996078 0.435294
0.501961 0.996078 0.462745
0.619608 0.996078 0.47451
0.752941 0.992157 0.482353
0.878431 0.996078 0.494118
0.996078 0.996078 0.501961
0 0 0.572549
0.0627451 0 0.588235
0.156863 0 0.584314
0.309804 0 0.603922
0.486275 0 0.619608
0.627451 0 0.627451
0.752941 0 0.631373
0.878431 0 0.619608
0.996078 0 0.631373
0 0.0705882 0.564706
0.0588235 0.054902 0.588235
0.14902 0.0666667 0.603922
0.321569 0.0862745 0.611765
0.478431 0.0941176 0.623529
0.639216 0.113725 0.627451
0.764706 0.109804 0.627451
0.898039 0.105882 0.631373
0.996078 0.121569 0.615686
0 0.207843 0.568627
0.0509804 0.207843 0.580392
0.14902 0.207843 0.603922
0.305882 0.219608 0.615686
0.47451 0.231373 0.619608
0.627451 0.243137 0.639216
0.764706 0.239216 0.627451
0.890196 0.239216 0.631373
0.996078 0.247059 0.623529
0 0.352941 0.560784
0.0470588 0.356863 0.580392
0.152941 0.356863 0.592157
0.305882 0.34902 0.607843
0.478431 0.356863 0.623529
0.635294 0.364706 0.627451
0.760784 0.364706 0.623529
0.894118 0.364706 0.623529
0.996078 0.372549 0.623529
0 0.490196 0.560784
0.0470588 0.498039 0.580392
0.14902 0.501961 0.603922
0.309804 0.494118 0.596078
0.47451 0.494118 0.611765
0.619608 0.498039 0.623529
0.756863 0.501961 0.627451
0.882353 0.490196 0.623529
0.996078 0.498039 0.627451
0.00392157 0.627451 0.556863
0.0470588 0.639216 0.580392
0.14902 0.639216 0.584314
0.317647 0.627451 0.603922
0.47451 0.627451 0.607843
0.631373 0.647059 0.643137
0.760784 0.643137 0.643137
0.882353 0.643137 0.639216
0.996078 0.639216 0.635294
0 0.74902 0.537255
0.0509804 0.756863 0.568627
0.14902 0.756863 0.584314
0.321569 0.756863 0.592157
0.47451 0.74902 0.603922
0.627451 0.760784 0.631373
0.756863 0.760784 0.635294
0.886275 0.764706 0.643137
0.996078 0.760784 0.631373
0 0.87451 0.54902
0.0431373 0.894118 0.552941
0.145098 0.886275 0.564706
0.309804 0.886275 0.580392
0.478431 0.882353 0.596078
0.627451 0.890196 0.619608
0.74902 0.886275 0.619608
0.882353 0.890196 0.635294
0.996078 0.886275 0.639216
0 0.996078 0.537255
0.0588235 0.996078 0.541176
0.156863 0.996078 0.560784
0.321569 0.996078 0.576471
0.47451 0.992157 0.592157
0.627451 0.996078 0.615686
0.74902 0.996078 0.619608
0.878431 0.996078 0.631373
0.996078 0.992157 0.639216
0 0.00392157 0.705882
0.0470588 0 0.721569
0.121569 0 0.721569
0.278431 0 0.737255
0.439216 0 0.729412
0.607843 0 0.745098
0.745098 0.00392157 0.752941
0.878431 0 0.752941
0.996078 0 0.752941
0.00392157 0.054902 0.705882
0.0313725 0.0352941 0.72549
0.117647 0.0509804 0.741176
0.282353 0.0745098 0.741176
0.45098 0.0862745 0.74902
0.619608 0.105882 0.756863
0.768627 0.113725 0.764706
0.890196 0.109804 0.756863
0.996078 0.121569 0.74902
0.00392157 0.2 0.713725
0.0352941 0.192157 0.717647
0.121569 0.196078 0.737255
0.278431 0.196078 0.741176
0.458824 0.215686 0.745098
0.607843 0.223529 0.752941
0.764706 0.239216 0.752941
0.890196 0.235294 0.752941
0.996078 0.247059 0.752941
0 0.34902 0.701961
0.0352941 0.341176 0.733333
0.113725 0.341176 0.729412
0.270588 0.341176 0.733333
0.447059 0.34902 0.74902
0.611765 0.356863 0.756863
0.752941 0.368627 0.764706
0.890196 0.364706 0.752941
0.996078 0.372549 0.752941
0 0.482353 0.705882
0.0313725 0.486275 0.72549
0.117647 0.486275 0.729412
0.286275 0.486275 0.741176
0.443137 0.478431 0.741176
0.607843 0.486275 0.752941
0.760784 0.490196 0.752941
0.886275 0.490196 0.74902
0.996078 0.498039 0.752941
0.00392157 0.615686 0.701961
0.0313725 0.627451 0.717647
0.113725 0.631373 0.729412
0.286275 0.627451 0.737255
0.447059 0.623529 0.737255
0.611765 0.639216 0.752941
0.756863 0.643137 0.760784
0.882353 0.647059 0.756863
0.996078 0.647059 0.756863
0.00392157 0.756863 0.698039
0.0352941 0.764706 0.713725
0.117647 0.768627 0.729412
0.290196 0.760784 0.72549
0.454902 0.752941 0.737255
0.611765 0.764706 0.752941
0.756863 0.780392 0.772549
0.886275 0.776471 0.772549
0.992157 0.776471 0.764706
0 0.87451 0.690196
0.0352941 0.890196 0.694118
0.121569 0.886275 0.713725
0.290196 0.886275 0.733333
0.458824 0.886275 0.72549
0.607843 0.882353 0.741176
0.756863 0.890196 0.760784
0.882353 0.886275 0.764706
0.996078 0.886275 0.768627
0 0.996078 0.686275
0.0470588 0.996078 0.698039
0.133333 0.996078 0.709804
0.298039 0.996078 0.709804
0.462745 0.992157 0.721569
0.611765 0.996078 0.737255
0.760784 0.996078 0.760784
0.882353 0.996078 0.764706
0.996078 0.992157 0.768627
0 0 0.854902
0.0313725 0 0.866667
0.0941176 0 0.862745
0.25098 0 0.858824
0.419608 0 0.862745
0.588235 0 0.870588
0.741176 0 0.878431
0.882353 0 0.878431
0.996078 0 0.878431
0 0.0431373 0.85098
0.0117647 0.0235294 0.866667
0.0784314 0.0431373 0.886275
0.239216 0.0509804 0.87451
0.423529 0.0705882 0.890196
0.584314 0.0862745 0.882353
0.752941 0.0980392 0.890196
0.882353 0.113725 0.890196
0.996078 0.121569 0.878431
0 0.188235 0.847059
0.0196078 0.180392 0.870588
0.0784314 0.176471 0.87451
0.239216 0.180392 0.87451
0.423529 0.203922 0.87451
0.592157 0.215686 0.882353
0.74902 0.235294 0.886275
0.894118 0.239216 0.890196
0.996078 0.243137 0.878431
0 0.337255 0.85098
0.0156863 0.329412 0.87451
0.0862745 0.337255 0.870588
0.247059 0.333333 0.87451
0.419608 0.329412 0.878431
0.592157 0.341176 0.87451
0.741176 0.34902 0.878431
0.890196 0.364706 0.878431
0.996078 0.372549 0.878431
0 0.482353 0.858824
0.0156863 0.478431 0.862745
0.0784314 0.478431 0.87451
0.243137 0.47451 0.87451
0.423529 0.47451 0.87451
0.588235 0.478431 0.882353
0.741176 0.486275 0.886275
0.878431 0.494118 0.890196
0.996078 0.498039 0.882353
0.00392157 0.615686 0.854902
0.0156863 0.615686 0.878431
0.0862745 0.615686 0.866667
0.25098 0.619608 0.870588
0.435294 0.611765 0.87451
0.588235 0.623529 0.878431
0.737255 0.635294 0.890196
0.882353 0.639216 0.886275
0.996078 0.643137 0.886275
0.00392157 0.74902 0.843137
0.0156863 0.756863 0.870588
0.0784314 0.760784 0.866667
0.254902 0.756863 0.870588
0.427451 0.752941 0.878431
0.584314 0.760784 0.87451
0.745098 0.772549 0.882353
0.87451 0.776471 0.890196
0.996078 0.776471 0.886275
0 0.878431 0.839216
0.0156863 0.901961 0.858824
0.0901961 0.894118 0.866667
0.262745 0.894118 0.87451
0.435294 0.886275 0.866667
0.592157 0.890196 0.87451
0.74902 0.890196 0.882353
0.882353 0.898039 0.894118
0.996078 0.890196 0.886275
0 0.996078 0.843137
0.0313725 0.996078 0.847059
0.0980392 0.992157 0.85098
0.27451 0.996078 0.85098
0.431373 0.996078 0.862745
0.6 0.996078 0.87451
0.745098 0.992157 0.87451
0.878431 0.996078 0.886275
0.996078 0.996078 0.890196
0 0 0.988235
0.0117647 0 0.996078
0.0627451 0 0.992157
0.223529 0 0.996078
0.4 0 0.996078
0.568627 0 0.996078
0.729412 0 0.996078
0.870588 0 0.996078
0.996078 0 0.992157
0 0.027451 0.992157
0.0156863 0.0196078 0.996078
0.0588235 0.0352941 0.996078
0.227451 0.0509804 0.996078
0.403922 0.0627451 0.996078
0.568627 0.0784314 0.996078
0.729412 0.0941176 0.996078
0.87451 0.105882 0.996078
0.988235 0.121569 0.996078
0 0.180392 0.992157
0.0117647 0.168627 0.992157
0.0666667 0.172549 0.996078
0.219608 0.180392 0.996078
0.407843 0.2 0.996078
0.572549 0.211765 0.996078
0.737255 0.223529 0.996078
0.87451 0.235294 0.996078
0.996078 0.247059 0.996078
0 0.329412 0.992157
0.00784314 0.32549 0.992157
0.0627451 0.32549 0.996078
0.219608 0.321569 0.992157
0.403922 0.329412 0.996078
0.572549 0.345098 0.992157
0.729412 0.352941 0.996078
0.87451 0.364706 0.996078
0.996078 0.372549 0.992157
0 0.470588 0.996078
0.0117647 0.470588 0.996078
0.0627451 0.470588 0.996078
0.235294 0.466667 0.996078
0.403922 0.466667 0.996078
0.568627 0.47451 0.996078
0.733333 0.486275 0.996078
0.870588 0.490196 0.996078
0.996078 0.498039 0.996078
0 0.603922 0.992157
0.0117647 0.611765 0.996078
0.0627451 0.607843 0.996078
0.235294 0.611765 0.992157
0.407843 0.607843 0.996078
0.576471 0.623529 0.996078
0.729412 0.631373 0.996078
0.87451 0.631373 0.996078
0.996078 0.643137 0.996078
0 0.741176 0.992157
0.0156863 0.737255 0.996078
0.0627451 0.741176 0.996078
0.243137 0.745098 0.996078
0.411765 0.745098 0.996078
0.584314 0.756863 0.992157
0.729412 0.772549 0.996078
0.87451 0.772549 0.996078
0.992157 0.776471 0.996078
0 0.87451 0.996078
0.0117647 0.866667 0.996078
0.0705882 0.878431 0.996078
0.247059 0.866667 0.996078
0.419608 0.87451 0.992157
0.584314 0.878431 0.996078
0.741176 0.890196 0.992157
0.878431 0.890196 0.996078
0.996078 0.894118 0.996078
0 0.992157 0.992157
0.0156863 0.988235 0.992157
0.0745098 0.992157 0.992157
0.254902 0.996078 0.992157
0.419608 0.996078 0.992157
0.592157 0.996078 0.996078
0.737255 0.992157 0.992157
0.87451 0.996078 0.996078
0.992157 0.992157 0.996078
