assets/luts/cinematic/RR Prima KD 5213 Vis3.cube
#Generated by Picture Instruments - Unlimited Filters
TITLE "RR Prima KD 5213 Vis3"
LUT_3D_SIZE 17
0 0 0.0470588
0.0509804 0.0156863 0.054902
0.0901961 0.0352941 0.0666667
0.12549 0.054902 0.0705882
0.160784 0.0666667 0.0784314
0.2 0.0784314 0.0901961
0.235294 0.0862745 0.0980392
0.278431 0.0901961 0.105882
0.313725 0.0980392 0.117647
0.352941 0.105882 0.129412
0.388235 0.117647 0.137255
0.431373 0.12549 0.152941
0.47451 0.133333 0.164706
0.521569 0.145098 0.176471
0.576471 0.156863 0.188235
0.639216 0.168627 0.207843
0.690196 0.196078 0.231373
0.054902 0.0745098 0.0666667
0.0745098 0.0784314 0.0627451
0.105882 0.0862745 0.0705882
0.137255 0.0901961 0.0784314
0.176471 0.0980392 0.0862745
0.207843 0.0980392 0.0941176
0.247059 0.101961 0.101961
0.286275 0.109804 0.113725
0.32549 0.117647 0.117647
0.364706 0.12549 0.133333
0.403922 0.12549 0.141176
0.447059 0.137255 0.156863
0.490196 0.145098 0.168627
0.541176 0.152941 0.184314
0.592157 0.164706 0.188235
0.647059 0.172549 0.207843
0.701961 0.203922 0.231373
0.0901961 0.113725 0.0862745
0.101961 0.117647 0.0862745
0.117647 0.121569 0.0823529
0.14902 0.12549 0.0823529
0.184314 0.137255 0.0941176
0.219608 0.141176 0.0980392
0.254902 0.141176 0.105882
0.294118 0.145098 0.113725
0.337255 0.14902 0.129412
0.376471 0.152941 0.137255
0.415686 0.160784 0.14902
0.45098 0.160784 0.160784
0.494118 0.168627 0.168627
0.545098 0.176471 0.184314
0.6 0.188235 0.2
0.654902 0.2 0.211765
0.705882 0.223529 0.235294
0.113725 0.156863 0.101961
0.129412 0.160784 0.105882
0.141176 0.164706 0.105882
0.168627 0.168627 0.101961
0.196078 0.172549 0.0980392
0.231373 0.180392 0.109804
0.266667 0.192157 0.113725
0.301961 0.192157 0.121569
0.345098 0.192157 0.129412
0.380392 0.192157 0.141176
0.419608 0.2 0.152941
0.458824 0.2 0.160784
0.505882 0.207843 0.176471
0.54902 0.211765 0.184314
0.603922 0.219608 0.196078
0.662745 0.227451 0.215686
0.709804 0.25098 0.231373
0.152941 0.203922 0.129412
0.156863 0.203922 0.12549
0.168627 0.207843 0.133333
0.196078 0.215686 0.129412
0.223529 0.219608 0.12549
0.254902 0.219608 0.12549
0.282353 0.227451 0.12549
0.317647 0.235294 0.12549
0.352941 0.239216 0.133333
0.392157 0.243137 0.145098
0.423529 0.243137 0.152941
0.466667 0.243137 0.168627
0.509804 0.247059 0.176471
0.556863 0.25098 0.188235
0.607843 0.262745 0.2
0.662745 0.266667 0.211765
0.717647 0.294118 0.235294
0.184314 0.247059 0.14902
0.192157 0.254902 0.152941
0.2 0.254902 0.152941
0.215686 0.258824 0.152941
0.247059 0.266667 0.145098
0.27451 0.270588 0.145098
0.309804 0.266667 0.141176
0.341176 0.27451 0.14902
0.372549 0.282353 0.14902
0.407843 0.294118 0.14902
0.439216 0.294118 0.160784
0.478431 0.294118 0.168627
0.517647 0.290196 0.180392
0.568627 0.298039 0.192157
0.623529 0.309804 0.203922
0.678431 0.317647 0.215686
0.72549 0.337255 0.239216
0.215686 0.290196 0.168627
0.223529 0.298039 0.172549
0.235294 0.301961 0.176471
0.247059 0.305882 0.176471
0.27451 0.313725 0.176471
0.298039 0.317647 0.168627
0.333333 0.321569 0.168627
0.364706 0.317647 0.168627
0.403922 0.32549 0.168627
0.427451 0.32549 0.168627
0.458824 0.337255 0.168627
0.494118 0.34902 0.172549
0.537255 0.34902 0.184314
0.584314 0.352941 0.192157
0.631373 0.356863 0.203922
0.686275 0.368627 0.219608
0.737255 0.396078 0.239216
0.25098 0.337255 0.192157
0.266667 0.34902 0.196078
0.266667 0.34902 0.196078
0.278431 0.34902 0.2
0.298039 0.352941 0.2
0.329412 0.364706 0.2
0.360784 0.376471 0.192157
0.392157 0.376471 0.188235
0.423529 0.368627 0.188235
0.462745 0.376471 0.192157
0.490196 0.380392 0.192157
0.517647 0.388235 0.192157
0.556863 0.4 0.192157
0.6 0.411765 0.196078
0.647059 0.415686 0.203922
0.701961 0.427451 0.219608
0.74902 0.447059 0.239216
0.286275 0.384314 0.211765
0.290196 0.392157 0.207843
0.305882 0.396078 0.215686
0.317647 0.396078 0.219608
0.32549 0.396078 0.223529
0.34902 0.403922 0.219608
0.384314 0.419608 0.215686
0.419608 0.431373 0.215686
0.447059 0.431373 0.211765
0.482353 0.423529 0.211765
0.52549 0.431373 0.207843
0.556863 0.435294 0.211765
0.596078 0.447059 0.211765
0.623529 0.454902 0.215686
0.666667 0.470588 0.211765
0.717647 0.482353 0.223529
0.764706 0.501961 0.243137
0.32549 0.431373 0.235294
0.329412 0.435294 0.235294
0.333333 0.439216 0.235294
0.345098 0.439216 0.235294
0.360784 0.443137 0.243137
0.380392 0.447059 0.239216
0.407843 0.458824 0.243137
0.439216 0.470588 0.235294
0.482353 0.486275 0.235294
0.513725 0.486275 0.235294
0.545098 0.482353 0.231373
0.596078 0.490196 0.231373
0.627451 0.498039 0.231373
0.662745 0.505882 0.231373
0.701961 0.517647 0.231373
0.741176 0.533333 0.235294
0.788235 0.564706 0.25098
0.368627 0.482353 0.254902
0.368627 0.486275 0.25098
0.372549 0.490196 0.254902
0.380392 0.490196 0.258824
0.396078 0.490196 0.262745
0.415686 0.494118 0.262745
0.439216 0.505882 0.258824
0.470588 0.517647 0.262745
0.505882 0.533333 0.258824
0.54902 0.54902 0.254902
0.576471 0.54902 0.25098
0.615686 0.545098 0.254902
0.662745 0.552941 0.258824
0.698039 0.556863 0.254902
0.733333 0.568627 0.258824
0.776471 0.584314 0.258824
0.815686 0.607843 0.27451
0.411765 0.541176 0.27451
0.415686 0.545098 0.27451
0.415686 0.545098 0.27451
0.423529 0.545098 0.278431
0.439216 0.552941 0.282353
0.454902 0.54902 0.282353
0.478431 0.560784 0.282353
0.501961 0.568627 0.286275
0.541176 0.588235 0.278431
0.572549 0.596078 0.278431
0.615686 0.615686 0.27451
0.647059 0.615686 0.27451
0.678431 0.611765 0.278431
0.733333 0.619608 0.286275
0.764706 0.623529 0.282353
0.803922 0.635294 0.282353
0.85098 0.666667 0.301961
0.458824 0.603922 0.298039
0.458824 0.603922 0.290196
0.458824 0.603922 0.290196
0.470588 0.611765 0.298039
0.486275 0.611765 0.301961
0.501961 0.611765 0.309804
0.517647 0.611765 0.305882
0.537255 0.627451 0.301961
0.580392 0.639216 0.305882
0.611765 0.654902 0.305882
0.65098 0.670588 0.301961
0.686275 0.682353 0.298039
0.721569 0.682353 0.301961
0.74902 0.67451 0.305882
0.803922 0.682353 0.313725
0.843137 0.698039 0.317647
0.878431 0.717647 0.333333
0.517647 0.678431 0.32549
0.517647 0.678431 0.317647
0.517647 0.678431 0.317647
0.52549 0.678431 0.321569
0.537255 0.682353 0.32549
0.552941 0.682353 0.333333
0.572549 0.686275 0.333333
0.596078 0.694118 0.337255
0.615686 0.701961 0.333333
0.65098 0.717647 0.337255
0.686275 0.733333 0.333333
0.721569 0.74902 0.333333
0.768627 0.760784 0.333333
0.792157 0.756863 0.337255
0.815686 0.745098 0.337255
0.866667 0.752941 0.34902
0.901961 0.776471 0.364706
0.584314 0.768627 0.364706
0.572549 0.756863 0.34902
0.580392 0.756863 0.352941
0.584314 0.760784 0.356863
0.603922 0.768627 0.368627
0.611765 0.764706 0.368627
0.631373 0.768627 0.368627
0.654902 0.768627 0.376471
0.678431 0.780392 0.380392
0.705882 0.792157 0.380392
0.733333 0.803922 0.380392
0.768627 0.815686 0.376471
0.803922 0.831373 0.376471
0.847059 0.847059 0.376471
0.87451 0.843137 0.380392
0.886275 0.827451 0.380392
0.921569 0.835294 0.4
0.658824 0.854902 0.415686
0.654902 0.85098 0.407843
0.658824 0.854902 0.411765
0.662745 0.85098 0.411765
0.67451 0.854902 0.415686
0.690196 0.858824 0.423529
0.705882 0.858824 0.431373
0.713725 0.854902 0.431373
0.737255 0.862745 0.439216
0.768627 0.878431 0.443137
0.796078 0.890196 0.443137
0.827451 0.901961 0.443137
0.85098 0.905882 0.439216
0.894118 0.92549 0.439216
0.929412 0.929412 0.439216
0.94902 0.921569 0.443137
0.956863 0.921569 0.454902
0.752941 0.960784 0.513725
0.74902 0.956863 0.505882
0.752941 0.952941 0.509804
0.756863 0.956863 0.513725
0.768627 0.960784 0.517647
0.776471 0.960784 0.521569
0.792157 0.960784 0.529412
0.807843 0.960784 0.533333
0.827451 0.964706 0.541176
0.847059 0.972549 0.541176
0.870588 0.976471 0.541176
0.894118 0.984314 0.541176
0.92549 0.988235 0.541176
0.956863 0.988235 0.537255
0.992157 0.992157 0.541176
0.992157 0.988235 0.541176
0.992157 0.984314 0.556863
0.027451 0.0117647 0.0862745
0.0588235 0.0313725 0.0901961
0.0784314 0.0705882 0.0980392
0.121569 0.0705882 0.109804
0.160784 0.0784314 0.113725
0.203922 0.0862745 0.121569
0.243137 0.0941176 0.129412
0.27451 0.0980392 0.137255
0.313725 0.105882 0.141176
0.356863 0.117647 0.14902
0.396078 0.12549 0.160784
0.435294 0.133333 0.172549
0.47451 0.141176 0.180392
0.52549 0.14902 0.192157
0.580392 0.164706 0.203922
0.643137 0.176471 0.219608
0.694118 0.2 0.243137
0.054902 0.0745098 0.0980392
0.0745098 0.0862745 0.105882
0.101961 0.0901961 0.109804
0.141176 0.0980392 0.117647
0.176471 0.0980392 0.121569
0.215686 0.101961 0.12549
0.25098 0.113725 0.133333
0.290196 0.117647 0.141176
0.333333 0.12549 0.14902
0.368627 0.129412 0.156863
0.407843 0.137255 0.168627
0.447059 0.145098 0.176471
0.490196 0.14902 0.188235
0.541176 0.160784 0.196078
0.592157 0.164706 0.207843
0.65098 0.176471 0.219608
0.705882 0.203922 0.243137
0.0941176 0.121569 0.109804
0.0980392 0.12549 0.117647
0.117647 0.129412 0.121569
0.14902 0.133333 0.117647
0.184314 0.141176 0.12549
0.223529 0.145098 0.129412
0.258824 0.145098 0.133333
0.294118 0.14902 0.145098
0.337255 0.152941 0.14902
0.376471 0.156863 0.156863
0.415686 0.164706 0.168627
0.45098 0.164706 0.176471
0.498039 0.172549 0.188235
0.545098 0.180392 0.196078
0.6 0.184314 0.207843
0.65098 0.192157 0.219608
0.709804 0.223529 0.247059
0.12549 0.160784 0.121569
0.129412 0.168627 0.133333
0.145098 0.172549 0.137255
0.164706 0.172549 0.133333
0.2 0.176471 0.129412
0.235294 0.188235 0.137255
0.270588 0.192157 0.137255
0.305882 0.192157 0.14902
0.341176 0.192157 0.156863
0.384314 0.196078 0.164706
0.423529 0.2 0.168627
0.462745 0.203922 0.176471
0.501961 0.203922 0.188235
0.552941 0.211765 0.2
0.603922 0.219608 0.211765
0.662745 0.231373 0.223529
0.713725 0.254902 0.247059
0.152941 0.2 0.137255
0.160784 0.211765 0.14902
0.168627 0.215686 0.152941
0.192157 0.219608 0.152941
0.223529 0.223529 0.145098
0.25098 0.223529 0.14902
0.286275 0.231373 0.14902
0.317647 0.239216 0.152941
0.352941 0.243137 0.156863
0.392157 0.247059 0.164706
0.427451 0.243137 0.176471
0.470588 0.247059 0.184314
0.509804 0.247059 0.192157
0.560784 0.254902 0.2
0.607843 0.258824 0.211765
0.666667 0.266667 0.223529
0.721569 0.294118 0.243137
0.188235 0.247059 0.156863
0.2 0.258824 0.168627
0.2 0.258824 0.168627
0.219608 0.262745 0.172549
0.247059 0.27451 0.172549
0.27451 0.27451 0.168627
0.309804 0.27451 0.164706
0.337255 0.278431 0.164706
0.372549 0.286275 0.168627
0.407843 0.294118 0.172549
0.439216 0.294118 0.176471
0.47451 0.294118 0.184314
0.521569 0.294118 0.192157
0.568627 0.301961 0.203922
0.619608 0.305882 0.215686
0.678431 0.317647 0.223529
0.729412 0.341176 0.247059
0.223529 0.290196 0.176471
0.227451 0.301961 0.188235
0.235294 0.301961 0.188235
0.25098 0.305882 0.192157
0.270588 0.309804 0.188235
0.301961 0.321569 0.188235
0.333333 0.32549 0.184314
0.368627 0.321569 0.184314
0.403922 0.329412 0.188235
0.427451 0.329412 0.184314
0.462745 0.341176 0.184314
0.494118 0.34902 0.188235
0.541176 0.34902 0.196078
0.580392 0.34902 0.203922
0.635294 0.356863 0.215686
0.694118 0.368627 0.227451
0.737255 0.388235 0.25098
0.258824 0.341176 0.192157
0.262745 0.34902 0.2
0.270588 0.34902 0.203922
0.278431 0.352941 0.207843
0.298039 0.356863 0.211765
0.333333 0.368627 0.211765
0.356863 0.376471 0.203922
0.392157 0.376471 0.203922
0.427451 0.372549 0.203922
0.462745 0.380392 0.203922
0.486275 0.380392 0.2
0.521569 0.392157 0.203922
0.556863 0.4 0.203922
0.6 0.411765 0.207843
0.65098 0.415686 0.215686
0.701961 0.423529 0.227451
0.752941 0.447059 0.25098
0.294118 0.384314 0.215686
0.294118 0.396078 0.219608
0.305882 0.396078 0.223529
0.309804 0.396078 0.227451
0.329412 0.4 0.235294
0.352941 0.407843 0.231373
0.384314 0.419608 0.227451
0.419608 0.435294 0.227451
0.45098 0.431373 0.223529
0.482353 0.427451 0.223529
0.52549 0.435294 0.223529
0.556863 0.439216 0.223529
0.588235 0.447059 0.223529
0.627451 0.458824 0.219608
0.666667 0.470588 0.223529
0.717647 0.482353 0.231373
0.764706 0.501961 0.25098
0.329412 0.427451 0.231373
0.329412 0.439216 0.239216
0.337255 0.443137 0.243137
0.34902 0.447059 0.25098
0.364706 0.447059 0.254902
0.380392 0.45098 0.25098
0.403922 0.458824 0.247059
0.443137 0.47451 0.247059
0.482353 0.490196 0.247059
0.509804 0.490196 0.243137
0.545098 0.482353 0.243137
0.592157 0.494118 0.243137
0.627451 0.498039 0.239216
0.662745 0.509804 0.243137
0.698039 0.517647 0.247059
0.741176 0.533333 0.239216
0.788235 0.564706 0.254902
0.368627 0.478431 0.25098
0.372549 0.486275 0.258824
0.372549 0.486275 0.258824
0.380392 0.490196 0.262745
0.4 0.494118 0.266667
0.415686 0.498039 0.27451
0.439216 0.505882 0.270588
0.470588 0.517647 0.266667
0.505882 0.533333 0.266667
0.54902 0.54902 0.262745
0.584314 0.54902 0.262745
0.611765 0.545098 0.262745
0.662745 0.552941 0.266667
0.698039 0.560784 0.266667
0.737255 0.572549 0.262745
0.776471 0.588235 0.266667
0.819608 0.615686 0.282353
0.411765 0.533333 0.270588
0.415686 0.541176 0.278431
0.419608 0.545098 0.282353
0.423529 0.54902 0.282353
0.435294 0.54902 0.286275
0.45098 0.552941 0.286275
0.478431 0.560784 0.290196
0.505882 0.568627 0.290196
0.537255 0.584314 0.286275
0.576471 0.6 0.286275
0.619608 0.615686 0.286275
0.647059 0.615686 0.286275
0.678431 0.611765 0.286275
0.729412 0.615686 0.290196
0.768627 0.623529 0.290196
0.807843 0.639216 0.294118
0.843137 0.662745 0.305882
0.462745 0.6 0.298039
0.462745 0.607843 0.301961
0.462745 0.607843 0.301961
0.466667 0.611765 0.305882
0.482353 0.615686 0.301961
0.505882 0.619608 0.313725
0.521569 0.619608 0.317647
0.545098 0.627451 0.313725
0.572549 0.643137 0.313725
0.615686 0.658824 0.313725
0.643137 0.670588 0.305882
0.690196 0.686275 0.305882
0.717647 0.686275 0.309804
0.752941 0.682353 0.313725
0.8 0.686275 0.321569
0.839216 0.694118 0.321569
0.878431 0.721569 0.337255
0.513725 0.666667 0.317647
0.517647 0.67451 0.32549
0.517647 0.67451 0.32549
0.517647 0.67451 0.32549
0.537255 0.682353 0.329412
0.552941 0.686275 0.333333
0.572549 0.686275 0.345098
0.592157 0.690196 0.341176
0.615686 0.701961 0.345098
0.654902 0.717647 0.341176
0.686275 0.733333 0.341176
0.72549 0.74902 0.341176
0.760784 0.756863 0.333333
0.792157 0.756863 0.341176
0.819608 0.74902 0.345098
0.866667 0.752941 0.356863
0.905882 0.776471 0.372549
0.576471 0.74902 0.352941
0.576471 0.760784 0.360784
0.580392 0.756863 0.360784
0.584314 0.760784 0.364706
0.596078 0.760784 0.368627
0.611765 0.764706 0.368627
0.631373 0.768627 0.376471
0.65098 0.772549 0.376471
0.678431 0.780392 0.384314
0.698039 0.788235 0.380392
0.737255 0.803922 0.384314
0.768627 0.815686 0.380392
0.803922 0.831373 0.380392
0.847059 0.847059 0.380392
0.866667 0.839216 0.380392
0.890196 0.823529 0.388235
0.921569 0.839216 0.407843
0.65098 0.843137 0.403922
0.662745 0.858824 0.415686
0.658824 0.85098 0.411765
0.658824 0.854902 0.411765
0.670588 0.858824 0.419608
0.694118 0.862745 0.431373
0.701961 0.858824 0.431373
0.721569 0.862745 0.439216
0.745098 0.870588 0.447059
0.764706 0.878431 0.443137
0.792157 0.890196 0.447059
0.823529 0.898039 0.447059
0.854902 0.909804 0.447059
0.894118 0.92549 0.443137
0.929412 0.933333 0.447059
0.952941 0.92549 0.45098
0.956863 0.921569 0.458824
0.74902 0.94902 0.501961
0.745098 0.956863 0.505882
0.74902 0.956863 0.509804
0.756863 0.956863 0.517647
0.768627 0.956863 0.521569
0.776471 0.956863 0.521569
0.792157 0.960784 0.529412
0.807843 0.964706 0.537255
0.827451 0.964706 0.545098
0.85098 0.972549 0.541176
0.862745 0.972549 0.541176
0.894118 0.988235 0.545098
0.921569 0.988235 0.545098
0.956863 0.988235 0.545098
0.992157 0.992157 0.545098
0.992157 0.988235 0.54902
0.992157 0.984314 0.560784
0.0509804 0.0509804 0.121569
0.0627451 0.054902 0.12549
0.0901961 0.0588235 0.129412
0.109804 0.0862745 0.129412
0.14902 0.105882 0.141176
0.192157 0.109804 0.160784
0.235294 0.113725 0.172549
0.278431 0.109804 0.172549
0.321569 0.117647 0.172549
0.356863 0.12549 0.180392
0.4 0.133333 0.188235
0.431373 0.137255 0.192157
0.478431 0.14902 0.203922
0.52549 0.156863 0.211765
0.580392 0.164706 0.223529
0.639216 0.172549 0.235294
0.694118 0.2 0.262745
0.0705882 0.0862745 0.133333
0.0823529 0.0941176 0.141176
0.105882 0.0980392 0.145098
0.121569 0.113725 0.145098
0.164706 0.121569 0.160784
0.211765 0.12549 0.168627
0.258824 0.12549 0.176471
0.294118 0.129412 0.176471
0.333333 0.133333 0.180392
0.372549 0.137255 0.184314
0.411765 0.145098 0.188235
0.45098 0.152941 0.2
0.494118 0.156863 0.211765
0.541176 0.164706 0.211765
0.592157 0.172549 0.231373
0.654902 0.180392 0.239216
0.701961 0.203922 0.254902
0.0862745 0.12549 0.141176
0.0941176 0.133333 0.152941
0.117647 0.137255 0.156863
0.14902 0.141176 0.160784
0.188235 0.145098 0.164706
0.223529 0.145098 0.168627
0.262745 0.14902 0.172549
0.301961 0.156863 0.180392
0.341176 0.160784 0.184314
0.380392 0.164706 0.192157
0.415686 0.164706 0.196078
0.454902 0.172549 0.203922
0.498039 0.176471 0.211765
0.545098 0.184314 0.219608
0.6 0.188235 0.227451
0.654902 0.196078 0.235294
0.709804 0.223529 0.262745
0.117647 0.168627 0.14902
0.129412 0.180392 0.164706
0.141176 0.180392 0.168627
0.168627 0.180392 0.168627
0.2 0.188235 0.168627
0.235294 0.192157 0.172549
0.27451 0.196078 0.176471
0.305882 0.196078 0.180392
0.345098 0.196078 0.188235
0.384314 0.2 0.192157
0.423529 0.207843 0.2
0.462745 0.207843 0.203922
0.501961 0.207843 0.211765
0.552941 0.215686 0.219608
0.603922 0.223529 0.231373
0.662745 0.231373 0.239216
0.713725 0.254902 0.262745
0.156863 0.207843 0.164706
0.160784 0.223529 0.176471
0.172549 0.223529 0.180392
0.196078 0.227451 0.184314
0.219608 0.227451 0.180392
0.254902 0.231373 0.180392
0.290196 0.239216 0.184314
0.321569 0.247059 0.184314
0.360784 0.247059 0.192157
0.392157 0.243137 0.196078
0.435294 0.247059 0.2
0.470588 0.25098 0.207843
0.517647 0.25098 0.211765
0.560784 0.254902 0.219608
0.611765 0.262745 0.227451
0.670588 0.270588 0.243137
0.721569 0.294118 0.262745
0.192157 0.254902 0.180392
0.192157 0.258824 0.192157
0.203922 0.266667 0.196078
0.219608 0.266667 0.2
0.247059 0.278431 0.196078
0.278431 0.278431 0.196078
0.309804 0.278431 0.196078
0.341176 0.286275 0.196078
0.372549 0.294118 0.196078
0.407843 0.298039 0.196078
0.447059 0.298039 0.203922
0.482353 0.294118 0.207843
0.52549 0.298039 0.215686
0.572549 0.301961 0.223529
0.623529 0.309804 0.231373
0.678431 0.313725 0.243137
0.729412 0.337255 0.262745
0.223529 0.298039 0.196078
0.231373 0.309804 0.207843
0.239216 0.313725 0.211765
0.25098 0.313725 0.211765
0.270588 0.317647 0.215686
0.301961 0.329412 0.211765
0.337255 0.329412 0.211765
0.372549 0.329412 0.211765
0.396078 0.333333 0.207843
0.431373 0.337255 0.207843
0.462745 0.345098 0.207843
0.498039 0.34902 0.207843
0.533333 0.34902 0.215686
0.584314 0.352941 0.223529
0.635294 0.356863 0.227451
0.690196 0.368627 0.247059
0.737255 0.388235 0.262745
0.258824 0.341176 0.211765
0.258824 0.352941 0.223529
0.270588 0.352941 0.227451
0.282353 0.356863 0.227451
0.301961 0.360784 0.231373
0.32549 0.364706 0.231373
0.360784 0.376471 0.223529
0.396078 0.384314 0.227451
0.431373 0.376471 0.227451
0.466667 0.384314 0.223529
0.486275 0.384314 0.223529
0.52549 0.396078 0.223529
0.560784 0.407843 0.223529
0.603922 0.411765 0.227451
0.647059 0.411765 0.235294
0.705882 0.423529 0.247059
0.752941 0.447059 0.266667
0.298039 0.388235 0.231373
0.298039 0.396078 0.243137
0.301961 0.4 0.239216
0.313725 0.4 0.247059
0.329412 0.403922 0.247059
0.352941 0.411765 0.247059
0.388235 0.423529 0.247059
0.415686 0.427451 0.243137
0.45098 0.435294 0.243137
0.486275 0.431373 0.243137
0.529412 0.435294 0.243137
0.556863 0.439216 0.239216
0.592157 0.45098 0.239216
0.627451 0.458824 0.239216
0.670588 0.478431 0.239216
0.721569 0.482353 0.247059
0.764706 0.505882 0.266667
0.329412 0.431373 0.247059
0.333333 0.443137 0.254902
0.337255 0.447059 0.254902
0.34902 0.447059 0.262745
0.360784 0.45098 0.266667
0.384314 0.45098 0.266667
0.407843 0.462745 0.266667
0.443137 0.478431 0.262745
0.486275 0.490196 0.266667
0.513725 0.494118 0.258824
0.545098 0.486275 0.258824
0.596078 0.498039 0.262745
0.623529 0.501961 0.258824
0.658824 0.509804 0.258824
0.698039 0.521569 0.254902
0.741176 0.537255 0.254902
0.784314 0.564706 0.270588
0.368627 0.486275 0.262745
0.372549 0.494118 0.270588
0.376471 0.490196 0.27451
0.384314 0.494118 0.27451
0.4 0.501961 0.278431
0.419608 0.501961 0.286275
0.435294 0.505882 0.286275
0.466667 0.521569 0.278431
0.509804 0.541176 0.282353
0.54902 0.552941 0.282353
0.580392 0.552941 0.278431
0.607843 0.545098 0.278431
0.662745 0.556863 0.282353
0.698039 0.560784 0.278431
0.737255 0.576471 0.278431
0.772549 0.584314 0.282353
0.819608 0.615686 0.294118
0.411765 0.537255 0.278431
0.411765 0.54902 0.290196
0.419608 0.545098 0.290196
0.423529 0.545098 0.290196
0.435294 0.552941 0.294118
0.458824 0.556863 0.301961
0.478431 0.564706 0.309804
0.505882 0.572549 0.301961
0.537255 0.588235 0.301961
0.576471 0.6 0.298039
0.619608 0.615686 0.298039
0.65098 0.619608 0.298039
0.678431 0.611765 0.301961
0.733333 0.619608 0.305882
0.768627 0.627451 0.305882
0.811765 0.639216 0.305882
0.847059 0.666667 0.321569
0.454902 0.6 0.298039
0.458824 0.607843 0.305882
0.466667 0.611765 0.309804
0.470588 0.615686 0.313725
0.486275 0.615686 0.313725
0.501961 0.615686 0.321569
0.521569 0.619608 0.321569
0.545098 0.631373 0.32549
0.576471 0.643137 0.32549
0.607843 0.654902 0.321569
0.647059 0.670588 0.321569
0.690196 0.686275 0.321569
0.717647 0.690196 0.321569
0.74902 0.682353 0.32549
0.8 0.686275 0.333333
0.839216 0.698039 0.333333
0.878431 0.721569 0.352941
0.513725 0.67451 0.329412
0.513725 0.682353 0.333333
0.521569 0.678431 0.333333
0.52549 0.682353 0.337255
0.533333 0.682353 0.341176
0.54902 0.686275 0.345098
0.576471 0.694118 0.34902
0.592157 0.694118 0.34902
0.619608 0.705882 0.352941
0.65098 0.717647 0.352941
0.694118 0.737255 0.356863
0.721569 0.745098 0.34902
0.764706 0.764706 0.34902
0.792157 0.760784 0.352941
0.819608 0.752941 0.360784
0.862745 0.760784 0.368627
0.901961 0.780392 0.384314
0.572549 0.74902 0.360784
0.576471 0.756863 0.368627
0.576471 0.756863 0.368627
0.584314 0.756863 0.372549
0.588235 0.760784 0.364706
0.611765 0.764706 0.376471
0.631373 0.768627 0.384314
0.654902 0.772549 0.396078
0.670588 0.776471 0.388235
0.698039 0.788235 0.392157
0.737255 0.803922 0.392157
0.768627 0.819608 0.392157
0.807843 0.831373 0.392157
0.839216 0.843137 0.388235
0.870588 0.835294 0.396078
0.890196 0.823529 0.4
0.917647 0.835294 0.415686
0.65098 0.843137 0.411765
0.654902 0.85098 0.415686
0.658824 0.854902 0.419608
0.662745 0.858824 0.423529
0.670588 0.858824 0.427451
0.686275 0.858824 0.431373
0.701961 0.862745 0.439216
0.721569 0.862745 0.447059
0.741176 0.870588 0.454902
0.768627 0.878431 0.454902
0.788235 0.882353 0.45098
0.823529 0.901961 0.454902
0.858824 0.909804 0.454902
0.890196 0.92549 0.45098
0.929412 0.933333 0.454902
0.945098 0.921569 0.454902
0.960784 0.921569 0.466667
0.737255 0.945098 0.498039
0.745098 0.952941 0.513725
0.74902 0.956863 0.517647
0.756863 0.956863 0.521569
0.760784 0.956863 0.52549
0.764706 0.956863 0.521569
0.792157 0.960784 0.537255
0.807843 0.964706 0.545098
0.827451 0.968627 0.552941
0.839216 0.964706 0.545098
0.862745 0.972549 0.545098
0.894118 0.988235 0.54902
0.921569 0.988235 0.54902
0.956863 0.988235 0.54902
0.984314 0.992157 0.545098
0.992157 0.984314 0.552941
0.992157 0.984314 0.568627
0.0666667 0.0666667 0.156863
0.0784314 0.0745098 0.168627
0.0980392 0.0745098 0.176471
0.133333 0.0823529 0.176471
0.145098 0.113725 0.168627
0.168627 0.137255 0.180392
0.219608 0.145098 0.192157
0.266667 0.14902 0.211765
0.309804 0.14902 0.223529
0.360784 0.152941 0.227451
0.4 0.145098 0.219608
0.439216 0.14902 0.227451
0.482353 0.156863 0.235294
0.529412 0.160784 0.239216
0.584314 0.168627 0.25098
0.643137 0.176471 0.258824
0.698039 0.2 0.282353
0.0823529 0.0980392 0.168627
0.0901961 0.105882 0.184314
0.109804 0.105882 0.184314
0.141176 0.105882 0.188235
0.152941 0.133333 0.184314
0.188235 0.152941 0.196078
0.235294 0.156863 0.207843
0.282353 0.156863 0.219608
0.329412 0.160784 0.227451
0.376471 0.156863 0.227451
0.415686 0.152941 0.227451
0.454902 0.160784 0.235294
0.494118 0.160784 0.235294
0.545098 0.168627 0.247059
0.596078 0.172549 0.254902
