assets/luts/cinematic/RR Prima KD 5213 Vis3.cube
#Generated by Picture Instruments - Unlimited Filters
TITLE "RR Prima KD 5213 Vis3"
LUT_3D_SIZE 5
0 0 0.0470588
0.160784 0.0666667 0.0784314
0.313725 0.0980392 0.117647
0.47451 0.133333 0.164706
0.690196 0.196078 0.231373
0.152941 0.203922 0.129412
0.223529 0.219608 0.12549
0.352941 0.239216 0.133333
0.509804 0.247059 0.176471
0.717647 0.294118 0.235294
0.286275 0.384314 0.211765
0.32549 0.396078 0.223529
0.447059 0.431373 0.211765
0.596078 0.447059 0.211765
0.764706 0.501961 0.243137
0.458824 0.603922 0.298039
0.486275 0.611765 0.301961
0.580392 0.639216 0.305882
0.721569 0.682353 0.301961
0.878431 0.717647 0.333333
0.752941 0.960784 0.513725
0.768627 0.960784 0.517647
0.827451 0.964706 0.541176
0.92549 0.988235 0.541176
0.992157 0.984314 0.556863
0.0784314 0.0745098 0.196078
0.164706 0.0980392 0.215686
0.298039 0.180392 0.243137
0.490196 0.188235 0.282353
0.686275 0.196078 0.305882
0.145098 0.223529 0.235294
0.223529 0.25098 0.266667
0.364706 0.25098 0.270588
0.521569 0.254902 0.278431
0.713725 0.282353 0.309804
0.298039 0.403922 0.278431
0.333333 0.423529 0.301961
0.454902 0.45098 0.305882
0.588235 0.462745 0.294118
0.768627 0.498039 0.321569
0.454902 0.607843 0.333333
0.478431 0.623529 0.34902
0.568627 0.643137 0.364706
0.717647 0.694118 0.368627
0.878431 0.729412 0.396078
0.741176 0.952941 0.52549
0.756863 0.960784 0.537255
0.819608 0.968627 0.568627
0.921569 0.988235 0.572549
0.992157 0.984314 0.588235
0.137255 0.141176 0.337255
0.196078 0.160784 0.356863
0.321569 0.180392 0.364706
0.403922 0.298039 0.360784
0.639216 0.333333 0.439216
0.207843 0.254902 0.380392
0.25098 0.266667 0.403922
0.372549 0.27451 0.415686
0.462745 0.364706 0.415686
0.686275 0.376471 0.478431
0.27451 0.423529 0.415686
0.309804 0.443137 0.435294
0.47451 0.501961 0.490196
0.607843 0.47451 0.470588
0.776471 0.482353 0.478431
0.388235 0.627451 0.411765
0.431373 0.647059 0.439216
0.568627 0.67451 0.490196
0.721569 0.721569 0.517647
0.87451 0.74902 0.517647
0.678431 0.952941 0.568627
0.705882 0.964706 0.584314
0.796078 0.976471 0.623529
0.909804 0.988235 0.647059
0.992157 0.992157 0.670588
0.227451 0.219608 0.501961
0.262745 0.231373 0.517647
0.368627 0.223529 0.529412
0.509804 0.243137 0.541176
0.631373 0.396078 0.556863
0.27451 0.294118 0.545098
0.305882 0.309804 0.564706
0.411765 0.301961 0.580392
0.556863 0.313725 0.588235
0.666667 0.454902 0.596078
0.337255 0.447059 0.572549
0.356863 0.458824 0.588235
0.462745 0.47451 0.615686
0.615686 0.482353 0.627451
0.701961 0.588235 0.635294
0.360784 0.635294 0.592157
0.380392 0.65098 0.607843
0.509804 0.682353 0.639216
0.741176 0.784314 0.72549
0.866667 0.745098 0.698039
0.52549 0.972549 0.639216
0.545098 0.984314 0.647059
0.658824 0.988235 0.666667
0.87451 0.988235 0.756863
0.992157 0.992157 0.803922
0.458824 0.427451 0.811765
0.490196 0.443137 0.827451
0.564706 0.435294 0.831373
0.694118 0.415686 0.847059
0.827451 0.462745 0.843137
0.509804 0.498039 0.847059
0.529412 0.509804 0.862745
0.6 0.498039 0.862745
0.72549 0.47451 0.882353
0.862745 0.509804 0.882353
0.533333 0.615686 0.862745
0.552941 0.619608 0.866667
0.623529 0.615686 0.87451
0.741176 0.596078 0.890196
0.886275 0.619608 0.898039
0.588235 0.792157 0.886275
0.596078 0.796078 0.894118
0.65098 0.792157 0.894118
0.760784 0.788235 0.909804
0.921569 0.796078 0.92549
0.611765 0.988235 0.937255
0.623529 0.988235 0.941176
0.666667 0.988235 0.937255
0.807843 0.992157 0.94902
0.988235 0.996078 0.972549
