assets/luts/cinematic/RR Prima FJ 8543.cube
#Generated by Picture Instruments - Unlimited Filters
TITLE "RR Prima FJ 8543"
LUT_3D_SIZE 9
0.00392157 0 0.0627451
0.105882 0 0.0980392
0.231373 0 0.101961
0.317647 0 0.105882
0.388235 0.00392157 0.113725
0.45098 0.0117647 0.141176
0.52549 0.0313725 0.164706
0.615686 0.0745098 0.192157
0.713725 0.141176 0.231373
0.133333 0.145098 0.0980392
0.180392 0.156863 0.0862745
0.266667 0.188235 0.0862745
0.341176 0.160784 0.101961
0.415686 0.145098 0.12549
0.482353 0.141176 0.14902
0.552941 0.141176 0.172549
0.639216 0.160784 0.2
0.729412 0.203922 0.235294
0.219608 0.254902 0.137255
0.243137 0.262745 0.133333
0.309804 0.282353 0.121569
0.384314 0.298039 0.109804
0.439216 0.309804 0.121569
0.501961 0.290196 0.14902
0.576471 0.282353 0.180392
0.658824 0.286275 0.2
0.74902 0.313725 0.235294
0.294118 0.345098 0.176471
0.317647 0.360784 0.180392
0.372549 0.376471 0.176471
0.443137 0.403922 0.168627
0.52549 0.427451 0.168627
0.560784 0.435294 0.164706
0.615686 0.435294 0.180392
0.686275 0.423529 0.2
0.772549 0.454902 0.235294
0.388235 0.454902 0.227451
0.403922 0.466667 0.227451
0.427451 0.454902 0.227451
0.498039 0.498039 0.223529
0.572549 0.52549 0.219608
0.662745 0.552941 0.227451
0.701961 0.564706 0.219608
0.741176 0.580392 0.211765
0.811765 0.596078 0.243137
0.486275 0.572549 0.282353
0.490196 0.572549 0.278431
0.513725 0.564706 0.27451
0.556863 0.576471 0.27451
0.639216 0.627451 0.27451
0.709804 0.654902 0.286275
0.8 0.686275 0.317647
0.835294 0.694118 0.301961
0.87451 0.717647 0.301961
0.596078 0.698039 0.345098
0.596078 0.694118 0.337255
0.615686 0.690196 0.337255
0.639216 0.67451 0.32549
0.705882 0.717647 0.337255
0.776471 0.760784 0.352941
0.835294 0.776471 0.372549
0.909804 0.8 0.423529
0.941176 0.811765 0.423529
0.717647 0.827451 0.439216
0.717647 0.827451 0.431373
0.733333 0.827451 0.431373
0.752941 0.815686 0.423529
0.792157 0.823529 0.419608
0.843137 0.85098 0.439216
0.898039 0.878431 0.458824
0.941176 0.886275 0.482353
0.972549 0.886275 0.52549
0.847059 0.956863 0.603922
0.847059 0.960784 0.603922
0.862745 0.956863 0.603922
0.878431 0.952941 0.596078
0.905882 0.94902 0.588235
0.941176 0.964706 0.596078
0.972549 0.972549 0.607843
0.992157 0.968627 0.627451
0.992157 0.960784 0.654902
0.0588235 0.0509804 0.14902
0.117647 0.00784314 0.172549
0.231373 0.0784314 0.215686
0.286275 0.117647 0.203922
0.360784 0.105882 0.2
0.435294 0.0823529 0.2
0.509804 0.0862745 0.207843
0.603922 0.101961 0.227451
0.705882 0.152941 0.262745
0.121569 0.141176 0.164706
0.160784 0.164706 0.184314
0.235294 0.164706 0.188235
0.313725 0.152941 0.192157
0.388235 0.152941 0.196078
0.462745 0.14902 0.207843
0.537255 0.152941 0.219608
0.627451 0.152941 0.235294
0.721569 0.196078 0.266667
0.207843 0.254902 0.188235
0.231373 0.262745 0.2
0.286275 0.270588 0.2
0.356863 0.294118 0.196078
0.423529 0.294118 0.2
0.494118 0.282353 0.211765
0.568627 0.278431 0.223529
0.647059 0.278431 0.239216
0.737255 0.309804 0.266667
0.298039 0.356863 0.215686
0.313725 0.372549 0.231373
0.356863 0.368627 0.227451
0.427451 0.4 0.223529
0.505882 0.419608 0.227451
0.545098 0.431373 0.215686
0.6 0.423529 0.223529
0.678431 0.419608 0.239216
0.764706 0.439216 0.266667
0.384314 0.458824 0.247059
0.4 0.470588 0.262745
0.423529 0.458824 0.258824
0.494118 0.498039 0.262745
0.568627 0.52549 0.266667
0.654902 0.552941 0.27451
0.686275 0.556863 0.258824
0.733333 0.580392 0.247059
0.803922 0.592157 0.278431
0.490196 0.572549 0.298039
0.490196 0.580392 0.301961
0.509804 0.568627 0.301961
0.545098 0.568627 0.298039
0.631373 0.623529 0.305882
0.701961 0.65098 0.317647
0.788235 0.686275 0.352941
0.831373 0.698039 0.333333
0.87451 0.717647 0.333333
0.596078 0.694118 0.352941
0.596078 0.701961 0.364706
0.611765 0.698039 0.360784
0.639216 0.678431 0.34902
0.694118 0.713725 0.360784
0.772549 0.756863 0.372549
0.831373 0.776471 0.4
0.898039 0.8 0.45098
0.937255 0.815686 0.45098
0.709804 0.823529 0.443137
0.713725 0.827451 0.45098
0.721569 0.823529 0.447059
0.752941 0.815686 0.435294
0.784314 0.815686 0.431373
0.843137 0.85098 0.454902
0.898039 0.878431 0.478431
0.937255 0.882353 0.501961
0.964706 0.886275 0.545098
0.835294 0.94902 0.596078
0.843137 0.960784 0.611765
0.854902 0.956863 0.611765
0.87451 0.952941 0.603922
0.905882 0.94902 0.6
0.933333 0.960784 0.603922
0.972549 0.972549 0.619608
0.992157 0.968627 0.631373
0.992157 0.964706 0.670588
0.109804 0.0627451 0.247059
0.145098 0.0745098 0.266667
0.231373 0.0823529 0.27451
0.309804 0.121569 0.313725
0.384314 0.160784 0.313725
0.427451 0.196078 0.301961
0.482353 0.219608 0.298039
0.576471 0.203922 0.305882
0.67451 0.2 0.329412
0.156863 0.156863 0.239216
0.180392 0.176471 0.25098
0.243137 0.180392 0.27451
0.329412 0.2 0.321569
0.388235 0.207843 0.313725
0.435294 0.231373 0.301961
0.509804 0.227451 0.301961
0.596078 0.207843 0.309804
0.686275 0.2 0.313725
0.2 0.243137 0.25098
0.219608 0.262745 0.266667
0.278431 0.290196 0.282353
0.329412 0.278431 0.27451
0.392157 0.270588 0.278431
0.462745 0.266667 0.282353
0.537255 0.262745 0.282353
0.623529 0.262745 0.298039
0.709804 0.278431 0.309804
0.282353 0.376471 0.290196
0.290196 0.388235 0.298039
0.341176 0.376471 0.294118
0.4 0.388235 0.301961
0.466667 0.411765 0.298039
0.513725 0.411765 0.290196
0.584314 0.4 0.298039
0.666667 0.403922 0.301961
0.745098 0.415686 0.321569
0.376471 0.470588 0.313725
0.388235 0.486275 0.329412
0.419608 0.478431 0.329412
0.462745 0.478431 0.317647
0.545098 0.517647 0.333333
0.623529 0.545098 0.345098
0.658824 0.552941 0.32549
0.709804 0.560784 0.313725
0.792157 0.564706 0.337255
0.47451 0.580392 0.352941
0.482353 0.592157 0.360784
0.501961 0.580392 0.356863
0.529412 0.560784 0.345098
0.615686 0.615686 0.360784
0.686275 0.65098 0.380392
0.772549 0.686275 0.415686
0.811765 0.690196 0.384314
0.858824 0.717647 0.388235
0.588235 0.701961 0.4
0.592157 0.713725 0.415686
0.603922 0.705882 0.411765
0.635294 0.686275 0.396078
0.678431 0.701961 0.4
0.760784 0.752941 0.423529
0.815686 0.776471 0.454902
0.886275 0.803922 0.505882
0.929412 0.815686 0.501961
0.705882 0.827451 0.486275
0.705882 0.835294 0.494118
0.717647 0.827451 0.490196
0.741176 0.819608 0.478431
0.776471 0.811765 0.466667
0.827451 0.843137 0.490196
0.886275 0.87451 0.509804
0.92549 0.882353 0.545098
0.964706 0.894118 0.607843
0.831373 0.956863 0.627451
0.835294 0.960784 0.643137
0.843137 0.956863 0.639216
0.862745 0.952941 0.631373
0.898039 0.94902 0.623529
0.929412 0.960784 0.631373
0.964706 0.972549 0.643137
0.992157 0.968627 0.666667
0.988235 0.960784 0.698039
0.156863 0.101961 0.321569
0.176471 0.129412 0.333333
0.254902 0.141176 0.356863
0.34902 0.160784 0.380392
0.419608 0.203922 0.407843
0.521569 0.235294 0.454902
0.552941 0.254902 0.415686
0.6 0.270588 0.396078
0.666667 0.294118 0.419608
0.196078 0.180392 0.313725
0.207843 0.196078 0.329412
0.270588 0.203922 0.356863
0.356863 0.211765 0.388235
0.435294 0.247059 0.431373
0.537255 0.270588 0.47451
0.568627 0.286275 0.443137
0.615686 0.294118 0.427451
0.678431 0.313725 0.439216
0.211765 0.231373 0.282353
0.219608 0.243137 0.294118
0.286275 0.290196 0.337255
0.364706 0.309804 0.376471
0.45098 0.337255 0.431373
0.501961 0.333333 0.423529
0.537255 0.329412 0.396078
0.592157 0.32549 0.392157
0.686275 0.333333 0.411765
0.286275 0.352941 0.341176
0.301961 0.368627 0.356863
0.341176 0.388235 0.368627
0.407843 0.423529 0.392157
0.443137 0.4 0.372549
0.494118 0.384314 0.364706
0.556863 0.376471 0.364706
0.635294 0.368627 0.368627
0.729412 0.388235 0.388235
0.376471 0.501961 0.407843
0.392157 0.52549 0.427451
0.411765 0.517647 0.411765
0.454902 0.494118 0.396078
0.521569 0.517647 0.403922
0.580392 0.533333 0.403922
0.623529 0.533333 0.384314
0.698039 0.52549 0.388235
0.772549 0.545098 0.403922
0.466667 0.603922 0.423529
0.47451 0.619608 0.443137
0.494118 0.611765 0.435294
0.529412 0.588235 0.423529
0.584314 0.596078 0.419608
0.666667 0.647059 0.454902
0.745098 0.682353 0.486275
0.784314 0.686275 0.45098
0.831373 0.709804 0.439216
0.580392 0.717647 0.478431
0.588235 0.729412 0.486275
0.6 0.721569 0.482353
0.623529 0.705882 0.466667
0.658824 0.686275 0.45098
0.745098 0.74902 0.490196
0.803922 0.776471 0.52549
0.878431 0.807843 0.576471
0.917647 0.823529 0.560784
0.694118 0.835294 0.54902
0.698039 0.843137 0.556863
0.713725 0.843137 0.552941
0.733333 0.831373 0.545098
0.764706 0.819608 0.52549
0.807843 0.835294 0.533333
0.878431 0.87451 0.572549
0.917647 0.886275 0.607843
0.956863 0.901961 0.662745
0.819608 0.956863 0.670588
0.819608 0.964706 0.686275
0.835294 0.960784 0.682353
0.854902 0.956863 0.67451
0.882353 0.952941 0.662745
0.921569 0.956863 0.666667
0.956863 0.972549 0.682353
0.984314 0.972549 0.709804
0.988235 0.968627 0.741176
0.196078 0.141176 0.376471
0.203922 0.164706 0.380392
0.262745 0.176471 0.403922
0.352941 0.188235 0.443137
0.435294 0.215686 0.47451
0.494118 0.254902 0.494118
0.607843 0.301961 0.572549
0.67451 0.317647 0.564706
0.729412 0.34902 0.572549
0.219608 0.188235 0.368627
0.227451 0.203922 0.384314
0.278431 0.215686 0.407843
0.364706 0.231373 0.454902
0.458824 0.254902 0.494118
0.521569 0.290196 0.521569
0.635294 0.341176 0.615686
0.701961 0.34902 0.603922
0.756863 0.380392 0.611765
0.239216 0.25098 0.341176
0.247059 0.266667 0.356863
0.290196 0.282353 0.388235
0.364706 0.309804 0.431373
0.454902 0.337255 0.478431
0.529412 0.368627 0.517647
0.643137 0.396078 0.596078
0.686275 0.392157 0.568627
0.741176 0.411765 0.572549
0.266667 0.305882 0.341176
0.278431 0.317647 0.352941
0.294118 0.32549 0.352941
0.384314 0.388235 0.411765
0.47451 0.431373 0.470588
0.552941 0.458824 0.529412
0.607843 0.447059 0.52549
0.643137 0.427451 0.494118
0.709804 0.431373 0.509804
0.368627 0.45098 0.431373
0.380392 0.462745 0.447059
0.403922 0.47451 0.45098
0.454902 0.498039 0.462745
0.517647 0.533333 0.486275
0.545098 0.505882 0.466667
0.596078 0.486275 0.45098
0.662745 0.47451 0.45098
0.745098 0.486275 0.462745
0.494118 0.65098 0.54902
0.494118 0.658824 0.556863
0.513725 0.654902 0.54902
0.533333 0.639216 0.52549
0.568627 0.607843 0.498039
0.643137 0.643137 0.52549
0.701961 0.666667 0.52549
0.745098 0.658824 0.494118
0.811765 0.670588 0.505882
0.580392 0.752941 0.568627
0.584314 0.760784 0.580392
0.592157 0.756863 0.572549
0.619608 0.741176 0.564706
0.65098 0.713725 0.537255
0.705882 0.72549 0.541176
0.788235 0.776471 0.592157
0.854902 0.811765 0.631373
0.894118 0.823529 0.611765
0.690196 0.854902 0.627451
0.690196 0.858824 0.639216
0.701961 0.858824 0.635294
0.721569 0.847059 0.619608
0.74902 0.831373 0.596078
0.784314 0.819608 0.580392
0.866667 0.870588 0.627451
0.905882 0.890196 0.67451
0.94902 0.909804 0.72549
0.803922 0.964706 0.72549
0.807843 0.968627 0.737255
0.811765 0.968627 0.733333
0.835294 0.968627 0.729412
0.862745 0.960784 0.717647
0.901961 0.94902 0.701961
0.94902 0.968627 0.72549
0.976471 0.976471 0.760784
0.984314 0.972549 0.796078
0.211765 0.176471 0.411765
0.235294 0.192157 0.439216
0.278431 0.2 0.454902
0.34902 0.219608 0.494118
0.458824 0.243137 0.54902
0.537255 0.278431 0.576471
0.588235 0.321569 0.596078
0.686275 0.372549 0.670588
0.780392 0.431373 0.74902
0.227451 0.203922 0.407843
0.25098 0.215686 0.431373
0.290196 0.227451 0.462745
0.364706 0.25098 0.505882
0.470588 0.270588 0.564706
0.552941 0.305882 0.6
0.603922 0.345098 0.619608
0.717647 0.407843 0.717647
0.811765 0.466667 0.792157
0.247059 0.254902 0.392157
0.262745 0.266667 0.407843
0.294118 0.282353 0.431373
0.360784 0.305882 0.47451
0.462745 0.341176 0.537255
0.556863 0.372549 0.584314
0.611765 0.407843 0.615686
0.721569 0.462745 0.713725
0.807843 0.505882 0.768627
0.247059 0.282353 0.360784
0.262745 0.294118 0.372549
0.305882 0.329412 0.403922
0.368627 0.368627 0.45098
0.462745 0.415686 0.513725
0.560784 0.454902 0.572549
0.627451 0.490196 0.619608
0.737255 0.537255 0.717647
0.792157 0.541176 0.721569
0.309804 0.376471 0.403922
0.321569 0.380392 0.411765
0.337255 0.388235 0.415686
0.360784 0.396078 0.411765
0.47451 0.482353 0.498039
0.584314 0.545098 0.576471
0.662745 0.584314 0.639216
0.717647 0.572549 0.647059
0.772549 0.564706 0.647059
0.45098 0.564706 0.541176
0.458824 0.568627 0.545098
0.47451 0.576471 0.545098
0.509804 0.588235 0.552941
0.564706 0.619608 0.568627
0.631373 0.65098 0.596078
0.654902 0.619608 0.568627
0.705882 0.592157 0.54902
0.780392 0.592157 0.552941
0.623529 0.8 0.717647
0.623529 0.8 0.717647
0.627451 0.796078 0.709804
0.65098 0.784314 0.690196
0.662745 0.768627 0.658824
0.682353 0.729412 0.615686
0.760784 0.768627 0.65098
0.823529 0.796078 0.662745
0.862745 0.8 0.639216
0.701961 0.894118 0.74902
0.698039 0.886275 0.737255
0.705882 0.882353 0.733333
0.713725 0.878431 0.713725
0.737255 0.862745 0.698039
0.772549 0.839216 0.666667
0.827451 0.854902 0.670588
0.894118 0.890196 0.737255
0.941176 0.917647 0.784314
0.792157 0.980392 0.811765
0.788235 0.976471 0.803922
0.796078 0.976471 0.803922
0.819608 0.972549 0.8
0.839216 0.968627 0.788235
0.87451 0.960784 0.772549
0.929412 0.964706 0.764706
0.968627 0.976471 0.811765
0.976471 0.976471 0.843137
0.270588 0.211765 0.501961
0.282353 0.227451 0.517647
0.309804 0.231373 0.529412
0.364706 0.247059 0.560784
0.443137 0.258824 0.596078
0.560784 0.294118 0.658824
0.627451 0.337255 0.682353
0.67451 0.384314 0.701961
0.768627 0.458824 0.788235
0.278431 0.231373 0.501961
0.290196 0.243137 0.517647
0.321569 0.25098 0.537255
0.376471 0.262745 0.568627
0.462745 0.286275 0.619608
0.580392 0.321569 0.682353
0.65098 0.360784 0.709804
0.686275 0.407843 0.721569
0.788235 0.486275 0.815686
0.282353 0.266667 0.470588
0.290196 0.278431 0.486275
0.321569 0.290196 0.505882
0.372549 0.309804 0.545098
0.462745 0.341176 0.6
0.572549 0.376471 0.666667
0.65098 0.419608 0.698039
0.690196 0.454902 0.713725
0.792157 0.537255 0.815686
0.282353 0.301961 0.435294
0.294118 0.317647 0.45098
0.317647 0.329412 0.466667
0.372549 0.356863 0.509804
0.458824 0.4 0.572549
0.568627 0.45098 0.643137
0.658824 0.501961 0.698039
0.709804 0.541176 0.721569
0.803922 0.603922 0.819608
0.254902 0.301961 0.376471
0.258824 0.305882 0.384314
0.286275 0.329412 0.407843
0.356863 0.384314 0.462745
0.447059 0.443137 0.533333
0.568627 0.517647 0.623529
0.67451 0.580392 0.694118
0.737255 0.623529 0.741176
0.823529 0.678431 0.835294
0.364706 0.454902 0.486275
0.372549 0.462745 0.498039
0.380392 0.462745 0.494118
0.396078 0.462745 0.490196
0.411765 0.45098 0.470588
0.564706 0.580392 0.592157
0.701961 0.67451 0.698039
0.776471 0.717647 0.772549
0.839216 0.721569 0.8
0.560784 0.690196 0.662745
0.556863 0.682353 0.662745
0.564706 0.690196 0.666667
0.588235 0.698039 0.670588
0.627451 0.713725 0.67451
0.682353 0.741176 0.698039
0.741176 0.772549 0.717647
0.764706 0.729412 0.682353
0.827451 0.72549 0.678431
0.733333 0.905882 0.858824
0.737255 0.913725 0.870588
0.745098 0.917647 0.866667
0.752941 0.913725 0.854902
0.776471 0.905882 0.835294
0.780392 0.890196 0.803922
0.8 0.854902 0.74902
0.878431 0.894118 0.803922
0.92549 0.921569 0.831373
0.807843 0.980392 0.886275
0.807843 0.984314 0.894118
0.815686 0.984314 0.890196
0.819608 0.984314 0.882353
0.835294 0.984314 0.87451
0.858824 0.976471 0.858824
0.905882 0.972549 0.835294
0.960784 0.988235 0.87451
0.964706 0.984314 0.905882
0.329412 0.262745 0.611765
0.341176 0.278431 0.631373
0.364706 0.282353 0.643137
0.407843 0.286275 0.662745
0.470588 0.298039 0.686275
0.560784 0.329412 0.737255
0.670588 0.368627 0.788235
0.72549 0.411765 0.807843
0.760784 0.47451 0.815686
0.337255 0.27451 0.619608
0.34902 0.290196 0.643137
0.380392 0.298039 0.654902
0.427451 0.305882 0.678431
0.498039 0.32549 0.717647
0.576471 0.345098 0.756863
0.686275 0.388235 0.811765
0.741176 0.431373 0.831373
0.772549 0.490196 0.831373
0.333333 0.301961 0.596078
0.345098 0.317647 0.615686
0.372549 0.32549 0.631373
0.419608 0.341176 0.658824
0.486275 0.356863 0.698039
0.580392 0.392157 0.74902
0.690196 0.447059 0.803922
0.74902 0.486275 0.831373
0.780392 0.537255 0.831373
0.32549 0.337255 0.564706
0.337255 0.34902 0.580392
0.360784 0.356863 0.596078
0.411765 0.376471 0.627451
0.482353 0.407843 0.67451
0.580392 0.454902 0.733333
0.690196 0.509804 0.796078
0.756863 0.560784 0.823529
0.788235 0.6 0.835294
0.286275 0.341176 0.509804
0.290196 0.345098 0.517647
0.317647 0.364706 0.537255
0.380392 0.4 0.576471
0.462745 0.447059 0.639216
0.572549 0.509804 0.709804
0.694118 0.584314 0.784314
0.772549 0.639216 0.827451
0.807843 0.67451 0.843137
0.278431 0.372549 0.47451
0.282353 0.380392 0.486275
0.282353 0.364706 0.47451
0.301961 0.372549 0.482353
0.4 0.443137 0.560784
0.537255 0.541176 0.658824
0.690196 0.643137 0.764706
0.784314 0.713725 0.827451
0.843137 0.756863 0.870588
0.435294 0.580392 0.627451
0.443137 0.592157 0.643137
0.447059 0.588235 0.639216
0.458824 0.576471 0.627451
0.466667 0.564706 0.611765
0.462745 0.52549 0.564706
0.658824 0.67451 0.709804
0.811765 0.8 0.835294
0.886275 0.85098 0.909804
0.65098 0.811765 0.803922
0.658824 0.815686 0.811765
0.662745 0.815686 0.807843
0.678431 0.819608 0.811765
0.705882 0.827451 0.807843
0.745098 0.839216 0.823529
0.8 0.866667 0.835294
0.85098 0.894118 0.858824
0.898039 0.878431 0.847059
0.827451 0.980392 0.960784
0.827451 0.980392 0.960784
0.835294 0.984314 0.964706
0.85098 0.988235 0.968627
0.866667 0.992157 0.968627
0.882353 0.992157 0.964706
0.901961 0.992157 0.945098
0.941176 0.988235 0.929412
0.956863 0.996078 0.960784
0.435294 0.372549 0.788235
0.454902 0.388235 0.807843
0.466667 0.388235 0.807843
0.501961 0.392157 0.819608
0.545098 0.396078 0.835294
0.615686 0.415686 0.862745
0.698039 0.443137 0.901961
0.784314 0.478431 0.92549
0.819608 0.533333 0.933333
0.462745 0.4 0.823529
0.470588 0.411765 0.835294
0.490196 0.411765 0.843137
0.529412 0.419608 0.854902
0.576471 0.419608 0.870588
0.643137 0.439216 0.901961
0.713725 0.462745 0.92549
0.796078 0.501961 0.952941
0.831373 0.54902 0.956863
0.466667 0.427451 0.819608
0.47451 0.439216 0.831373
0.494118 0.443137 0.839216
0.52549 0.447059 0.847059
0.580392 0.462745 0.870588
0.647059 0.482353 0.894118
0.721569 0.509804 0.921569
0.803922 0.54902 0.952941
0.839216 0.592157 0.956863
0.462745 0.462745 0.803922
0.470588 0.47451 0.815686
0.490196 0.482353 0.823529
0.529412 0.490196 0.847059
0.584314 0.509804 0.862745
0.65098 0.537255 0.890196
0.72549 0.564706 0.917647
0.811765 0.603922 0.952941
0.847059 0.647059 0.956863
0.447059 0.501961 0.792157
0.45098 0.509804 0.8
0.47451 0.517647 0.807843
0.521569 0.537255 0.831373
0.576471 0.556863 0.858824
0.65098 0.588235 0.882353
0.733333 0.627451 0.913725
0.811765 0.666667 0.945098
0.862745 0.713725 0.960784
0.396078 0.521569 0.760784
0.403922 0.533333 0.776471
0.415686 0.533333 0.784314
0.462745 0.552941 0.811765
0.545098 0.592157 0.827451
0.639216 0.631373 0.87451
0.72549 0.67451 0.901961
0.827451 0.737255 0.94902
0.878431 0.780392 0.964706
0.486275 0.658824 0.815686
0.490196 0.666667 0.823529
0.494118 0.662745 0.827451
0.490196 0.65098 0.815686
0.482353 0.615686 0.796078
0.576471 0.65098 0.847059
0.721569 0.733333 0.905882
0.831373 0.803922 0.94902
0.901961 0.862745 0.972549
0.654902 0.835294 0.917647
0.654902 0.835294 0.921569
0.658824 0.839216 0.929412
0.662745 0.839216 0.921569
0.686275 0.835294 0.921569
0.682353 0.815686 0.905882
0.705882 0.807843 0.909804
0.839216 0.87451 0.952941
0.929412 0.945098 0.988235
0.803922 0.960784 0.980392
0.796078 0.960784 0.984314
0.807843 0.964706 0.984314
0.819608 0.964706 0.984314
0.835294 0.968627 0.984314
0.858824 0.976471 0.984314
0.890196 0.984314 0.988235
0.929412 0.992157 0.992157
0.952941 0.996078 0.992157
