assets/luts/cinematic/RR Prima KD Elite.cube
#Generated by Picture Instruments - Unlimited Filters
TITLE "RR Prima KD Elite"
LUT_3D_SIZE 5
0.00392157 0.00392157 0.0509804
0.160784 0.0431373 0.0823529
0.32549 0.0196078 0.105882
0.501961 0.0156863 0.137255
0.72549 0.0431373 0.196078
0.137255 0.211765 0.0313725
0.215686 0.211765 0.0352941
0.356863 0.223529 0.0745098
0.529412 0.207843 0.117647
0.74902 0.215686 0.184314
0.247059 0.407843 0.0156863
0.313725 0.423529 0
0.45098 0.423529 0
0.588235 0.419608 0
0.784314 0.454902 0.12549
0.376471 0.647059 0
0.415686 0.647059 0
0.54902 0.658824 0
0.709804 0.666667 0
0.862745 0.666667 0.0705882
0.513725 0.976471 0.0235294
0.537255 0.968627 0
0.686275 0.980392 0.00392157
0.878431 0.988235 0
0.992157 0.968627 0.176471
0.0235294 0.0823529 0.2
0.168627 0.0901961 0.219608
0.301961 0.164706 0.235294
0.509804 0.129412 0.254902
0.729412 0.0392157 0.262745
0.121569 0.203922 0.219608
0.207843 0.235294 0.25098
0.360784 0.227451 0.247059
0.533333 0.211765 0.243137
0.74902 0.207843 0.25098
0.219608 0.407843 0.2
0.282353 0.427451 0.203922
0.443137 0.431373 0.211765
0.584314 0.427451 0.196078
0.788235 0.454902 0.196078
0.34902 0.627451 0.0352941
0.384314 0.647059 0.0196078
0.537255 0.662745 0
0.713725 0.678431 0
0.882353 0.67451 0.12549
0.490196 0.968627 0.0392157
0.52549 0.976471 0.0352941
0.682353 0.984314 0.0313725
0.882353 0.988235 0.0313725
0.992157 0.968627 0.196078
0.027451 0.156863 0.352941
0.160784 0.164706 0.368627
0.321569 0.160784 0.372549
0.407843 0.278431 0.352941
0.662745 0.298039 0.427451
0.188235 0.278431 0.392157
0.207843 0.266667 0.407843
0.364706 0.254902 0.415686
0.458824 0.341176 0.403922
0.713725 0.333333 0.466667
0.227451 0.392157 0.396078
0.266667 0.411765 0.411765
0.454902 0.486275 0.47451
0.596078 0.439216 0.435294
0.792157 0.423529 0.427451
0.227451 0.615686 0.345098
0.254902 0.639216 0.352941
0.482353 0.670588 0.352941
0.705882 0.690196 0.376471
0.870588 0.690196 0.360784
0.356863 0.972549 0.0980392
0.407843 0.984314 0.0941176
0.627451 0.988235 0.0745098
0.870588 0.988235 0.0705882
0.988235 0.976471 0.258824
0.117647 0.25098 0.541176
0.180392 0.258824 0.560784
0.345098 0.231373 0.568627
0.521569 0.215686 0.564706
0.654902 0.376471 0.576471
0.2 0.337255 0.588235
0.231373 0.337255 0.603922
0.384314 0.313725 0.615686
0.572549 0.290196 0.611765
0.686275 0.435294 0.607843
0.309804 0.501961 0.588235
0.333333 0.513725 0.603922
0.411765 0.470588 0.627451
0.6 0.447059 0.627451
0.701961 0.568627 0.627451
0.258824 0.584314 0.560784
0.282353 0.596078 0.576471
0.431373 0.635294 0.607843
0.713725 0.756863 0.701961
0.862745 0.698039 0.654902
0.0862745 0.972549 0.619608
0.0627451 0.984314 0.623529
0.384314 0.988235 0.572549
0.780392 0.988235 0.52549
0.988235 0.992157 0.580392
0.435294 0.541176 0.878431
0.470588 0.556863 0.890196
0.552941 0.533333 0.894118
0.698039 0.470588 0.894118
0.85098 0.470588 0.878431
0.482353 0.603922 0.909804
0.509804 0.611765 0.913725
0.584314 0.584314 0.913725
0.721569 0.529412 0.917647
0.878431 0.517647 0.913725
0.572549 0.745098 0.905882
0.576471 0.737255 0.909804
0.6 0.686275 0.917647
0.729412 0.635294 0.92549
0.894118 0.619608 0.921569
0.576471 0.870588 0.905882
0.596078 0.87451 0.909804
0.654902 0.87451 0.909804
0.733333 0.807843 0.929412
0.917647 0.780392 0.937255
0.462745 0.984314 0.937255
0.486275 0.988235 0.945098
0.556863 0.988235 0.937255
0.745098 0.988235 0.941176
0.984314 0.992157 0.964706
