assets/luts/cinematic/RR Prima FJ 8543.cube
#Generated by Picture Instruments - Unlimited Filters
TITLE "RR Prima FJ 8543"
LUT_3D_SIZE 5
0.00392157 0 0.0627451
0.231373 0 0.101961
0.388235 0.00392157 0.113725
0.52549 0.0313725 0.164706
0.713725 0.141176 0.231373
0.219608 0.254902 0.137255
0.309804 0.282353 0.121569
0.439216 0.309804 0.121569
0.576471 0.282353 0.180392
0.74902 0.313725 0.235294
0.388235 0.454902 0.227451
0.427451 0.454902 0.227451
0.572549 0.52549 0.219608
0.701961 0.564706 0.219608
0.811765 0.596078 0.243137
0.596078 0.698039 0.345098
0.615686 0.690196 0.337255
0.705882 0.717647 0.337255
0.835294 0.776471 0.372549
0.941176 0.811765 0.423529
0.847059 0.956863 0.603922
0.862745 0.956863 0.603922
0.905882 0.94902 0.588235
0.972549 0.972549 0.607843
0.992157 0.960784 0.654902
0.109804 0.0627451 0.247059
0.231373 0.0823529 0.27451
0.384314 0.160784 0.313725
0.482353 0.219608 0.298039
0.67451 0.2 0.329412
0.2 0.243137 0.25098
0.278431 0.290196 0.282353
0.392157 0.270588 0.278431
0.537255 0.262745 0.282353
0.709804 0.278431 0.309804
0.376471 0.470588 0.313725
0.419608 0.478431 0.329412
0.545098 0.517647 0.333333
0.658824 0.552941 0.32549
0.792157 0.564706 0.337255
0.588235 0.701961 0.4
0.603922 0.705882 0.411765
0.678431 0.701961 0.4
0.815686 0.776471 0.454902
0.929412 0.815686 0.501961
0.831373 0.956863 0.627451
0.843137 0.956863 0.639216
0.898039 0.94902 0.623529
0.964706 0.972549 0.643137
0.988235 0.960784 0.698039
0.196078 0.141176 0.376471
0.262745 0.176471 0.403922
0.435294 0.215686 0.47451
0.607843 0.301961 0.572549
0.729412 0.34902 0.572549
0.239216 0.25098 0.341176
0.290196 0.282353 0.388235
0.454902 0.337255 0.478431
0.643137 0.396078 0.596078
0.741176 0.411765 0.572549
0.368627 0.45098 0.431373
0.403922 0.47451 0.45098
0.517647 0.533333 0.486275
0.596078 0.486275 0.45098
0.745098 0.486275 0.462745
0.580392 0.752941 0.568627
0.592157 0.756863 0.572549
0.65098 0.713725 0.537255
0.788235 0.776471 0.592157
0.894118 0.823529 0.611765
0.803922 0.964706 0.72549
0.811765 0.968627 0.733333
0.862745 0.960784 0.717647
0.94902 0.968627 0.72549
0.984314 0.972549 0.796078
0.270588 0.211765 0.501961
0.309804 0.231373 0.529412
0.443137 0.258824 0.596078
0.627451 0.337255 0.682353
0.768627 0.458824 0.788235
0.282353 0.266667 0.470588
0.321569 0.290196 0.505882
0.462745 0.341176 0.6
0.65098 0.419608 0.698039
0.792157 0.537255 0.815686
0.254902 0.301961 0.376471
0.286275 0.329412 0.407843
0.447059 0.443137 0.533333
0.67451 0.580392 0.694118
0.823529 0.678431 0.835294
0.560784 0.690196 0.662745
0.564706 0.690196 0.666667
0.627451 0.713725 0.67451
0.741176 0.772549 0.717647
0.827451 0.72549 0.678431
0.807843 0.980392 0.886275
0.815686 0.984314 0.890196
0.835294 0.984314 0.87451
0.905882 0.972549 0.835294
0.964706 0.984314 0.905882
0.435294 0.372549 0.788235
0.466667 0.388235 0.807843
0.545098 0.396078 0.835294
0.698039 0.443137 0.901961
0.819608 0.533333 0.933333
0.466667 0.427451 0.819608
0.494118 0.443137 0.839216
0.580392 0.462745 0.870588
0.721569 0.509804 0.921569
0.839216 0.592157 0.956863
0.447059 0.501961 0.792157
0.47451 0.517647 0.807843
0.576471 0.556863 0.858824
0.733333 0.627451 0.913725
0.862745 0.713725 0.960784
0.486275 0.658824 0.815686
0.494118 0.662745 0.827451
0.482353 0.615686 0.796078
0.721569 0.733333 0.905882
0.901961 0.862745 0.972549
0.803922 0.960784 0.980392
0.807843 0.964706 0.984314
0.835294 0.968627 0.984314
0.890196 0.984314 0.988235
0.952941 0.996078 0.992157
