assets/luts/cinematic/RR Prima KD 5213 Vis3.cube
#Generated by Picture Instruments - Unlimited Filters
TITLE "RR Prima KD 5213 Vis3"
LUT_3D_SIZE 9
0 0 0.0470588
0.0901961 0.0352941 0.0666667
0.160784 0.0666667 0.0784314
0.235294 0.0862745 0.0980392
0.313725 0.0980392 0.117647
0.388235 0.117647 0.137255
0.47451 0.133333 0.164706
0.576471 0.156863 0.188235
0.690196 0.196078 0.231373
0.0901961 0.113725 0.0862745
0.117647 0.121569 0.0823529
0.184314 0.137255 0.0941176
0.254902 0.141176 0.105882
0.337255 0.14902 0.129412
0.415686 0.160784 0.14902
0.494118 0.168627 0.168627
0.6 0.188235 0.2
0.705882 0.223529 0.235294
0.152941 0.203922 0.129412
0.168627 0.207843 0.133333
0.223529 0.219608 0.12549
0.282353 0.227451 0.12549
0.352941 0.239216 0.133333
0.423529 0.243137 0.152941
0.509804 0.247059 0.176471
0.607843 0.262745 0.2
0.717647 0.294118 0.235294
0.215686 0.290196 0.168627
0.235294 0.301961 0.176471
0.27451 0.313725 0.176471
0.333333 0.321569 0.168627
0.403922 0.32549 0.168627
0.458824 0.337255 0.168627
0.537255 0.34902 0.184314
0.631373 0.356863 0.203922
0.737255 0.396078 0.239216
0.286275 0.384314 0.211765
0.305882 0.396078 0.215686
0.32549 0.396078 0.223529
0.384314 0.419608 0.215686
0.447059 0.431373 0.211765
0.52549 0.431373 0.207843
0.596078 0.447059 0.211765
0.666667 0.470588 0.211765
0.764706 0.501961 0.243137
0.368627 0.482353 0.254902
0.372549 0.490196 0.254902
0.396078 0.490196 0.262745
0.439216 0.505882 0.258824
0.505882 0.533333 0.258824
0.576471 0.54902 0.25098
0.662745 0.552941 0.258824
0.733333 0.568627 0.258824
0.815686 0.607843 0.27451
0.458824 0.603922 0.298039
0.458824 0.603922 0.290196
0.486275 0.611765 0.301961
0.517647 0.611765 0.305882
0.580392 0.639216 0.305882
0.65098 0.670588 0.301961
0.721569 0.682353 0.301961
0.803922 0.682353 0.313725
0.878431 0.717647 0.333333
0.584314 0.768627 0.364706
0.580392 0.756863 0.352941
0.603922 0.768627 0.368627
0.631373 0.768627 0.368627
0.678431 0.780392 0.380392
0.733333 0.803922 0.380392
0.803922 0.831373 0.376471
0.87451 0.843137 0.380392
0.921569 0.835294 0.4
0.752941 0.960784 0.513725
0.752941 0.952941 0.509804
0.768627 0.960784 0.517647
0.792157 0.960784 0.529412
0.827451 0.964706 0.541176
0.870588 0.976471 0.541176
0.92549 0.988235 0.541176
0.992157 0.992157 0.541176
0.992157 0.984314 0.556863
0.0509804 0.0509804 0.121569
0.0901961 0.0588235 0.129412
0.14902 0.105882 0.141176
0.235294 0.113725 0.172549
0.321569 0.117647 0.172549
0.4 0.133333 0.188235
0.478431 0.14902 0.203922
0.580392 0.164706 0.223529
0.694118 0.2 0.262745
0.0862745 0.12549 0.141176
0.117647 0.137255 0.156863
0.188235 0.145098 0.164706
0.262745 0.14902 0.172549
0.341176 0.160784 0.184314
0.415686 0.164706 0.196078
0.498039 0.176471 0.211765
0.6 0.188235 0.227451
0.709804 0.223529 0.262745
0.156863 0.207843 0.164706
0.172549 0.223529 0.180392
0.219608 0.227451 0.180392
0.290196 0.239216 0.184314
0.360784 0.247059 0.192157
0.435294 0.247059 0.2
0.517647 0.25098 0.211765
0.611765 0.262745 0.227451
0.721569 0.294118 0.262745
0.223529 0.298039 0.196078
0.239216 0.313725 0.211765
0.270588 0.317647 0.215686
0.337255 0.329412 0.211765
0.396078 0.333333 0.207843
0.462745 0.345098 0.207843
0.533333 0.34902 0.215686
0.635294 0.356863 0.227451
0.737255 0.388235 0.262745
0.298039 0.388235 0.231373
0.301961 0.4 0.239216
0.329412 0.403922 0.247059
0.388235 0.423529 0.247059
0.45098 0.435294 0.243137
0.529412 0.435294 0.243137
0.592157 0.45098 0.239216
0.670588 0.478431 0.239216
0.764706 0.505882 0.266667
0.368627 0.486275 0.262745
0.376471 0.490196 0.27451
0.4 0.501961 0.278431
0.435294 0.505882 0.286275
0.509804 0.541176 0.282353
0.580392 0.552941 0.278431
0.662745 0.556863 0.282353
0.737255 0.576471 0.278431
0.819608 0.615686 0.294118
0.454902 0.6 0.298039
0.466667 0.611765 0.309804
0.486275 0.615686 0.313725
0.521569 0.619608 0.321569
0.576471 0.643137 0.32549
0.647059 0.670588 0.321569
0.717647 0.690196 0.321569
0.8 0.686275 0.333333
0.878431 0.721569 0.352941
0.572549 0.74902 0.360784
0.576471 0.756863 0.368627
0.588235 0.760784 0.364706
0.631373 0.768627 0.384314
0.670588 0.776471 0.388235
0.737255 0.803922 0.392157
0.807843 0.831373 0.392157
0.870588 0.835294 0.396078
0.917647 0.835294 0.415686
0.737255 0.945098 0.498039
0.74902 0.956863 0.517647
0.760784 0.956863 0.52549
0.792157 0.960784 0.537255
0.827451 0.968627 0.552941
0.862745 0.972549 0.545098
0.921569 0.988235 0.54902
0.984314 0.992157 0.545098
0.992157 0.984314 0.568627
0.0784314 0.0745098 0.196078
0.105882 0.0862745 0.215686
0.164706 0.0980392 0.215686
0.207843 0.160784 0.215686
0.298039 0.180392 0.243137
0.388235 0.184314 0.262745
0.490196 0.188235 0.282353
0.584314 0.172549 0.282353
0.686275 0.196078 0.305882
0.109804 0.145098 0.219608
0.133333 0.156863 0.231373
0.188235 0.156863 0.239216
0.231373 0.203922 0.243137
0.321569 0.203922 0.262745
0.419608 0.203922 0.278431
0.509804 0.192157 0.278431
0.603922 0.192157 0.286275
0.701961 0.215686 0.301961
0.145098 0.223529 0.235294
0.160784 0.235294 0.25098
0.223529 0.25098 0.266667
0.294118 0.254902 0.270588
0.364706 0.25098 0.270588
0.443137 0.254902 0.27451
0.521569 0.254902 0.278431
0.619608 0.262745 0.290196
0.713725 0.282353 0.309804
0.207843 0.317647 0.243137
0.219608 0.32549 0.262745
0.278431 0.337255 0.282353
0.333333 0.345098 0.282353
0.403922 0.352941 0.282353
0.466667 0.352941 0.278431
0.54902 0.352941 0.282353
0.643137 0.360784 0.294118
0.737255 0.380392 0.313725
0.298039 0.403922 0.278431
0.301961 0.415686 0.294118
0.333333 0.423529 0.301961
0.384314 0.431373 0.301961
0.454902 0.45098 0.305882
0.52549 0.45098 0.305882
0.588235 0.462745 0.294118
0.666667 0.47451 0.294118
0.768627 0.498039 0.321569
0.368627 0.494118 0.301961
0.376471 0.505882 0.313725
0.4 0.509804 0.321569
0.443137 0.517647 0.333333
0.513725 0.54902 0.329412
0.584314 0.564706 0.333333
0.666667 0.568627 0.337255
0.733333 0.580392 0.32549
0.819608 0.623529 0.341176
0.454902 0.607843 0.333333
0.466667 0.623529 0.345098
0.478431 0.623529 0.34902
0.52549 0.631373 0.360784
0.568627 0.643137 0.364706
0.65098 0.678431 0.364706
0.717647 0.694118 0.368627
0.8 0.694118 0.380392
0.878431 0.729412 0.396078
0.568627 0.752941 0.384314
0.576471 0.760784 0.392157
0.592157 0.764706 0.392157
0.623529 0.772549 0.407843
0.67451 0.780392 0.419608
0.729412 0.807843 0.423529
0.803922 0.835294 0.423529
0.866667 0.843137 0.431373
0.929412 0.843137 0.470588
0.741176 0.952941 0.52549
0.741176 0.956863 0.529412
0.756863 0.960784 0.537255
0.784314 0.964706 0.54902
0.819608 0.968627 0.568627
0.862745 0.980392 0.572549
0.921569 0.988235 0.572549
0.984314 0.992157 0.572549
0.992157 0.984314 0.588235
0.0980392 0.105882 0.262745
0.117647 0.121569 0.278431
0.176471 0.12549 0.286275
0.247059 0.145098 0.294118
0.282353 0.203922 0.27451
0.341176 0.243137 0.294118
0.439216 0.243137 0.317647
0.556863 0.243137 0.337255
0.670588 0.262745 0.376471
0.141176 0.160784 0.294118
0.156863 0.172549 0.309804
0.203922 0.172549 0.313725
0.270588 0.176471 0.317647
0.301961 0.235294 0.305882
0.372549 0.270588 0.329412
0.47451 0.266667 0.356863
0.592157 0.266667 0.376471
0.701961 0.27451 0.403922
0.176471 0.239216 0.309804
0.184314 0.247059 0.321569
0.235294 0.262745 0.337255
0.294118 0.262745 0.341176
0.333333 0.305882 0.337255
0.415686 0.305882 0.356863
0.517647 0.298039 0.368627
0.623529 0.290196 0.380392
0.72549 0.290196 0.392157
0.207843 0.321569 0.32549
0.215686 0.337255 0.341176
0.262745 0.34902 0.352941
0.345098 0.372549 0.376471
0.411765 0.368627 0.376471
0.482353 0.360784 0.368627
0.556863 0.360784 0.368627
0.647059 0.356863 0.368627
0.745098 0.376471 0.388235
0.262745 0.411765 0.32549
0.27451 0.427451 0.337255
0.309804 0.439216 0.34902
0.396078 0.454902 0.384314
0.462745 0.470588 0.388235
0.529412 0.47451 0.384314
0.596078 0.47451 0.368627
0.682353 0.470588 0.372549
0.772549 0.494118 0.392157
0.360784 0.513725 0.360784
0.368627 0.529412 0.376471
0.396078 0.533333 0.384314
0.45098 0.545098 0.396078
0.509804 0.556863 0.4
0.588235 0.584314 0.407843
0.662745 0.584314 0.411765
0.729412 0.592157 0.392157
0.811765 0.627451 0.396078
0.447059 0.619608 0.380392
0.45098 0.631373 0.392157
0.47451 0.635294 0.396078
0.513725 0.639216 0.407843
0.572549 0.65098 0.423529
0.65098 0.690196 0.427451
0.721569 0.701961 0.435294
0.803922 0.709804 0.45098
0.87451 0.737255 0.454902
0.552941 0.756863 0.423529
0.556863 0.768627 0.427451
0.584314 0.776471 0.439216
0.611765 0.780392 0.443137
0.666667 0.788235 0.462745
0.717647 0.807843 0.47451
0.803922 0.839216 0.478431
0.862745 0.85098 0.486275
0.92549 0.854902 0.517647
0.721569 0.956863 0.54902
0.72549 0.960784 0.556863
0.741176 0.964706 0.564706
0.772549 0.968627 0.576471
0.807843 0.968627 0.588235
0.858824 0.980392 0.603922
0.913725 0.988235 0.603922
0.984314 0.992157 0.607843
0.992157 0.992157 0.627451
0.137255 0.141176 0.337255
0.14902 0.156863 0.34902
0.196078 0.160784 0.356863
0.254902 0.160784 0.364706
0.321569 0.180392 0.364706
0.356863 0.235294 0.34902
0.403922 0.298039 0.360784
0.517647 0.309804 0.392157
0.639216 0.333333 0.439216
0.172549 0.184314 0.364706
0.180392 0.196078 0.380392
0.223529 0.196078 0.388235
0.282353 0.196078 0.396078
0.352941 0.207843 0.4
0.380392 0.266667 0.376471
0.423529 0.329412 0.392157
0.541176 0.337255 0.427451
0.662745 0.356863 0.470588
0.207843 0.254902 0.380392
0.215686 0.266667 0.396078
0.25098 0.266667 0.403922
0.305882 0.266667 0.411765
0.372549 0.27451 0.415686
0.403922 0.32549 0.4
0.462745 0.364706 0.415686
0.576471 0.360784 0.443137
0.686275 0.376471 0.478431
0.239216 0.329412 0.396078
0.25098 0.345098 0.407843
0.286275 0.352941 0.415686
0.34902 0.372549 0.439216
0.415686 0.376471 0.447059
0.443137 0.415686 0.439216
0.52549 0.411765 0.45098
0.635294 0.4 0.458824
0.737255 0.407843 0.486275
0.27451 0.423529 0.415686
0.27451 0.431373 0.423529
0.309804 0.443137 0.435294
0.380392 0.470588 0.458824
0.47451 0.501961 0.490196
0.537255 0.494118 0.482353
0.607843 0.47451 0.470588
0.686275 0.466667 0.466667
0.776471 0.482353 0.478431
0.317647 0.513725 0.407843
0.313725 0.521569 0.411765
0.352941 0.537255 0.427451
0.411765 0.556863 0.447059
0.517647 0.580392 0.490196
0.592157 0.603922 0.501961
0.662745 0.603922 0.494118
0.729412 0.6 0.462745
0.811765 0.619608 0.478431
0.388235 0.627451 0.411765
0.392157 0.639216 0.419608
0.431373 0.647059 0.439216
0.501961 0.658824 0.470588
0.568627 0.67451 0.490196
0.643137 0.690196 0.505882
0.721569 0.721569 0.517647
0.8 0.72549 0.52549
0.87451 0.74902 0.517647
0.521569 0.764706 0.462745
0.529412 0.772549 0.47451
0.54902 0.780392 0.482353
0.592157 0.788235 0.494118
0.647059 0.796078 0.509804
0.713725 0.807843 0.533333
0.8 0.847059 0.541176
0.866667 0.854902 0.552941
0.92549 0.870588 0.580392
0.678431 0.952941 0.568627
0.694118 0.968627 0.584314
0.705882 0.964706 0.584314
0.74902 0.972549 0.607843
0.796078 0.976471 0.623529
0.847059 0.980392 0.647059
0.909804 0.988235 0.647059
0.980392 0.992157 0.654902
0.992157 0.992157 0.670588
0.168627 0.184314 0.411765
0.184314 0.188235 0.423529
0.219608 0.188235 0.427451
0.27451 0.192157 0.435294
0.345098 0.192157 0.447059
0.403922 0.211765 0.443137
0.439216 0.270588 0.423529
0.505882 0.341176 0.439216
0.603922 0.403922 0.494118
0.2 0.211765 0.439216
0.215686 0.223529 0.454902
0.247059 0.219608 0.458824
0.301961 0.223529 0.470588
0.368627 0.215686 0.478431
0.439216 0.235294 0.478431
0.466667 0.298039 0.454902
0.52549 0.372549 0.470588
0.619608 0.431373 0.521569
0.231373 0.27451 0.45098
0.243137 0.282353 0.466667
0.270588 0.282353 0.47451
0.317647 0.282353 0.482353
0.388235 0.278431 0.494118
0.458824 0.294118 0.498039
0.486275 0.345098 0.470588
0.541176 0.411765 0.482353
0.643137 0.454902 0.537255
0.262745 0.345098 0.470588
0.27451 0.352941 0.482353
0.309804 0.368627 0.494118
0.352941 0.368627 0.505882
0.419608 0.372549 0.517647
0.490196 0.376471 0.521569
0.521569 0.419608 0.501961
0.572549 0.470588 0.513725
0.686275 0.486275 0.552941
0.294118 0.427451 0.490196
0.301961 0.435294 0.494118
0.341176 0.45098 0.505882
0.388235 0.462745 0.521569
0.466667 0.490196 0.552941
0.537255 0.494118 0.556863
0.568627 0.529412 0.541176
0.647059 0.521569 0.552941
0.74902 0.529412 0.580392
0.317647 0.529412 0.509804
0.329412 0.533333 0.513725
0.352941 0.541176 0.521569
0.411765 0.560784 0.537255
0.498039 0.592157 0.564706
0.607843 0.643137 0.607843
0.666667 0.623529 0.596078
0.737255 0.6 0.572549
0.815686 0.6 0.576471
0.337255 0.627451 0.486275
0.337255 0.627451 0.490196
0.364706 0.631373 0.494118
0.431373 0.654902 0.513725
0.517647 0.682353 0.541176
0.639216 0.713725 0.596078
0.721569 0.745098 0.615686
0.796078 0.741176 0.603922
0.866667 0.760784 0.584314
0.415686 0.776471 0.494118
0.419608 0.772549 0.486275
0.443137 0.780392 0.490196
0.509804 0.788235 0.517647
0.615686 0.803922 0.572549
0.701961 0.819608 0.596078
0.780392 0.843137 0.615686
0.858824 0.870588 0.635294
0.929412 0.890196 0.658824
0.607843 0.976471 0.603922
0.611765 0.972549 0.6
0.639216 0.972549 0.615686
0.694118 0.980392 0.639216
0.752941 0.984314 0.654902
0.823529 0.988235 0.682353
0.894118 0.988235 0.705882
0.968627 0.992157 0.713725
0.992157 0.992157 0.733333
0.227451 0.219608 0.501961
0.235294 0.231373 0.521569
0.262745 0.231373 0.517647
0.309804 0.231373 0.529412
0.368627 0.223529 0.529412
0.447059 0.215686 0.545098
0.509804 0.243137 0.541176
0.545098 0.309804 0.521569
0.631373 0.396078 0.556863
0.254902 0.247059 0.533333
0.262745 0.254902 0.552941
0.290196 0.258824 0.556863
0.337255 0.25098 0.560784
0.4 0.25098 0.572549
0.482353 0.243137 0.584314
0.54902 0.262745 0.580392
0.576471 0.329412 0.552941
0.65098 0.415686 0.584314
0.27451 0.294118 0.545098
0.278431 0.305882 0.556863
0.305882 0.309804 0.564706
0.352941 0.305882 0.572549
0.411765 0.301961 0.580392
0.486275 0.294118 0.588235
0.556863 0.313725 0.588235
0.588235 0.368627 0.560784
0.666667 0.454902 0.596078
0.301961 0.364706 0.560784
0.309804 0.384314 0.576471
0.329412 0.380392 0.580392
0.372549 0.380392 0.584314
0.431373 0.380392 0.596078
0.509804 0.372549 0.607843
0.584314 0.388235 0.607843
0.615686 0.439216 0.576471
0.682353 0.513725 0.611765
0.337255 0.447059 0.572549
0.337255 0.458824 0.584314
0.356863 0.458824 0.588235
0.403922 0.470588 0.6
0.462745 0.47451 0.615686
0.537255 0.47451 0.627451
0.615686 0.482353 0.627451
0.647059 0.529412 0.607843
0.701961 0.588235 0.635294
0.352941 0.529412 0.580392
0.352941 0.537255 0.596078
0.376471 0.545098 0.6
0.431373 0.560784 0.611765
0.498039 0.580392 0.627451
0.584314 0.611765 0.658824
0.662745 0.615686 0.666667
0.690196 0.647059 0.654902
0.772549 0.662745 0.67451
0.360784 0.635294 0.592157
0.356863 0.639216 0.6
0.380392 0.65098 0.607843
0.431373 0.658824 0.619608
0.509804 0.682353 0.639216
0.611765 0.721569 0.670588
0.741176 0.784314 0.72549
0.792157 0.752941 0.705882
0.866667 0.745098 0.698039
0.345098 0.741176 0.560784
0.34902 0.752941 0.572549
0.376471 0.760784 0.580392
0.423529 0.768627 0.588235
0.521569 0.796078 0.607843
0.619608 0.819608 0.635294
0.764706 0.858824 0.705882
0.854902 0.890196 0.733333
0.929412 0.909804 0.741176
0.52549 0.972549 0.639216
0.521569 0.976471 0.643137
0.545098 0.984314 0.647059
0.588235 0.984314 0.65098
0.658824 0.988235 0.666667
0.764706 0.988235 0.717647
0.87451 0.988235 0.756863
0.956863 0.992157 0.780392
0.992157 0.992157 0.803922
0.305882 0.286275 0.635294
0.313725 0.294118 0.65098
0.337255 0.294118 0.65098
0.380392 0.290196 0.654902
0.431373 0.282353 0.654902
0.501961 0.278431 0.666667
0.588235 0.266667 0.678431
0.654902 0.305882 0.67451
0.690196 0.376471 0.658824
0.329412 0.309804 0.666667
0.345098 0.321569 0.686275
0.368627 0.32549 0.690196
0.407843 0.317647 0.690196
0.466667 0.313725 0.698039
0.529412 0.298039 0.701961
0.619608 0.286275 0.717647
0.686275 0.313725 0.709804
0.717647 0.388235 0.686275
0.34902 0.352941 0.67451
0.356863 0.364706 0.690196
0.376471 0.360784 0.694118
0.415686 0.360784 0.698039
0.466667 0.352941 0.698039
0.541176 0.345098 0.709804
0.623529 0.333333 0.72549
0.694118 0.356863 0.717647
0.721569 0.423529 0.694118
0.368627 0.411765 0.686275
0.372549 0.427451 0.701961
0.388235 0.423529 0.698039
0.431373 0.419608 0.705882
0.482353 0.419608 0.709804
0.552941 0.411765 0.717647
0.631373 0.396078 0.729412
0.705882 0.419608 0.721569
0.733333 0.482353 0.698039
0.384314 0.486275 0.694118
0.380392 0.490196 0.701961
0.403922 0.494118 0.709804
0.447059 0.498039 0.709804
0.498039 0.498039 0.721569
0.568627 0.498039 0.733333
0.647059 0.486275 0.741176
0.729412 0.501961 0.741176
0.756863 0.564706 0.717647
0.419608 0.576471 0.701961
0.419608 0.584314 0.709804
0.435294 0.584314 0.717647
0.470588 0.592157 0.717647
0.517647 0.592157 0.72549
0.584314 0.6 0.741176
0.666667 0.596078 0.756863
0.74902 0.603922 0.752941
0.788235 0.666667 0.741176
0.411765 0.662745 0.709804
0.415686 0.67451 0.717647
0.435294 0.67451 0.721569
0.47451 0.682353 0.729412
0.537255 0.698039 0.737255
0.611765 0.709804 0.74902
0.705882 0.741176 0.780392
0.788235 0.745098 0.784314
0.835294 0.803922 0.780392
0.4 0.784314 0.713725
0.407843 0.796078 0.72549
0.419608 0.796078 0.729412
0.466667 0.803922 0.741176
0.521569 0.807843 0.741176
0.607843 0.827451 0.760784
0.72549 0.858824 0.788235
0.866667 0.929412 0.854902
0.92549 0.913725 0.835294
0.454902 0.972549 0.74902
0.447059 0.980392 0.752941
0.462745 0.984314 0.756863
0.501961 0.988235 0.756863
0.572549 0.988235 0.768627
0.662745 0.988235 0.776471
0.780392 0.988235 0.796078
0.937255 0.992157 0.862745
0.992157 0.992157 0.894118
0.458824 0.427451 0.811765
0.47451 0.443137 0.827451
0.490196 0.443137 0.827451
0.521569 0.443137 0.831373
0.564706 0.435294 0.831373
0.619608 0.427451 0.839216
0.694118 0.415686 0.847059
0.772549 0.396078 0.85098
0.827451 0.462745 0.843137
0.498039 0.462745 0.843137
0.501961 0.47451 0.85098
0.521569 0.47451 0.858824
0.552941 0.470588 0.862745
0.588235 0.462745 0.858824
0.65098 0.454902 0.866667
0.717647 0.439216 0.870588
0.796078 0.423529 0.87451
0.85098 0.47451 0.87451
0.509804 0.498039 0.847059
0.517647 0.509804 0.854902
0.529412 0.509804 0.862745
0.552941 0.498039 0.854902
0.6 0.498039 0.862745
0.658824 0.490196 0.870588
0.72549 0.47451 0.882353
0.8 0.458824 0.886275
0.862745 0.509804 0.882353
0.521569 0.54902 0.854902
0.52549 0.556863 0.858824
0.541176 0.560784 0.862745
0.568627 0.552941 0.866667
0.607843 0.552941 0.866667
0.662745 0.541176 0.87451
0.729412 0.529412 0.882353
0.807843 0.509804 0.894118
0.870588 0.556863 0.882353
0.533333 0.615686 0.862745
0.541176 0.619608 0.866667
0.552941 0.619608 0.866667
0.584314 0.619608 0.870588
0.623529 0.615686 0.87451
0.670588 0.607843 0.882353
0.741176 0.596078 0.890196
0.811765 0.576471 0.890196
0.886275 0.619608 0.898039
0.564706 0.698039 0.87451
0.568627 0.705882 0.878431
0.572549 0.701961 0.878431
0.592157 0.698039 0.882353
0.627451 0.694118 0.886275
0.686275 0.690196 0.894118
0.741176 0.678431 0.894118
0.827451 0.670588 0.905882
0.898039 0.694118 0.909804
0.588235 0.792157 0.886275
0.584314 0.792157 0.886275
0.596078 0.796078 0.894118
0.623529 0.796078 0.894118
0.65098 0.792157 0.894118
0.694118 0.788235 0.901961
0.760784 0.788235 0.909804
0.839216 0.780392 0.917647
0.921569 0.796078 0.92549
0.596078 0.901961 0.905882
0.592157 0.901961 0.913725
0.607843 0.905882 0.913725
0.623529 0.905882 0.909804
0.666667 0.905882 0.917647
0.709804 0.898039 0.909804
0.788235 0.913725 0.929412
0.858824 0.913725 0.937255
0.945098 0.933333 0.941176
0.611765 0.988235 0.937255
0.603922 0.988235 0.937255
0.623529 0.988235 0.941176
0.647059 0.988235 0.941176
0.666667 0.988235 0.937255
0.733333 0.988235 0.945098
0.807843 0.992157 0.94902
0.913725 0.992157 0.960784
0.988235 0.996078 0.972549
