assets/luts/cinematic/RR Prima FJ 8543.cube
#Generated by Picture Instruments - Unlimited Filters
TITLE "RR Prima FJ 8543"
LUT_3D_SIZE 17
0.00392157 0 0.0627451
0.00784314 0 0.0705882
0.105882 0 0.0980392
0.168627 0 0.105882
0.231373 0 0.101961
0.278431 0 0.105882
0.317647 0 0.105882
0.356863 0.00392157 0.105882
0.388235 0.00392157 0.113725
0.419608 0.00784314 0.12549
0.45098 0.0117647 0.141176
0.486275 0.0196078 0.14902
0.52549 0.0313725 0.164706
0.568627 0.0509804 0.176471
0.615686 0.0745098 0.192157
0.666667 0.0941176 0.207843
0.713725 0.141176 0.231373
0.0352941 0.0627451 0.0745098
0.0823529 0.0705882 0.0745098
0.145098 0.101961 0.0862745
0.2 0.105882 0.0941176
0.25098 0.101961 0.0941176
0.290196 0.0745098 0.0980392
0.333333 0.0588235 0.101961
0.372549 0.0470588 0.109804
0.407843 0.0509804 0.121569
0.439216 0.0509804 0.133333
0.470588 0.0509804 0.145098
0.505882 0.0705882 0.156863
0.545098 0.0862745 0.168627
0.588235 0.0941176 0.184314
0.631373 0.0980392 0.196078
0.67451 0.105882 0.207843
0.729412 0.164706 0.231373
0.133333 0.145098 0.0980392
0.156863 0.156863 0.0980392
0.180392 0.156863 0.0862745
0.231373 0.172549 0.0823529
0.266667 0.188235 0.0862745
0.301961 0.176471 0.0901961
0.341176 0.160784 0.101961
0.372549 0.14902 0.113725
0.415686 0.145098 0.12549
0.45098 0.141176 0.137255
0.482353 0.141176 0.14902
0.517647 0.133333 0.160784
0.552941 0.141176 0.172549
0.596078 0.14902 0.184314
0.639216 0.160784 0.2
0.686275 0.164706 0.211765
0.729412 0.203922 0.235294
0.180392 0.203922 0.113725
0.196078 0.207843 0.113725
0.219608 0.219608 0.113725
0.25098 0.223529 0.109804
0.290196 0.231373 0.0980392
0.321569 0.243137 0.0941176
0.34902 0.247059 0.0980392
0.388235 0.239216 0.113725
0.423529 0.227451 0.12549
0.458824 0.215686 0.137255
0.490196 0.211765 0.152941
0.52549 0.211765 0.160784
0.564706 0.211765 0.176471
0.603922 0.211765 0.188235
0.647059 0.211765 0.196078
0.694118 0.219608 0.211765
0.733333 0.247059 0.231373
0.219608 0.254902 0.137255
0.235294 0.258824 0.129412
0.243137 0.262745 0.133333
0.282353 0.27451 0.129412
0.309804 0.282353 0.121569
0.360784 0.290196 0.121569
0.384314 0.298039 0.109804
0.407843 0.309804 0.113725
0.439216 0.309804 0.121569
0.470588 0.298039 0.141176
0.501961 0.290196 0.14902
0.541176 0.282353 0.164706
0.576471 0.282353 0.180392
0.615686 0.282353 0.188235
0.658824 0.286275 0.2
0.698039 0.278431 0.211765
0.74902 0.313725 0.235294
0.25098 0.294118 0.14902
0.270588 0.309804 0.152941
0.282353 0.305882 0.156863
0.301961 0.309804 0.152941
0.341176 0.329412 0.145098
0.376471 0.337255 0.141176
0.423529 0.34902 0.141176
0.454902 0.360784 0.141176
0.470588 0.364706 0.137255
0.498039 0.376471 0.141176
0.52549 0.372549 0.152941
0.560784 0.360784 0.168627
0.588235 0.34902 0.176471
0.635294 0.352941 0.188235
0.67451 0.352941 0.203922
0.717647 0.356863 0.211765
0.756863 0.380392 0.235294
0.294118 0.345098 0.176471
0.305882 0.356863 0.176471
0.317647 0.360784 0.180392
0.337255 0.356863 0.176471
0.372549 0.376471 0.176471
0.403922 0.388235 0.168627
0.443137 0.403922 0.168627
0.490196 0.415686 0.168627
0.52549 0.427451 0.168627
0.541176 0.427451 0.164706
0.560784 0.435294 0.164706
0.580392 0.443137 0.164706
0.615686 0.435294 0.180392
0.65098 0.427451 0.188235
0.686275 0.423529 0.2
0.733333 0.427451 0.215686
0.772549 0.454902 0.235294
0.337255 0.403922 0.2
0.356863 0.411765 0.203922
0.360784 0.411765 0.203922
0.372549 0.407843 0.203922
0.396078 0.415686 0.2
0.435294 0.439216 0.203922
0.47451 0.458824 0.196078
0.509804 0.466667 0.192157
0.556863 0.478431 0.2
0.596078 0.490196 0.2
0.611765 0.494118 0.192157
0.623529 0.498039 0.188235
0.647059 0.501961 0.188235
0.670588 0.509804 0.192157
0.709804 0.505882 0.203922
0.752941 0.509804 0.215686
0.788235 0.52549 0.235294
0.388235 0.454902 0.227451
0.396078 0.466667 0.227451
0.403922 0.466667 0.227451
0.419608 0.462745 0.231373
0.427451 0.454902 0.227451
0.458824 0.470588 0.227451
0.498039 0.498039 0.223529
0.541176 0.517647 0.223529
0.572549 0.52549 0.219608
0.615686 0.537255 0.227451
0.662745 0.552941 0.227451
0.682353 0.556863 0.223529
0.701961 0.564706 0.219608
0.717647 0.568627 0.219608
0.741176 0.580392 0.211765
0.776471 0.584314 0.219608
0.811765 0.596078 0.243137
0.435294 0.509804 0.254902
0.439216 0.513725 0.25098
0.447059 0.517647 0.25098
0.454902 0.509804 0.25098
0.466667 0.505882 0.247059
0.490196 0.513725 0.25098
0.521569 0.533333 0.247059
0.560784 0.556863 0.247059
0.607843 0.580392 0.247059
0.647059 0.592157 0.25098
0.682353 0.603922 0.258824
0.733333 0.619608 0.270588
0.752941 0.623529 0.266667
0.772549 0.631373 0.254902
0.792157 0.639216 0.25098
0.811765 0.647059 0.243137
0.843137 0.670588 0.262745
0.486275 0.572549 0.282353
0.486275 0.572549 0.27451
0.490196 0.572549 0.278431
0.498039 0.568627 0.27451
0.513725 0.564706 0.27451
0.52549 0.556863 0.270588
0.556863 0.576471 0.27451
0.592157 0.6 0.27451
0.639216 0.627451 0.27451
0.67451 0.643137 0.282353
0.709804 0.654902 0.286275
0.752941 0.666667 0.298039
0.8 0.686275 0.317647
0.819608 0.690196 0.309804
0.835294 0.694118 0.301961
0.854902 0.701961 0.290196
0.87451 0.717647 0.301961
0.537255 0.635294 0.309804
0.541176 0.635294 0.305882
0.541176 0.635294 0.309804
0.54902 0.631373 0.305882
0.564706 0.631373 0.305882
0.572549 0.619608 0.298039
0.596078 0.627451 0.298039
0.627451 0.647059 0.301961
0.67451 0.67451 0.309804
0.705882 0.694118 0.309804
0.741176 0.709804 0.321569
0.772549 0.717647 0.32549
0.811765 0.729412 0.341176
0.858824 0.74902 0.368627
0.87451 0.74902 0.360784
0.894118 0.752941 0.34902
0.913725 0.768627 0.356863
0.596078 0.698039 0.345098
0.592157 0.698039 0.337255
0.596078 0.694118 0.337255
0.603922 0.694118 0.337255
0.615686 0.690196 0.337255
0.627451 0.682353 0.333333
0.639216 0.67451 0.32549
0.666667 0.694118 0.329412
0.705882 0.717647 0.337255
0.745098 0.737255 0.345098
0.776471 0.760784 0.352941
0.8 0.768627 0.356863
0.835294 0.776471 0.372549
0.866667 0.780392 0.388235
0.909804 0.8 0.423529
0.929412 0.803922 0.419608
0.941176 0.811765 0.423529
0.654902 0.760784 0.384314
0.65098 0.760784 0.372549
0.654902 0.760784 0.380392
0.658824 0.760784 0.380392
0.670588 0.756863 0.376471
0.682353 0.752941 0.372549
0.698039 0.745098 0.368627
0.717647 0.752941 0.372549
0.741176 0.760784 0.372549
0.776471 0.784314 0.380392
0.807843 0.803922 0.392157
0.839216 0.819608 0.4
0.866667 0.827451 0.411765
0.886275 0.835294 0.423529
0.909804 0.835294 0.439216
0.945098 0.843137 0.47451
0.964706 0.854902 0.494118
0.717647 0.827451 0.439216
0.709804 0.823529 0.427451
0.717647 0.827451 0.431373
0.721569 0.823529 0.427451
0.733333 0.827451 0.431373
0.737255 0.819608 0.427451
0.752941 0.815686 0.423529
0.772549 0.811765 0.415686
0.792157 0.823529 0.419608
0.815686 0.835294 0.431373
0.843137 0.85098 0.439216
0.87451 0.866667 0.447059
0.898039 0.878431 0.458824
0.921569 0.882353 0.470588
0.941176 0.886275 0.482353
0.952941 0.882353 0.494118
0.972549 0.886275 0.52549
0.776471 0.894118 0.501961
0.776471 0.890196 0.498039
0.780392 0.894118 0.501961
0.784314 0.894118 0.501961
0.792157 0.894118 0.498039
0.803922 0.890196 0.494118
0.815686 0.886275 0.494118
0.827451 0.878431 0.482353
0.843137 0.882353 0.482353
0.870588 0.898039 0.494118
0.886275 0.905882 0.501961
0.913725 0.921569 0.509804
0.933333 0.92549 0.509804
0.956863 0.933333 0.521569
0.972549 0.929412 0.537255
0.984314 0.92549 0.541176
0.984314 0.92549 0.560784
0.847059 0.956863 0.603922
0.843137 0.956863 0.6
0.847059 0.960784 0.603922
0.85098 0.956863 0.603922
0.862745 0.956863 0.603922
0.866667 0.956863 0.6
0.878431 0.952941 0.596078
0.890196 0.952941 0.592157
0.905882 0.94902 0.588235
0.92549 0.956863 0.592157
0.941176 0.964706 0.596078
0.956863 0.968627 0.6
0.972549 0.972549 0.607843
0.988235 0.976471 0.615686
0.992157 0.968627 0.627451
0.992157 0.964706 0.639216
0.992157 0.960784 0.654902
0.0117647 0.00392157 0.0980392
0.0431373 0 0.101961
0.109804 0 0.133333
0.168627 0.0431373 0.145098
0.215686 0.0666667 0.14902
0.266667 0.0392157 0.14902
0.305882 0.0156863 0.145098
0.341176 0.0117647 0.14902
0.376471 0.0117647 0.152941
0.411765 0.0235294 0.160784
0.447059 0.0313725 0.164706
0.482353 0.054902 0.176471
0.521569 0.0627451 0.184314
0.564706 0.0745098 0.196078
0.611765 0.0941176 0.207843
0.662745 0.109804 0.219608
0.713725 0.14902 0.247059
0.0470588 0.054902 0.101961
0.0823529 0.0823529 0.117647
0.133333 0.0941176 0.133333
0.188235 0.0980392 0.137255
0.231373 0.0941176 0.141176
0.27451 0.0862745 0.145098
0.317647 0.0823529 0.14902
0.356863 0.0823529 0.152941
0.396078 0.0862745 0.156863
0.427451 0.0784314 0.164706
0.466667 0.0823529 0.172549
0.501961 0.0941176 0.180392
0.541176 0.0980392 0.188235
0.580392 0.101961 0.2
0.623529 0.105882 0.207843
0.67451 0.117647 0.223529
0.72549 0.164706 0.247059
0.12549 0.14902 0.12549
0.137255 0.14902 0.133333
0.164706 0.156863 0.137255
0.203922 0.168627 0.137255
0.243137 0.172549 0.141176
0.290196 0.168627 0.145098
0.321569 0.152941 0.145098
0.364706 0.14902 0.156863
0.403922 0.14902 0.160784
0.439216 0.14902 0.168627
0.47451 0.145098 0.176471
0.505882 0.141176 0.184314
0.54902 0.14902 0.196078
0.588235 0.152941 0.203922
0.631373 0.152941 0.211765
0.678431 0.152941 0.219608
0.729412 0.196078 0.247059
0.176471 0.2 0.141176
0.184314 0.203922 0.14902
0.203922 0.211765 0.156863
0.231373 0.215686 0.145098
0.27451 0.223529 0.145098
0.305882 0.239216 0.141176
0.341176 0.239216 0.145098
0.380392 0.231373 0.152941
0.411765 0.219608 0.160784
0.454902 0.215686 0.168627
0.490196 0.215686 0.180392
0.521569 0.215686 0.188235
0.556863 0.207843 0.192157
0.6 0.211765 0.203922
0.643137 0.215686 0.211765
0.690196 0.223529 0.223529
0.733333 0.25098 0.247059
0.215686 0.247059 0.14902
0.223529 0.258824 0.164706
0.239216 0.258824 0.168627
0.270588 0.270588 0.164706
0.305882 0.278431 0.160784
0.345098 0.286275 0.156863
0.372549 0.298039 0.156863
0.4 0.305882 0.152941
0.431373 0.305882 0.156863
0.470588 0.294118 0.172549
0.501961 0.286275 0.176471
0.533333 0.282353 0.184314
0.572549 0.278431 0.196078
0.611765 0.282353 0.203922
0.65098 0.278431 0.215686
0.698039 0.278431 0.223529
0.745098 0.313725 0.247059
0.258824 0.298039 0.168627
0.270588 0.313725 0.180392
0.27451 0.309804 0.180392
0.301961 0.313725 0.180392
0.337255 0.329412 0.176471
0.368627 0.337255 0.172549
0.419608 0.352941 0.176471
0.443137 0.356863 0.172549
0.466667 0.368627 0.168627
0.490196 0.372549 0.168627
0.521569 0.368627 0.180392
0.54902 0.356863 0.188235
0.588235 0.352941 0.196078
0.627451 0.34902 0.207843
0.666667 0.34902 0.219608
0.713725 0.356863 0.227451
0.756863 0.376471 0.247059
0.301961 0.352941 0.184314
0.313725 0.364706 0.2
0.317647 0.364706 0.2
0.337255 0.360784 0.2
0.360784 0.368627 0.196078
0.403922 0.392157 0.192157
0.443137 0.4 0.196078
0.490196 0.415686 0.196078
0.521569 0.427451 0.196078
0.537255 0.427451 0.188235
0.556863 0.435294 0.184314
0.576471 0.439216 0.188235
0.607843 0.431373 0.196078
0.643137 0.423529 0.203922
0.686275 0.423529 0.215686
0.733333 0.427451 0.227451
0.768627 0.447059 0.25098
0.352941 0.407843 0.207843
0.352941 0.415686 0.219608
0.360784 0.415686 0.223529
0.376471 0.415686 0.223529
0.396078 0.419608 0.219608
0.435294 0.439216 0.215686
0.466667 0.454902 0.211765
0.509804 0.466667 0.215686
0.556863 0.478431 0.219608
0.592157 0.490196 0.219608
0.603922 0.490196 0.211765
0.623529 0.498039 0.207843
0.643137 0.501961 0.207843
0.670588 0.505882 0.207843
0.709804 0.501961 0.215686
0.74902 0.501961 0.231373
0.788235 0.517647 0.25098
0.392157 0.458824 0.227451
0.396078 0.466667 0.243137
0.403922 0.470588 0.247059
0.411765 0.466667 0.243137
0.427451 0.458824 0.235294
0.458824 0.47451 0.239216
0.498039 0.498039 0.239216
0.537255 0.517647 0.239216
0.572549 0.529412 0.239216
0.619608 0.537255 0.247059
0.658824 0.556863 0.25098
0.67451 0.556863 0.239216
0.694118 0.560784 0.235294
0.713725 0.568627 0.227451
0.737255 0.580392 0.227451
0.772549 0.584314 0.231373
0.807843 0.592157 0.254902
0.435294 0.509804 0.25098
0.435294 0.517647 0.262745
0.443137 0.521569 0.262745
0.454902 0.517647 0.266667
0.470588 0.509804 0.262745
0.482353 0.509804 0.258824
0.517647 0.529412 0.262745
0.564706 0.556863 0.262745
0.603922 0.576471 0.262745
0.635294 0.588235 0.262745
0.678431 0.6 0.270588
0.72549 0.619608 0.286275
0.745098 0.623529 0.278431
0.772549 0.631373 0.270588
0.784314 0.635294 0.262745
0.811765 0.647059 0.258824
0.839216 0.670588 0.270588
0.486275 0.568627 0.278431
0.490196 0.576471 0.290196
0.486275 0.572549 0.286275
0.498039 0.568627 0.290196
0.509804 0.564706 0.286275
0.52549 0.556863 0.282353
0.552941 0.576471 0.282353
0.592157 0.596078 0.282353
0.635294 0.623529 0.286275
0.67451 0.643137 0.290196
0.709804 0.658824 0.301961
0.745098 0.662745 0.309804
0.796078 0.686275 0.333333
0.815686 0.686275 0.321569
0.831373 0.694118 0.309804
0.854902 0.701961 0.301961
0.878431 0.721569 0.317647
0.537255 0.631373 0.305882
0.541176 0.639216 0.313725
0.545098 0.635294 0.313725
0.54902 0.635294 0.313725
0.560784 0.627451 0.313725
0.572549 0.619608 0.309804
0.596078 0.623529 0.309804
0.627451 0.643137 0.313725
0.662745 0.666667 0.313725
0.705882 0.694118 0.321569
0.741176 0.709804 0.329412
0.772549 0.717647 0.341176
0.807843 0.72549 0.352941
0.854902 0.745098 0.380392
0.87451 0.745098 0.372549
0.890196 0.752941 0.356863
0.909804 0.764706 0.364706
0.6 0.698039 0.345098
0.6 0.701961 0.34902
0.596078 0.698039 0.345098
0.603922 0.698039 0.34902
0.615686 0.694118 0.345098
0.631373 0.690196 0.345098
0.643137 0.678431 0.337255
0.670588 0.694118 0.341176
0.698039 0.713725 0.345098
0.745098 0.741176 0.356863
0.772549 0.756863 0.360784
0.8 0.768627 0.372549
0.831373 0.776471 0.384314
0.862745 0.784314 0.4
0.901961 0.8 0.435294
0.92549 0.8 0.427451
0.941176 0.811765 0.431373
0.654902 0.756863 0.380392
0.654902 0.764706 0.388235
0.654902 0.764706 0.388235
0.658824 0.756863 0.388235
0.670588 0.756863 0.388235
0.682353 0.752941 0.380392
0.694118 0.745098 0.372549
0.709804 0.745098 0.372549
0.737255 0.760784 0.380392
0.776471 0.784314 0.388235
0.807843 0.803922 0.4
0.843137 0.819608 0.411765
0.858824 0.823529 0.419608
0.886275 0.831373 0.431373
0.913725 0.835294 0.45098
0.945098 0.847059 0.486275
0.960784 0.854902 0.501961
0.713725 0.819608 0.431373
0.713725 0.827451 0.439216
0.713725 0.827451 0.439216
0.721569 0.827451 0.439216
0.729412 0.823529 0.435294
0.741176 0.819608 0.431373
0.752941 0.815686 0.427451
0.768627 0.811765 0.419608
0.796078 0.819608 0.427451
0.807843 0.831373 0.431373
0.843137 0.85098 0.447059
0.870588 0.866667 0.45098
0.894118 0.878431 0.466667
0.921569 0.882353 0.478431
0.937255 0.882353 0.490196
0.956863 0.882353 0.501961
0.972549 0.886275 0.537255
0.776471 0.890196 0.498039
0.776471 0.898039 0.509804
0.780392 0.894118 0.501961
0.784314 0.894118 0.501961
0.788235 0.894118 0.505882
0.807843 0.894118 0.501961
0.811765 0.886275 0.498039
0.827451 0.882353 0.490196
0.847059 0.882353 0.490196
0.866667 0.894118 0.494118
0.886275 0.905882 0.505882
0.909804 0.913725 0.513725
0.937255 0.929412 0.517647
0.952941 0.933333 0.529412
0.968627 0.929412 0.541176
0.984314 0.929412 0.552941
0.984314 0.929412 0.564706
0.843137 0.952941 0.592157
0.843137 0.960784 0.603922
0.843137 0.956863 0.603922
0.847059 0.956863 0.607843
0.854902 0.956863 0.603922
0.870588 0.956863 0.6
0.878431 0.952941 0.6
0.890196 0.952941 0.596078
0.909804 0.94902 0.592157
0.92549 0.956863 0.596078
0.933333 0.960784 0.596078
0.956863 0.968627 0.603922
0.972549 0.972549 0.611765
0.988235 0.976471 0.619608
0.992157 0.968627 0.631373
0.992157 0.964706 0.643137
0.988235 0.960784 0.662745
0.0588235 0.0509804 0.14902
0.0705882 0.0470588 0.156863
0.117647 0.00784314 0.172549
0.164706 0.0392157 0.196078
0.231373 0.0784314 0.215686
0.258824 0.105882 0.207843
0.286275 0.117647 0.203922
0.321569 0.117647 0.203922
0.360784 0.105882 0.2
0.396078 0.0980392 0.196078
0.435294 0.0823529 0.2
0.470588 0.0745098 0.203922
0.509804 0.0862745 0.207843
0.556863 0.0980392 0.219608
0.603922 0.101961 0.227451
0.65098 0.101961 0.235294
0.705882 0.152941 0.262745
0.0941176 0.0823529 0.156863
0.109804 0.105882 0.168627
0.141176 0.105882 0.176471
0.188235 0.109804 0.207843
0.235294 0.12549 0.207843
0.266667 0.137255 0.207843
0.301961 0.141176 0.207843
0.341176 0.129412 0.2
0.376471 0.113725 0.196078
0.415686 0.0980392 0.196078
0.454902 0.109804 0.203922
0.494118 0.113725 0.207843
0.533333 0.117647 0.215686
0.572549 0.113725 0.223529
0.619608 0.117647 0.231373
0.670588 0.129412 0.239216
0.713725 0.160784 0.266667
0.121569 0.141176 0.164706
0.129412 0.156863 0.172549
0.160784 0.164706 0.184314
0.196078 0.164706 0.184314
0.235294 0.164706 0.188235
0.27451 0.160784 0.188235
0.313725 0.152941 0.192157
0.34902 0.152941 0.196078
0.388235 0.152941 0.196078
0.431373 0.156863 0.2
0.462745 0.14902 0.207843
0.498039 0.152941 0.215686
0.537255 0.152941 0.219608
0.580392 0.156863 0.227451
0.627451 0.152941 0.235294
0.67451 0.160784 0.243137
0.721569 0.196078 0.266667
0.160784 0.211765 0.180392
0.172549 0.223529 0.192157
0.188235 0.215686 0.188235
0.219608 0.215686 0.192157
0.258824 0.227451 0.188235
0.290196 0.231373 0.192157
0.329412 0.231373 0.192157
0.360784 0.219608 0.192157
0.4 0.215686 0.2
0.439216 0.215686 0.203922
0.478431 0.219608 0.211765
0.513725 0.215686 0.215686
0.545098 0.207843 0.219608
0.592157 0.215686 0.227451
0.635294 0.219608 0.235294
0.682353 0.215686 0.243137
0.72549 0.247059 0.266667
0.207843 0.254902 0.188235
0.215686 0.266667 0.2
0.231373 0.262745 0.2
0.258824 0.266667 0.2
0.286275 0.270588 0.2
0.329412 0.282353 0.196078
0.356863 0.294118 0.196078
0.388235 0.301961 0.196078
0.423529 0.294118 0.2
0.454902 0.286275 0.207843
0.494118 0.282353 0.211765
0.529412 0.278431 0.215686
0.568627 0.278431 0.223529
0.6 0.27451 0.227451
0.647059 0.278431 0.239216
0.694118 0.282353 0.247059
0.737255 0.309804 0.266667
0.254902 0.305882 0.203922
0.254902 0.313725 0.211765
0.270588 0.313725 0.215686
0.290196 0.309804 0.211765
0.32549 0.32549 0.207843
0.360784 0.337255 0.211765
0.4 0.345098 0.211765
0.427451 0.356863 0.207843
0.454902 0.364706 0.203922
0.478431 0.368627 0.203922
0.513725 0.356863 0.211765
0.545098 0.352941 0.215686
0.580392 0.34902 0.223529
0.619608 0.345098 0.231373
0.662745 0.345098 0.239216
0.705882 0.345098 0.247059
0.752941 0.372549 0.270588
0.298039 0.356863 0.215686
0.305882 0.368627 0.227451
0.313725 0.372549 0.231373
0.329412 0.360784 0.227451
0.356863 0.368627 0.227451
0.396078 0.388235 0.227451
0.427451 0.4 0.223529
0.478431 0.415686 0.231373
0.505882 0.419608 0.227451
0.52549 0.427451 0.223529
0.545098 0.431373 0.215686
0.564706 0.431373 0.219608
0.6 0.423529 0.223529
0.643137 0.419608 0.231373
0.678431 0.419608 0.239216
0.72549 0.419608 0.25098
0.764706 0.439216 0.266667
0.345098 0.407843 0.231373
0.352941 0.419608 0.243137
0.356863 0.419608 0.247059
0.372549 0.415686 0.247059
0.388235 0.411765 0.243137
0.419608 0.427451 0.239216
0.462745 0.45098 0.243137
0.501961 0.462745 0.247059
0.552941 0.478431 0.25098
0.580392 0.490196 0.25098
0.596078 0.490196 0.239216
0.615686 0.494118 0.239216
0.635294 0.501961 0.231373
0.666667 0.501961 0.231373
0.701961 0.490196 0.239216
0.74902 0.498039 0.25098
0.784314 0.513725 0.27451
0.384314 0.458824 0.247059
0.396078 0.47451 0.262745
0.4 0.470588 0.262745
0.407843 0.470588 0.262745
0.423529 0.458824 0.258824
0.454902 0.470588 0.258824
0.494118 0.498039 0.262745
0.52549 0.509804 0.258824
0.568627 0.52549 0.266667
0.611765 0.537255 0.270588
0.654902 0.552941 0.27451
0.662745 0.54902 0.262745
0.686275 0.556863 0.258824
0.709804 0.568627 0.25098
0.733333 0.580392 0.247059
0.772549 0.580392 0.254902
0.803922 0.592157 0.278431
0.431373 0.509804 0.270588
0.435294 0.521569 0.282353
0.439216 0.521569 0.282353
0.454902 0.521569 0.282353
0.462745 0.509804 0.278431
0.482353 0.505882 0.278431
0.513725 0.529412 0.278431
0.556863 0.552941 0.282353
0.6 0.576471 0.286275
0.631373 0.588235 0.286275
0.678431 0.6 0.298039
0.72549 0.619608 0.309804
0.741176 0.623529 0.301961
0.760784 0.627451 0.290196
0.780392 0.635294 0.286275
0.803922 0.647059 0.27451
0.831373 0.666667 0.286275
0.490196 0.572549 0.298039
0.486275 0.576471 0.301961
0.490196 0.580392 0.301961
0.494118 0.576471 0.301961
0.509804 0.568627 0.301961
0.521569 0.560784 0.298039
0.545098 0.568627 0.298039
0.584314 0.592157 0.301961
0.631373 0.623529 0.305882
0.670588 0.643137 0.313725
0.701961 0.65098 0.317647
0.737255 0.662745 0.329412
0.788235 0.686275 0.352941
0.807843 0.690196 0.341176
0.831373 0.698039 0.333333
0.847059 0.701961 0.321569
0.87451 0.717647 0.333333
0.537255 0.631373 0.32549
0.545098 0.639216 0.333333
0.545098 0.639216 0.333333
0.545098 0.635294 0.32549
0.556863 0.631373 0.32549
0.572549 0.619608 0.321569
0.592157 0.619608 0.321569
0.623529 0.643137 0.32549
0.658824 0.666667 0.333333
0.701961 0.690196 0.337255
0.737255 0.705882 0.34902
0.772549 0.717647 0.360784
0.8 0.72549 0.372549
0.847059 0.74902 0.403922
0.866667 0.74902 0.388235
0.890196 0.752941 0.376471
0.909804 0.768627 0.388235
0.596078 0.694118 0.352941
0.592157 0.701961 0.364706
0.596078 0.701961 0.364706
0.603922 0.701961 0.360784
0.611765 0.698039 0.360784
0.627451 0.686275 0.356863
0.639216 0.678431 0.34902
0.666667 0.690196 0.352941
0.694118 0.713725 0.360784
0.733333 0.733333 0.364706
0.772549 0.756863 0.372549
0.8 0.768627 0.388235
0.831373 0.776471 0.4
0.862745 0.784314 0.419608
0.898039 0.8 0.45098
0.921569 0.803922 0.443137
0.937255 0.815686 0.45098
0.654902 0.760784 0.396078
0.658824 0.768627 0.403922
0.65098 0.764706 0.4
0.658824 0.764706 0.403922
0.666667 0.760784 0.4
0.678431 0.756863 0.396078
0.698039 0.74902 0.392157
0.709804 0.745098 0.384314
0.737255 0.764706 0.392157
0.768627 0.780392 0.4
0.807843 0.803922 0.411765
0.831373 0.815686 0.419608
0.858824 0.827451 0.435294
0.886275 0.831373 0.45098
0.909804 0.839216 0.466667
0.941176 0.847059 0.501961
0.960784 0.858824 0.517647
0.709804 0.823529 0.443137
0.709804 0.827451 0.45098
0.713725 0.827451 0.45098
0.721569 0.827451 0.454902
0.721569 0.823529 0.447059
0.737255 0.823529 0.443137
0.752941 0.815686 0.435294
0.768627 0.811765 0.431373
0.784314 0.815686 0.431373
0.807843 0.827451 0.443137
0.843137 0.85098 0.454902
0.870588 0.866667 0.466667
0.898039 0.878431 0.478431
0.909804 0.878431 0.486275
0.937255 0.882353 0.501961
0.952941 0.882353 0.517647
0.964706 0.886275 0.545098
0.772549 0.886275 0.505882
0.772549 0.894118 0.513725
0.776471 0.898039 0.517647
0.780392 0.894118 0.517647
0.788235 0.890196 0.521569
0.8 0.890196 0.513725
0.811765 0.886275 0.505882
0.823529 0.882353 0.501961
0.843137 0.882353 0.498039
0.866667 0.894118 0.505882
0.878431 0.898039 0.509804
0.909804 0.913725 0.517647
0.933333 0.92549 0.529412
0.952941 0.929412 0.537255
0.968627 0.929412 0.552941
0.984314 0.92549 0.560784
0.984314 0.92549 0.576471
0.835294 0.94902 0.596078
0.839216 0.956863 0.611765
0.843137 0.960784 0.611765
0.847059 0.956863 0.615686
0.854902 0.956863 0.611765
0.862745 0.952941 0.603922
0.87451 0.952941 0.603922
0.890196 0.94902 0.6
0.905882 0.94902 0.6
0.917647 0.952941 0.596078
0.933333 0.960784 0.603922
0.952941 0.968627 0.611765
0.972549 0.972549 0.619608
0.988235 0.972549 0.627451
0.992157 0.968627 0.631373
0.992157 0.964706 0.65098
0.992157 0.964706 0.670588
0.0862745 0.0588235 0.196078
0.0941176 0.0588235 0.203922
0.137255 0.0470588 0.227451
0.188235 0.0470588 0.235294
0.219608 0.0862745 0.243137
0.270588 0.0980392 0.27451
0.305882 0.117647 0.262745
0.333333 0.141176 0.254902
0.352941 0.156863 0.25098
0.380392 0.172549 0.25098
0.419608 0.168627 0.25098
0.458824 0.160784 0.25098
0.498039 0.156863 0.254902
0.545098 0.14902 0.258824
0.592157 0.129412 0.258824
0.647059 0.113725 0.266667
0.694118 0.14902 0.290196
0.121569 0.101961 0.211765
0.129412 0.121569 0.215686
0.152941 0.117647 0.223529
0.196078 0.117647 0.235294
0.227451 0.12549 0.247059
0.286275 0.137255 0.27451
0.317647 0.152941 0.266667
0.341176 0.160784 0.262745
0.368627 0.176471 0.258824
0.4 0.176471 0.254902
0.439216 0.176471 0.254902
0.478431 0.168627 0.254902
0.513725 0.152941 0.254902
0.560784 0.145098 0.258824
0.607843 0.12549 0.254902
0.658824 0.12549 0.266667
