assets/luts/cinematic/RR Prima KD Elite.cube
#Generated by Picture Instruments - Unlimited Filters
TITLE "RR Prima KD Elite"
LUT_3D_SIZE 9
0.00392157 0.00392157 0.0509804
0.0862745 0.0235294 0.0666667
0.160784 0.0431373 0.0823529
0.243137 0.0392157 0.0901961
0.32549 0.0196078 0.105882
0.411765 0.0156863 0.117647
0.501961 0.0156863 0.137255
0.615686 0.0156863 0.164706
0.72549 0.0431373 0.196078
0.0745098 0.113725 0.054902
0.109804 0.109804 0.0588235
0.180392 0.12549 0.0745098
0.262745 0.12549 0.0862745
0.34902 0.117647 0.101961
0.431373 0.109804 0.117647
0.521569 0.0941176 0.137255
0.631373 0.0705882 0.160784
0.737255 0.0745098 0.196078
0.137255 0.211765 0.0313725
0.160784 0.215686 0.0196078
0.215686 0.211765 0.0352941
0.27451 0.207843 0.0588235
0.356863 0.223529 0.0745098
0.435294 0.215686 0.0980392
0.529412 0.207843 0.117647
0.643137 0.203922 0.152941
0.74902 0.215686 0.184314
0.188235 0.309804 0.0117647
0.215686 0.317647 0
0.270588 0.321569 0
0.329412 0.313725 0
0.392157 0.301961 0.0235294
0.462745 0.317647 0.0431373
0.54902 0.321569 0.0823529
0.654902 0.317647 0.121569
0.764706 0.341176 0.164706
0.247059 0.407843 0.0156863
0.266667 0.419608 0
0.313725 0.423529 0
0.380392 0.427451 0
0.45098 0.423529 0
0.513725 0.4 0
0.588235 0.419608 0
0.670588 0.439216 0.0470588
0.784314 0.454902 0.12549
0.313725 0.517647 0.0117647
0.321569 0.521569 0
0.360784 0.52549 0
0.423529 0.533333 0
0.498039 0.541176 0
0.572549 0.537255 0
0.643137 0.509804 0
0.721569 0.52549 0
0.811765 0.564706 0.0784314
0.376471 0.647059 0
0.376471 0.639216 0
0.415686 0.647059 0
0.470588 0.647059 0
0.54902 0.658824 0
0.631373 0.670588 0
0.709804 0.666667 0
0.780392 0.631373 0
0.862745 0.666667 0.0705882
0.439216 0.803922 0.00392157
0.423529 0.788235 0
0.466667 0.792157 0.00392157
0.517647 0.792157 0
0.6 0.8 0
0.678431 0.807843 0
0.768627 0.823529 0
0.862745 0.823529 0
0.905882 0.788235 0.0196078
0.513725 0.976471 0.0235294
0.501961 0.968627 0.00784314
0.537255 0.968627 0
0.6 0.972549 0
0.686275 0.980392 0.00392157
0.784314 0.988235 0
0.878431 0.988235 0
0.972549 0.984314 0.0196078
0.992157 0.968627 0.176471
0.0313725 0.054902 0.117647
0.0862745 0.054902 0.129412
0.145098 0.0980392 0.137255
0.239216 0.0941176 0.160784
0.329412 0.0745098 0.152941
0.415686 0.0745098 0.156863
0.501961 0.0509804 0.160784
0.615686 0.0235294 0.172549
0.729412 0.0392157 0.211765
0.0745098 0.113725 0.129412
0.105882 0.12549 0.145098
0.176471 0.129412 0.152941
0.262745 0.129412 0.156863
0.345098 0.129412 0.156863
0.431373 0.121569 0.156863
0.521569 0.113725 0.160784
0.631373 0.0980392 0.168627
0.741176 0.105882 0.203922
0.121569 0.203922 0.129412
0.14902 0.219608 0.137255
0.203922 0.211765 0.141176
0.278431 0.219608 0.141176
0.356863 0.223529 0.141176
0.443137 0.215686 0.145098
0.533333 0.215686 0.14902
0.643137 0.207843 0.156863
0.752941 0.227451 0.192157
0.180392 0.305882 0.105882
0.2 0.321569 0.117647
0.258824 0.321569 0.109804
0.32549 0.317647 0.113725
0.388235 0.305882 0.12549
0.458824 0.317647 0.117647
0.545098 0.321569 0.117647
0.658824 0.321569 0.12549
0.768627 0.337255 0.172549
0.243137 0.403922 0.0666667
0.25098 0.415686 0.0745098
0.301961 0.419608 0.0509804
0.376471 0.427451 0.0392157
0.447059 0.419608 0.0588235
0.517647 0.403922 0.0862745
0.592157 0.419608 0.0509804
0.678431 0.443137 0.0509804
0.784314 0.462745 0.133333
0.305882 0.509804 0
0.313725 0.521569 0
0.356863 0.529412 0
0.415686 0.533333 0
0.501961 0.545098 0
0.576471 0.541176 0
0.643137 0.509804 0
0.729412 0.529412 0
0.815686 0.568627 0.0862745
0.372549 0.627451 0
0.376471 0.643137 0
0.411765 0.647059 0
0.478431 0.65098 0
0.54902 0.662745 0
0.631373 0.670588 0
0.709804 0.670588 0
0.780392 0.631373 0
0.866667 0.666667 0.0745098
0.427451 0.776471 0
0.431373 0.788235 0
0.45098 0.788235 0
0.529412 0.796078 0
0.6 0.8 0.00392157
0.686275 0.815686 0
0.776471 0.823529 0
0.858824 0.819608 0
0.905882 0.788235 0.0156863
0.494118 0.960784 0.027451
0.501961 0.972549 0.0235294
0.541176 0.972549 0.0235294
0.603922 0.976471 0.0117647
0.694118 0.984314 0.00784314
0.776471 0.984314 0.00392157
0.878431 0.988235 0
0.968627 0.984314 0.0156863
0.992157 0.968627 0.184314
0.0235294 0.0823529 0.2
0.0823529 0.0901961 0.219608
0.168627 0.0901961 0.219608
0.203922 0.152941 0.211765
0.301961 0.164706 0.235294
0.4 0.152941 0.254902
0.509804 0.129412 0.254902
0.615686 0.0235294 0.25098
0.729412 0.0392157 0.262745
0.0980392 0.152941 0.215686
0.113725 0.156863 0.231373
0.180392 0.145098 0.231373
0.227451 0.192157 0.235294
0.32549 0.184314 0.25098
0.431373 0.168627 0.258824
0.529412 0.129412 0.25098
0.631373 0.0941176 0.25098
0.737255 0.0901961 0.258824
0.121569 0.203922 0.219608
0.137255 0.219608 0.235294
0.207843 0.235294 0.25098
0.282353 0.235294 0.25098
0.360784 0.227451 0.247059
0.443137 0.223529 0.243137
0.533333 0.211765 0.243137
0.643137 0.203922 0.239216
0.74902 0.207843 0.25098
0.152941 0.305882 0.219608
0.156863 0.317647 0.227451
0.243137 0.329412 0.231373
0.317647 0.32549 0.235294
0.388235 0.321569 0.231373
0.462745 0.32549 0.223529
0.552941 0.317647 0.223529
0.662745 0.317647 0.219608
0.768627 0.329412 0.235294
0.219608 0.407843 0.2
0.223529 0.419608 0.207843
0.282353 0.427451 0.203922
0.364706 0.431373 0.2
0.443137 0.431373 0.211765
0.509804 0.415686 0.219608
0.584314 0.427451 0.196078
0.67451 0.439216 0.180392
0.788235 0.454902 0.196078
0.282353 0.509804 0.14902
0.286275 0.521569 0.172549
0.329412 0.529412 0.160784
0.411765 0.537255 0.14902
0.498039 0.54902 0.14902
0.576471 0.545098 0.160784
0.654902 0.521569 0.180392
0.729412 0.533333 0.129412
0.827451 0.576471 0.12549
0.34902 0.627451 0.0352941
0.356863 0.643137 0.0470588
0.384314 0.647059 0.0196078
0.466667 0.658824 0
0.537255 0.662745 0
0.635294 0.678431 0
0.713725 0.678431 0
0.788235 0.635294 0.0117647
0.882353 0.67451 0.12549
0.423529 0.776471 0
0.427451 0.788235 0
0.462745 0.792157 0
0.52549 0.8 0
0.611765 0.807843 0
0.686275 0.819608 0
0.784314 0.831373 0
0.866667 0.827451 0
0.92549 0.792157 0.0862745
0.490196 0.968627 0.0392157
0.490196 0.976471 0.0392157
0.52549 0.976471 0.0352941
0.592157 0.980392 0.0352941
0.682353 0.984314 0.0313725
0.784314 0.988235 0.0313725
0.882353 0.988235 0.0313725
0.976471 0.988235 0.0392157
0.992157 0.968627 0.196078
0.0196078 0.113725 0.266667
0.0705882 0.12549 0.286275
0.156863 0.12549 0.286275
0.243137 0.129412 0.294118
0.278431 0.184314 0.266667
0.341176 0.223529 0.278431
0.447059 0.215686 0.298039
0.576471 0.196078 0.321569
0.705882 0.192157 0.352941
0.101961 0.168627 0.301961
0.109804 0.176471 0.313725
0.180392 0.168627 0.321569
0.262745 0.160784 0.317647
0.301961 0.219608 0.298039
0.372549 0.247059 0.321569
0.482353 0.235294 0.341176
0.615686 0.215686 0.360784
0.737255 0.203922 0.384314
0.160784 0.247059 0.305882
0.168627 0.258824 0.317647
0.207843 0.25098 0.329412
0.282353 0.243137 0.333333
0.321569 0.286275 0.321569
0.407843 0.278431 0.337255
0.521569 0.262745 0.345098
0.643137 0.235294 0.352941
0.752941 0.211765 0.360784
0.172549 0.298039 0.305882
0.180392 0.309804 0.321569
0.231373 0.32549 0.333333
0.32549 0.356863 0.360784
0.396078 0.345098 0.34902
0.470588 0.329412 0.341176
0.556863 0.321569 0.337255
0.662745 0.309804 0.32549
0.768627 0.317647 0.337255
0.196078 0.396078 0.309804
0.196078 0.411765 0.32549
0.243137 0.423529 0.32549
0.352941 0.443137 0.329412
0.439216 0.443137 0.341176
0.509804 0.439216 0.333333
0.584314 0.439216 0.309804
0.682353 0.427451 0.298039
0.788235 0.443137 0.305882
0.239216 0.513725 0.27451
0.243137 0.52549 0.290196
0.294118 0.533333 0.298039
0.388235 0.545098 0.294118
0.482353 0.552941 0.286275
0.568627 0.556863 0.305882
0.639216 0.533333 0.309804
0.721569 0.541176 0.27451
0.815686 0.580392 0.254902
0.305882 0.623529 0.219608
0.305882 0.639216 0.235294
0.345098 0.647059 0.235294
0.423529 0.65098 0.219608
0.521569 0.662745 0.203922
0.627451 0.678431 0.211765
0.709804 0.67451 0.223529
0.788235 0.647059 0.243137
0.87451 0.67451 0.2
0.372549 0.776471 0.0666667
0.376471 0.788235 0.0705882
0.423529 0.796078 0.0431373
0.482353 0.8 0.00784314
0.588235 0.811765 0
0.67451 0.819608 0
0.784314 0.835294 0
0.862745 0.823529 0
0.92549 0.792157 0.0941176
0.462745 0.976471 0.054902
0.462745 0.984314 0.054902
0.498039 0.984314 0.054902
0.572549 0.988235 0.0509804
0.662745 0.988235 0.0509804
0.780392 0.988235 0.0509804
0.87451 0.988235 0.0509804
0.980392 0.988235 0.0588235
0.992157 0.972549 0.223529
0.027451 0.156863 0.352941
0.0784314 0.168627 0.364706
0.160784 0.164706 0.368627
0.243137 0.156863 0.376471
0.321569 0.160784 0.372549
0.356863 0.215686 0.345098
0.407843 0.278431 0.352941
0.533333 0.282353 0.384314
0.662745 0.298039 0.427451
0.101961 0.196078 0.380392
0.117647 0.207843 0.4
0.184314 0.203922 0.403922
0.266667 0.188235 0.411765
0.34902 0.188235 0.403922
0.380392 0.247059 0.372549
0.427451 0.313725 0.384314
0.552941 0.309804 0.415686
0.690196 0.321569 0.462745
0.188235 0.278431 0.392157
0.192157 0.290196 0.4
0.207843 0.266667 0.407843
0.282353 0.258824 0.419608
0.364706 0.254902 0.415686
0.396078 0.298039 0.388235
0.458824 0.341176 0.403922
0.588235 0.329412 0.435294
0.713725 0.333333 0.466667
0.211765 0.337255 0.388235
0.223529 0.356863 0.403922
0.258824 0.364706 0.411765
0.317647 0.360784 0.431373
0.396078 0.352941 0.435294
0.431373 0.388235 0.419608
0.517647 0.380392 0.435294
0.643137 0.356863 0.439216
0.756863 0.356863 0.462745
0.227451 0.392157 0.396078
0.227451 0.4 0.4
0.266667 0.411765 0.411765
0.341176 0.439216 0.435294
0.454902 0.486275 0.47451
0.521569 0.462745 0.458824
0.596078 0.439216 0.435294
0.686275 0.419608 0.419608
0.792157 0.423529 0.427451
0.223529 0.486275 0.396078
0.219608 0.494118 0.407843
0.262745 0.513725 0.411765
0.333333 0.537255 0.415686
0.466667 0.568627 0.419608
0.568627 0.572549 0.435294
0.639216 0.556863 0.423529
0.717647 0.552941 0.384314
0.819608 0.564706 0.384314
0.227451 0.615686 0.345098
0.219608 0.627451 0.360784
0.254902 0.639216 0.352941
0.360784 0.654902 0.360784
0.482353 0.670588 0.352941
0.603922 0.682353 0.352941
0.705882 0.690196 0.376471
0.780392 0.662745 0.388235
0.870588 0.690196 0.360784
0.262745 0.772549 0.258824
0.262745 0.784314 0.278431
0.317647 0.792157 0.27451
0.407843 0.8 0.262745
0.529412 0.807843 0.243137
0.65098 0.819608 0.219608
0.776471 0.839216 0.223529
0.862745 0.827451 0.243137
0.929412 0.803922 0.27451
0.356863 0.972549 0.0980392
0.368627 0.984314 0.0941176
0.407843 0.984314 0.0941176
0.517647 0.988235 0.0823529
0.627451 0.988235 0.0745098
0.752941 0.988235 0.0666667
0.870588 0.988235 0.0705882
0.984314 0.988235 0.0745098
0.988235 0.976471 0.258824
0.0588235 0.207843 0.435294
0.0980392 0.211765 0.45098
0.160784 0.207843 0.45098
0.239216 0.2 0.458824
0.337255 0.180392 0.462745
0.407843 0.188235 0.454902
0.439216 0.243137 0.423529
0.513725 0.317647 0.439216
0.627451 0.388235 0.501961
0.105882 0.235294 0.47451
0.129412 0.243137 0.486275
0.188235 0.239216 0.490196
0.266667 0.227451 0.494118
0.356863 0.207843 0.498039
0.443137 0.211765 0.494118
0.470588 0.266667 0.454902
0.537255 0.352941 0.470588
0.639216 0.415686 0.52549
0.188235 0.309804 0.478431
0.188235 0.309804 0.490196
0.211765 0.294118 0.494118
0.282353 0.286275 0.501961
0.372549 0.270588 0.505882
0.454902 0.270588 0.501961
0.486275 0.317647 0.466667
0.54902 0.388235 0.482353
0.662745 0.435294 0.537255
0.243137 0.388235 0.482353
0.254902 0.396078 0.494118
0.286275 0.396078 0.501961
0.305882 0.364706 0.505882
0.388235 0.356863 0.517647
0.478431 0.34902 0.517647
0.513725 0.392157 0.490196
0.572549 0.447059 0.505882
0.701961 0.462745 0.54902
0.254902 0.439216 0.482353
0.262745 0.443137 0.490196
0.301961 0.458824 0.498039
0.360784 0.47451 0.513725
0.431373 0.47451 0.541176
0.517647 0.462745 0.545098
0.545098 0.494118 0.521569
0.635294 0.482353 0.529412
0.760784 0.490196 0.560784
0.25098 0.486275 0.482353
0.258824 0.494118 0.486275
0.290196 0.501961 0.490196
0.352941 0.521569 0.509804
0.45098 0.556863 0.541176
0.584314 0.619608 0.588235
0.643137 0.584314 0.560784
0.72549 0.54902 0.529412
0.819608 0.545098 0.529412
0.196078 0.592157 0.490196
0.196078 0.592157 0.486275
0.227451 0.596078 0.490196
0.313725 0.623529 0.494118
0.411765 0.654902 0.498039
0.576471 0.698039 0.513725
0.698039 0.709804 0.537255
0.776471 0.690196 0.52549
0.862745 0.709804 0.490196
0.133333 0.772549 0.462745
0.129412 0.768627 0.447059
0.188235 0.776471 0.447059
0.278431 0.792157 0.423529
0.435294 0.811765 0.427451
0.6 0.831373 0.415686
0.745098 0.843137 0.419608
0.854902 0.843137 0.458824
0.933333 0.835294 0.486275
0.0784314 0.980392 0.423529
0.0588235 0.984314 0.4
0.160784 0.984314 0.376471
0.372549 0.984314 0.380392
0.517647 0.988235 0.364706
0.686275 0.988235 0.32549
0.847059 0.992157 0.239216
0.976471 0.988235 0.266667
0.988235 0.980392 0.333333
0.117647 0.25098 0.541176
0.129412 0.262745 0.552941
0.180392 0.258824 0.560784
0.262745 0.25098 0.568627
0.345098 0.231373 0.568627
0.447059 0.203922 0.576471
0.521569 0.215686 0.564706
0.560784 0.282353 0.533333
0.654902 0.376471 0.576471
0.145098 0.278431 0.580392
0.156863 0.294118 0.6
0.211765 0.290196 0.603922
0.286275 0.278431 0.603922
0.376471 0.262745 0.611765
0.482353 0.235294 0.619608
0.560784 0.239216 0.607843
0.592157 0.298039 0.572549
0.678431 0.396078 0.6
0.2 0.337255 0.588235
0.196078 0.341176 0.603922
0.231373 0.337255 0.603922
0.298039 0.32549 0.611765
0.384314 0.313725 0.615686
0.482353 0.286275 0.619608
0.572549 0.290196 0.611765
0.6 0.337255 0.572549
0.686275 0.435294 0.607843
0.282353 0.427451 0.592157
0.290196 0.439216 0.603922
0.290196 0.423529 0.603922
0.313725 0.392157 0.611765
0.392157 0.384314 0.619608
0.494118 0.364706 0.627451
0.584314 0.360784 0.623529
0.611765 0.407843 0.580392
0.694118 0.494118 0.615686
0.309804 0.501961 0.588235
0.309804 0.509804 0.596078
0.333333 0.513725 0.603922
0.380392 0.509804 0.615686
0.411765 0.470588 0.627451
0.505882 0.458824 0.631373
0.6 0.447059 0.627451
0.635294 0.494118 0.596078
0.701961 0.568627 0.627451
0.298039 0.537255 0.576471
0.294118 0.545098 0.584314
0.321569 0.552941 0.592157
0.384314 0.568627 0.603922
0.458824 0.584314 0.615686
0.541176 0.588235 0.647059
0.635294 0.576471 0.65098
0.670588 0.607843 0.623529
0.768627 0.627451 0.654902
0.258824 0.584314 0.560784
0.254902 0.588235 0.568627
0.282353 0.596078 0.576471
0.341176 0.607843 0.588235
0.431373 0.635294 0.607843
0.552941 0.678431 0.639216
0.713725 0.756863 0.701961
0.772549 0.709804 0.666667
0.862745 0.698039 0.654902
0.0392157 0.705882 0.580392
0.0117647 0.721569 0.596078
0.117647 0.729412 0.596078
0.219608 0.737255 0.596078
0.356863 0.768627 0.592157
0.494118 0.796078 0.592157
0.698039 0.839216 0.607843
0.835294 0.854902 0.647059
0.921569 0.870588 0.658824
0.0862745 0.972549 0.619608
0.0431373 0.984314 0.631373
0.0627451 0.984314 0.623529
0.239216 0.988235 0.6
0.384314 0.988235 0.572549
0.556863 0.988235 0.556863
0.780392 0.988235 0.52549
0.94902 0.992157 0.552941
0.988235 0.992157 0.580392
0.211765 0.341176 0.690196
0.223529 0.356863 0.701961
0.258824 0.34902 0.705882
0.317647 0.341176 0.709804
0.4 0.32549 0.709804
0.494118 0.301961 0.717647
0.603922 0.266667 0.729412
0.682353 0.290196 0.713725
0.721569 0.352941 0.690196
0.243137 0.372549 0.733333
0.25098 0.388235 0.745098
0.294118 0.388235 0.752941
0.352941 0.376471 0.756863
0.435294 0.360784 0.756863
0.52549 0.329412 0.756863
0.631373 0.290196 0.764706
0.713725 0.301961 0.752941
0.752941 0.360784 0.72549
0.270588 0.419608 0.741176
0.270588 0.427451 0.74902
0.301961 0.423529 0.752941
0.364706 0.415686 0.756863
0.439216 0.396078 0.756863
0.529412 0.372549 0.760784
0.635294 0.337255 0.764706
0.717647 0.341176 0.752941
0.752941 0.396078 0.721569
0.341176 0.501961 0.741176
0.34902 0.513725 0.752941
0.341176 0.494118 0.74902
0.372549 0.470588 0.756863
0.447059 0.458824 0.760784
0.533333 0.435294 0.760784
0.631373 0.4 0.764706
0.717647 0.4 0.74902
0.752941 0.45098 0.721569
0.388235 0.588235 0.737255
0.392157 0.592157 0.741176
0.415686 0.596078 0.74902
0.427451 0.568627 0.74902
0.447059 0.529412 0.752941
0.533333 0.509804 0.760784
0.635294 0.482353 0.764706
0.729412 0.478431 0.760784
0.764706 0.533333 0.72549
0.392157 0.647059 0.72549
0.396078 0.658824 0.733333
0.415686 0.658824 0.733333
0.454902 0.658824 0.737255
0.505882 0.647059 0.74902
0.541176 0.603922 0.756863
0.643137 0.584314 0.764706
0.741176 0.572549 0.756863
0.788235 0.639216 0.741176
0.337255 0.678431 0.705882
0.341176 0.690196 0.721569
0.364706 0.694118 0.72549
0.411765 0.698039 0.72549
0.490196 0.713725 0.737255
0.572549 0.721569 0.741176
0.662745 0.717647 0.768627
0.764706 0.705882 0.772549
0.823529 0.768627 0.764706
0.231373 0.733333 0.690196
0.239216 0.74902 0.709804
0.266667 0.74902 0.709804
0.333333 0.756863 0.717647
0.411765 0.756863 0.713725
0.521569 0.776471 0.72549
0.658824 0.811765 0.74902
0.843137 0.901961 0.827451
0.913725 0.870588 0.8
0.0745098 0.956863 0.788235
0.0431373 0.968627 0.803922
0.054902 0.972549 0.807843
0.133333 0.976471 0.803922
0.321569 0.984314 0.803922
0.486275 0.984314 0.788235
0.666667 0.988235 0.760784
0.890196 0.992157 0.768627
0.988235 0.992157 0.823529
0.435294 0.541176 0.878431
0.45098 0.560784 0.890196
0.470588 0.556863 0.890196
0.509804 0.54902 0.890196
0.552941 0.533333 0.894118
0.615686 0.505882 0.894118
0.698039 0.470588 0.894118
0.788235 0.427451 0.890196
0.85098 0.470588 0.878431
0.47451 0.576471 0.909804
0.482353 0.588235 0.917647
0.505882 0.588235 0.913725
0.537255 0.576471 0.917647
0.576471 0.552941 0.913725
0.643137 0.533333 0.917647
0.717647 0.501961 0.913725
0.803922 0.45098 0.917647
0.87451 0.490196 0.913725
0.482353 0.603922 0.909804
0.494118 0.611765 0.917647
0.509804 0.611765 0.913725
0.533333 0.592157 0.909804
0.584314 0.584314 0.913725
0.647059 0.560784 0.917647
0.721569 0.529412 0.917647
0.811765 0.482353 0.917647
0.878431 0.517647 0.913725
0.521569 0.662745 0.905882
0.52549 0.670588 0.909804
0.529412 0.658824 0.913725
0.54902 0.639216 0.913725
0.592157 0.627451 0.913725
0.65098 0.607843 0.917647
0.721569 0.576471 0.921569
0.811765 0.533333 0.921569
0.882353 0.560784 0.917647
0.572549 0.745098 0.905882
0.580392 0.752941 0.909804
0.576471 0.737255 0.909804
0.584314 0.713725 0.913725
0.6 0.686275 0.917647
0.654902 0.666667 0.917647
0.729412 0.635294 0.92549
0.811765 0.588235 0.917647
0.894118 0.619608 0.921569
0.596078 0.815686 0.905882
0.6 0.827451 0.905882
0.603922 0.815686 0.909804
0.627451 0.811765 0.913725
0.647059 0.788235 0.917647
0.654902 0.737255 0.921569
0.721569 0.705882 0.921569
0.819608 0.678431 0.929412
0.901961 0.686275 0.929412
0.576471 0.870588 0.905882
0.576471 0.87451 0.909804
0.596078 0.87451 0.909804
0.623529 0.878431 0.913725
0.654902 0.87451 0.909804
0.701961 0.858824 0.92549
0.733333 0.807843 0.929412
0.819608 0.780392 0.933333
0.917647 0.780392 0.937255
0.52549 0.921569 0.913725
0.52549 0.921569 0.917647
0.545098 0.92549 0.921569
0.572549 0.92549 0.921569
0.623529 0.929412 0.921569
0.67451 0.921569 0.913725
0.764706 0.941176 0.929412
0.831373 0.905882 0.933333
0.941176 0.909804 0.937255
0.462745 0.984314 0.937255
0.458824 0.988235 0.941176
0.486275 0.988235 0.945098
0.521569 0.988235 0.94902
0.556863 0.988235 0.937255
0.643137 0.988235 0.941176
0.745098 0.988235 0.941176
0.866667 0.992157 0.945098
0.984314 0.992157 0.964706
