assets/luts/cinematic/RR Prima KD Elite.cube
#Generated by Picture Instruments - Unlimited Filters
TITLE "RR Prima KD Elite"
LUT_3D_SIZE 17
0.00392157 0.00392157 0.0509804
0.0392157 0.00392157 0.054902
0.0862745 0.0235294 0.0666667
0.121569 0.0392157 0.0745098
0.160784 0.0431373 0.0823529
0.2 0.0470588 0.0862745
0.243137 0.0392157 0.0901961
0.286275 0.027451 0.0980392
0.32549 0.0196078 0.105882
0.368627 0.0156863 0.109804
0.411765 0.0156863 0.117647
0.458824 0.0117647 0.12549
0.501961 0.0156863 0.137255
0.556863 0.0156863 0.14902
0.615686 0.0156863 0.164706
0.678431 0.0196078 0.180392
0.72549 0.0431373 0.196078
0.0352941 0.0705882 0.0509804
0.0666667 0.0705882 0.054902
0.0980392 0.0784314 0.0666667
0.133333 0.0823529 0.0745098
0.172549 0.0862745 0.0823529
0.207843 0.0784314 0.0862745
0.25098 0.0784314 0.0901961
0.298039 0.0705882 0.0980392
0.341176 0.0666667 0.105882
0.384314 0.0588235 0.113725
0.423529 0.0470588 0.121569
0.470588 0.0392157 0.129412
0.517647 0.0235294 0.137255
0.572549 0.00392157 0.14902
0.631373 0 0.164706
0.686275 0 0.180392
0.737255 0.0235294 0.196078
0.0745098 0.113725 0.054902
0.0941176 0.117647 0.054902
0.109804 0.109804 0.0588235
0.141176 0.113725 0.0705882
0.180392 0.12549 0.0745098
0.219608 0.12549 0.0823529
0.262745 0.12549 0.0862745
0.301961 0.117647 0.0941176
0.34902 0.117647 0.101961
0.392157 0.113725 0.109804
0.431373 0.109804 0.117647
0.47451 0.0980392 0.12549
0.521569 0.0941176 0.137255
0.576471 0.0823529 0.145098
0.631373 0.0705882 0.160784
0.694118 0.0470588 0.180392
0.737255 0.0745098 0.196078
0.101961 0.160784 0.0470588
0.113725 0.164706 0.0470588
0.137255 0.168627 0.0392157
0.160784 0.160784 0.054902
0.188235 0.156863 0.0745098
0.227451 0.168627 0.0705882
0.262745 0.176471 0.0745098
0.305882 0.172549 0.0784314
0.352941 0.172549 0.0901961
0.392157 0.168627 0.0980392
0.435294 0.160784 0.109804
0.478431 0.156863 0.117647
0.529412 0.156863 0.129412
0.580392 0.145098 0.141176
0.635294 0.137255 0.156863
0.698039 0.133333 0.176471
0.741176 0.14902 0.188235
0.137255 0.211765 0.0313725
0.145098 0.215686 0.0196078
0.160784 0.215686 0.0196078
0.188235 0.215686 0.0235294
0.215686 0.211765 0.0352941
0.243137 0.2 0.0588235
0.27451 0.207843 0.0588235
0.313725 0.223529 0.0627451
0.356863 0.223529 0.0745098
0.396078 0.219608 0.0862745
0.435294 0.215686 0.0980392
0.482353 0.211765 0.109804
0.529412 0.207843 0.117647
0.584314 0.203922 0.133333
0.643137 0.203922 0.152941
0.698039 0.196078 0.168627
0.74902 0.215686 0.184314
0.164706 0.258824 0.0156863
0.172549 0.266667 0.00392157
0.192157 0.270588 0.00392157
0.211765 0.266667 0.00392157
0.243137 0.266667 0.00392157
0.27451 0.258824 0.0117647
0.298039 0.247059 0.0392157
0.337255 0.254902 0.0470588
0.364706 0.262745 0.054902
0.407843 0.27451 0.0627451
0.447059 0.270588 0.0784314
0.490196 0.266667 0.0941176
0.537255 0.262745 0.105882
0.592157 0.262745 0.121569
0.65098 0.262745 0.141176
0.709804 0.258824 0.160784
0.756863 0.278431 0.176471
0.188235 0.309804 0.0117647
0.203922 0.317647 0
0.215686 0.317647 0
0.239216 0.321569 0
0.270588 0.321569 0
0.298039 0.317647 0
0.329412 0.313725 0
0.352941 0.294118 0.0117647
0.392157 0.301961 0.0235294
0.423529 0.305882 0.0352941
0.462745 0.317647 0.0431373
0.498039 0.321569 0.054902
0.54902 0.321569 0.0823529
0.603922 0.321569 0.105882
0.654902 0.317647 0.121569
0.713725 0.317647 0.14902
0.764706 0.341176 0.164706
0.219608 0.360784 0.0117647
0.231373 0.368627 0
0.235294 0.368627 0
0.258824 0.368627 0
0.286275 0.372549 0
0.32549 0.376471 0
0.356863 0.380392 0
0.388235 0.368627 0
0.411765 0.345098 0
0.45098 0.34902 0
0.486275 0.352941 0.00392157
0.517647 0.364706 0.0156863
0.560784 0.376471 0.0313725
0.607843 0.380392 0.0666667
0.658824 0.380392 0.0980392
0.721569 0.384314 0.129412
0.772549 0.4 0.141176
0.247059 0.407843 0.0156863
0.254902 0.415686 0
0.266667 0.419608 0
0.286275 0.423529 0
0.313725 0.423529 0
0.341176 0.423529 0
0.380392 0.427451 0
0.419608 0.435294 0
0.45098 0.423529 0
0.466667 0.396078 0
0.513725 0.4 0
0.54902 0.407843 0
0.588235 0.419608 0
0.623529 0.427451 0.00784314
0.670588 0.439216 0.0470588
0.729412 0.443137 0.101961
0.784314 0.454902 0.12549
0.27451 0.458824 0.0156863
0.278431 0.462745 0
0.294118 0.466667 0
0.309804 0.470588 0
0.337255 0.47451 0
0.368627 0.47451 0
0.4 0.478431 0
0.435294 0.482353 0
0.482353 0.486275 0
0.509804 0.478431 0
0.529412 0.45098 0
0.580392 0.45098 0
0.615686 0.458824 0
0.658824 0.466667 0
0.701961 0.482353 0.0117647
0.741176 0.498039 0.0627451
0.796078 0.521569 0.0901961
0.313725 0.517647 0.0117647
0.313725 0.521569 0
0.321569 0.521569 0
0.337255 0.52549 0
0.360784 0.52549 0
0.396078 0.529412 0
0.423529 0.533333 0
0.458824 0.537255 0
0.498039 0.541176 0
0.541176 0.545098 0
0.572549 0.537255 0
0.596078 0.513725 0
0.643137 0.509804 0
0.682353 0.513725 0
0.721569 0.52549 0
0.768627 0.541176 0.0392157
0.811765 0.564706 0.0784314
0.345098 0.580392 0.00784314
0.345098 0.580392 0
0.352941 0.580392 0
0.364706 0.580392 0
0.392157 0.588235 0
0.415686 0.588235 0
0.45098 0.592157 0.00392157
0.482353 0.596078 0
0.52549 0.6 0
0.556863 0.6 0
0.603922 0.607843 0
0.639216 0.6 0
0.662745 0.576471 0
0.709804 0.568627 0
0.74902 0.576471 0
0.792157 0.584314 0.00784314
0.843137 0.615686 0.0705882
0.376471 0.647059 0
0.376471 0.643137 0
0.376471 0.639216 0
0.388235 0.647059 0
0.415686 0.647059 0
0.443137 0.647059 0
0.470588 0.647059 0
0.505882 0.65098 0
0.54902 0.658824 0
0.588235 0.662745 0
0.631373 0.670588 0
0.666667 0.670588 0
0.709804 0.666667 0
0.72549 0.635294 0
0.780392 0.631373 0
0.823529 0.643137 0.00392157
0.862745 0.666667 0.0705882
0.403922 0.717647 0
0.4 0.713725 0
0.403922 0.709804 0
0.415686 0.713725 0
0.435294 0.713725 0
0.462745 0.713725 0
0.494118 0.717647 0
0.537255 0.721569 0
0.564706 0.721569 0
0.611765 0.729412 0
0.65098 0.737255 0
0.694118 0.741176 0
0.745098 0.74902 0
0.780392 0.741176 0
0.796078 0.709804 0
0.843137 0.694118 0
0.886275 0.721569 0.0705882
0.439216 0.803922 0.00392157
0.423529 0.788235 0
0.423529 0.788235 0
0.435294 0.788235 0
0.466667 0.792157 0.00392157
0.482353 0.792157 0.00392157
0.517647 0.792157 0
0.556863 0.796078 0
0.6 0.8 0
0.639216 0.803922 0
0.678431 0.807843 0
0.721569 0.815686 0
0.768627 0.823529 0
0.819608 0.827451 0
0.862745 0.823529 0
0.870588 0.792157 0
0.905882 0.788235 0.0196078
0.462745 0.886275 0.00392157
0.447059 0.87451 0
0.45098 0.87451 0
0.458824 0.87451 0
0.486275 0.87451 0
0.513725 0.87451 0
0.54902 0.878431 0
0.576471 0.87451 0.00392157
0.623529 0.882353 0.00392157
0.678431 0.890196 0
0.717647 0.894118 0
0.764706 0.901961 0
0.8 0.901961 0
0.862745 0.913725 0
0.909804 0.917647 0
0.941176 0.898039 0
0.94902 0.890196 0
0.513725 0.976471 0.0235294
0.498039 0.968627 0.00784314
0.501961 0.968627 0.00784314
0.517647 0.968627 0
0.537255 0.968627 0
0.564706 0.972549 0
0.6 0.972549 0
0.639216 0.976471 0
0.686275 0.980392 0.00392157
0.741176 0.984314 0
0.784314 0.988235 0
0.827451 0.988235 0
0.878431 0.988235 0
0.92549 0.984314 0
0.972549 0.984314 0.0196078
0.992157 0.980392 0.0745098
0.992157 0.968627 0.176471
0.0235294 0.0156863 0.0823529
0.0509804 0.027451 0.0901961
0.0784314 0.0627451 0.0901961
0.117647 0.0627451 0.105882
0.160784 0.0627451 0.109804
0.203922 0.0666667 0.109804
0.247059 0.0666667 0.113725
0.286275 0.0666667 0.113725
0.32549 0.0627451 0.113725
0.372549 0.0666667 0.117647
0.415686 0.0627451 0.121569
0.458824 0.054902 0.129412
0.505882 0.0352941 0.137255
0.556863 0.0196078 0.14902
0.619608 0.0196078 0.164706
0.682353 0.0196078 0.184314
0.729412 0.0431373 0.203922
0.0431373 0.0666667 0.0901961
0.0627451 0.0784314 0.0980392
0.0980392 0.0823529 0.101961
0.133333 0.0862745 0.105882
0.172549 0.0862745 0.109804
0.211765 0.0901961 0.113725
0.254902 0.0901961 0.113725
0.294118 0.0941176 0.113725
0.345098 0.0941176 0.117647
0.384314 0.0862745 0.117647
0.427451 0.0823529 0.117647
0.470588 0.0784314 0.129412
0.517647 0.0666667 0.141176
0.572549 0.0392157 0.14902
0.631373 0.00784314 0.164706
0.690196 0 0.180392
0.741176 0.0235294 0.2
0.0784314 0.117647 0.0901961
0.0862745 0.117647 0.0941176
0.109804 0.117647 0.0980392
0.137255 0.121569 0.101961
0.176471 0.12549 0.105882
0.219608 0.129412 0.109804
0.254902 0.12549 0.109804
0.301961 0.12549 0.109804
0.345098 0.12549 0.113725
0.388235 0.12549 0.121569
0.431373 0.121569 0.121569
0.470588 0.117647 0.12549
0.521569 0.109804 0.133333
0.576471 0.101961 0.14902
0.635294 0.0784314 0.164706
0.690196 0.0431373 0.184314
0.745098 0.0823529 0.2
0.105882 0.156863 0.0901961
0.113725 0.168627 0.0941176
0.137255 0.168627 0.0980392
0.152941 0.160784 0.0980392
0.188235 0.160784 0.101961
0.227451 0.172549 0.101961
0.266667 0.176471 0.101961
0.309804 0.176471 0.105882
0.34902 0.172549 0.109804
0.396078 0.172549 0.109804
0.435294 0.168627 0.117647
0.478431 0.164706 0.121569
0.52549 0.156863 0.129412
0.580392 0.152941 0.141176
0.639216 0.14902 0.156863
0.698039 0.145098 0.176471
0.74902 0.160784 0.196078
0.133333 0.203922 0.0862745
0.137255 0.215686 0.0901961
0.156863 0.215686 0.0862745
0.184314 0.219608 0.0901961
0.215686 0.207843 0.0941176
0.239216 0.2 0.0980392
0.27451 0.211765 0.0941176
0.313725 0.223529 0.0941176
0.352941 0.223529 0.0941176
0.4 0.223529 0.0980392
0.439216 0.219608 0.105882
0.482353 0.215686 0.109804
0.529412 0.215686 0.121569
0.588235 0.211765 0.133333
0.643137 0.203922 0.14902
0.701961 0.2 0.172549
0.752941 0.223529 0.188235
0.164706 0.254902 0.0705882
0.168627 0.270588 0.0784314
0.180392 0.266667 0.0784314
0.207843 0.270588 0.0705882
0.239216 0.270588 0.0705882
0.266667 0.262745 0.0745098
0.298039 0.247059 0.0901961
0.329412 0.254902 0.0862745
0.368627 0.266667 0.0823529
0.403922 0.27451 0.0784314
0.443137 0.270588 0.0862745
0.486275 0.266667 0.0941176
0.537255 0.266667 0.105882
0.592157 0.266667 0.121569
0.647059 0.262745 0.141176
0.709804 0.266667 0.160784
0.760784 0.278431 0.180392
0.192157 0.305882 0.0470588
0.196078 0.313725 0.054902
0.207843 0.317647 0.054902
0.235294 0.321569 0.0431373
0.262745 0.317647 0.0352941
0.298039 0.317647 0.0392157
0.32549 0.309804 0.0470588
0.356863 0.294118 0.0705882
0.392157 0.301961 0.0705882
0.423529 0.305882 0.0666667
0.462745 0.317647 0.0627451
0.501961 0.32549 0.0627451
0.54902 0.32549 0.0823529
0.596078 0.317647 0.101961
0.658824 0.321569 0.12549
0.717647 0.321569 0.14902
0.764706 0.337255 0.168627
0.223529 0.356863 0.0156863
0.223529 0.364706 0.0156863
0.231373 0.368627 0.0117647
0.254902 0.368627 0.00392157
0.286275 0.372549 0.00784314
0.32549 0.376471 0
0.352941 0.372549 0.00392157
0.388235 0.368627 0.00784314
0.411765 0.345098 0.0313725
0.454902 0.34902 0.0392157
0.482353 0.352941 0.027451
0.521569 0.364706 0.0235294
0.560784 0.376471 0.0313725
0.611765 0.380392 0.0666667
0.666667 0.380392 0.101961
0.721569 0.380392 0.129412
0.772549 0.4 0.14902
0.25098 0.403922 0
0.25098 0.411765 0
0.262745 0.419608 0
0.278431 0.419608 0
0.309804 0.419608 0
0.341176 0.423529 0
0.376471 0.431373 0
0.419608 0.435294 0
0.447059 0.423529 0
0.470588 0.396078 0.00392157
0.517647 0.403922 0.00392157
0.552941 0.407843 0
0.584314 0.415686 0
0.627451 0.427451 0.0117647
0.67451 0.443137 0.0470588
0.729412 0.443137 0.101961
0.784314 0.458824 0.129412
0.278431 0.454902 0
0.278431 0.466667 0
0.286275 0.466667 0
0.309804 0.470588 0
0.333333 0.47451 0
0.364706 0.47451 0.00392157
0.396078 0.478431 0
0.439216 0.486275 0
0.482353 0.490196 0
0.509804 0.478431 0
0.529412 0.45098 0
0.580392 0.45098 0
0.619608 0.458824 0
0.658824 0.47451 0
0.694118 0.482353 0.00784314
0.741176 0.498039 0.0627451
0.796078 0.521569 0.0901961
0.313725 0.505882 0
0.309804 0.517647 0
0.317647 0.517647 0
0.333333 0.521569 0
0.360784 0.529412 0
0.396078 0.529412 0
0.427451 0.533333 0
0.458824 0.537255 0
0.498039 0.541176 0
0.545098 0.54902 0
0.576471 0.537255 0
0.592157 0.509804 0
0.647059 0.509804 0
0.686275 0.517647 0
0.72549 0.529412 0
0.772549 0.545098 0.0470588
0.815686 0.568627 0.0745098
0.341176 0.564706 0
0.341176 0.576471 0
0.34902 0.580392 0
0.360784 0.580392 0
0.384314 0.584314 0
0.419608 0.588235 0
0.454902 0.592157 0
0.486275 0.596078 0
0.521569 0.6 0
0.564706 0.603922 0
0.607843 0.611765 0
0.643137 0.603922 0
0.662745 0.576471 0
0.709804 0.568627 0
0.752941 0.576471 0
0.796078 0.588235 0.0156863
0.839216 0.611765 0.0745098
0.380392 0.631373 0
0.372549 0.639216 0
0.380392 0.639216 0
0.388235 0.643137 0
0.411765 0.647059 0
0.447059 0.65098 0
0.47451 0.65098 0
0.509804 0.654902 0
0.545098 0.662745 0
0.592157 0.666667 0
0.623529 0.670588 0
0.670588 0.67451 0
0.709804 0.670588 0
0.733333 0.643137 0
0.780392 0.631373 0
0.819608 0.639216 0
0.866667 0.666667 0.0745098
0.4 0.694118 0
0.396078 0.705882 0
0.403922 0.705882 0
0.407843 0.705882 0
0.435294 0.713725 0
0.470588 0.713725 0
0.501961 0.717647 0
0.533333 0.717647 0.00392157
0.568627 0.721569 0
0.615686 0.733333 0
0.654902 0.737255 0
0.701961 0.741176 0
0.737255 0.745098 0
0.780392 0.741176 0
0.8 0.705882 0
0.85098 0.698039 0
0.890196 0.72549 0.0745098
0.423529 0.772549 0
0.419608 0.784314 0.00392157
0.427451 0.784314 0
0.439216 0.788235 0
0.462745 0.788235 0.00392157
0.490196 0.792157 0
0.521569 0.792157 0.00392157
0.560784 0.8 0
0.607843 0.803922 0
0.635294 0.803922 0
0.682353 0.811765 0
0.72549 0.815686 0
0.772549 0.823529 0
0.823529 0.831373 0
0.854902 0.819608 0
0.87451 0.788235 0
0.909804 0.792157 0.0196078
0.447059 0.862745 0
0.45098 0.878431 0
0.447059 0.87451 0
0.458824 0.87451 0
0.478431 0.87451 0
0.521569 0.882353 0
0.541176 0.882353 0
0.584314 0.882353 0
0.627451 0.890196 0
0.67451 0.894118 0
0.717647 0.898039 0
0.756863 0.901961 0
0.807843 0.905882 0
0.858824 0.913725 0
0.905882 0.917647 0
0.945098 0.905882 0
0.94902 0.894118 0
0.501961 0.964706 0.0196078
0.498039 0.968627 0.0196078
0.505882 0.968627 0.0196078
0.513725 0.968627 0.0156863
0.537255 0.972549 0.00784314
0.568627 0.972549 0
0.603922 0.976471 0
0.639216 0.980392 0
0.686275 0.984314 0
0.741176 0.988235 0
0.776471 0.984314 0
0.831373 0.988235 0
0.878431 0.988235 0
0.92549 0.984314 0
0.976471 0.984314 0.0196078
0.992157 0.980392 0.0823529
0.992157 0.972549 0.180392
0.0313725 0.054902 0.117647
0.0509804 0.054902 0.12549
0.0862745 0.054902 0.129412
0.105882 0.0823529 0.12549
0.145098 0.0980392 0.137255
0.192157 0.0980392 0.152941
0.239216 0.0941176 0.160784
0.286275 0.0784314 0.152941
0.329412 0.0745098 0.152941
0.372549 0.0745098 0.156863
0.415686 0.0745098 0.156863
0.454902 0.0627451 0.156863
0.501961 0.0509804 0.160784
0.556863 0.0392157 0.164706
0.615686 0.0235294 0.172549
0.678431 0.0196078 0.184314
0.729412 0.0392157 0.211765
0.0588235 0.0862745 0.129412
0.0666667 0.0901961 0.137255
0.101961 0.0941176 0.141176
0.113725 0.105882 0.137255
0.160784 0.109804 0.14902
0.207843 0.109804 0.156863
0.254902 0.101961 0.160784
0.298039 0.0980392 0.156863
0.341176 0.0980392 0.156863
0.384314 0.0901961 0.156863
0.431373 0.0941176 0.160784
0.470588 0.0901961 0.160784
0.517647 0.0823529 0.160784
0.572549 0.0627451 0.164706
0.627451 0.0470588 0.168627
0.694118 0.0156863 0.184314
0.737255 0.027451 0.203922
0.0745098 0.113725 0.129412
0.0823529 0.121569 0.141176
0.105882 0.12549 0.145098
0.137255 0.129412 0.14902
0.176471 0.129412 0.152941
0.219608 0.129412 0.152941
0.262745 0.129412 0.156863
0.301961 0.129412 0.156863
0.345098 0.129412 0.156863
0.392157 0.129412 0.156863
0.431373 0.121569 0.156863
0.47451 0.117647 0.160784
0.521569 0.113725 0.160784
0.576471 0.109804 0.164706
0.631373 0.0980392 0.168627
0.694118 0.0823529 0.180392
0.741176 0.105882 0.203922
0.0901961 0.160784 0.133333
0.0980392 0.172549 0.141176
0.121569 0.172549 0.141176
0.156863 0.168627 0.141176
0.188235 0.172549 0.145098
0.223529 0.176471 0.14902
0.266667 0.176471 0.14902
0.305882 0.172549 0.14902
0.34902 0.172549 0.152941
0.392157 0.168627 0.152941
0.435294 0.172549 0.152941
0.478431 0.168627 0.156863
0.521569 0.160784 0.156863
0.576471 0.160784 0.160784
0.635294 0.160784 0.164706
0.698039 0.14902 0.176471
0.745098 0.164706 0.2
0.121569 0.203922 0.129412
0.12549 0.215686 0.137255
0.14902 0.219608 0.137255
0.180392 0.223529 0.137255
0.203922 0.211765 0.141176
0.239216 0.207843 0.141176
0.278431 0.219608 0.141176
0.317647 0.223529 0.137255
0.356863 0.223529 0.141176
0.396078 0.219608 0.145098
0.443137 0.215686 0.145098
0.482353 0.215686 0.14902
0.533333 0.215686 0.14902
0.584314 0.207843 0.14902
0.643137 0.207843 0.156863
0.705882 0.207843 0.168627
0.752941 0.227451 0.192157
0.152941 0.254902 0.12549
0.152941 0.262745 0.133333
0.168627 0.270588 0.129412
0.203922 0.270588 0.12549
0.235294 0.270588 0.12549
0.270588 0.262745 0.129412
0.294118 0.25098 0.137255
0.329412 0.258824 0.133333
0.364706 0.270588 0.133333
0.403922 0.27451 0.129412
0.447059 0.270588 0.133333
0.490196 0.266667 0.133333
0.537255 0.266667 0.133333
0.592157 0.266667 0.137255
0.654902 0.266667 0.145098
0.709804 0.266667 0.160784
0.756863 0.278431 0.184314
0.180392 0.305882 0.105882
0.184314 0.313725 0.117647
0.2 0.321569 0.117647
0.223529 0.321569 0.113725
0.258824 0.321569 0.109804
0.294118 0.321569 0.109804
0.32549 0.317647 0.113725
0.352941 0.301961 0.12549
0.388235 0.305882 0.12549
0.423529 0.309804 0.121569
0.458824 0.317647 0.117647
0.498039 0.321569 0.113725
0.545098 0.321569 0.117647
0.6 0.321569 0.117647
0.658824 0.321569 0.12549
0.717647 0.321569 0.14902
0.768627 0.337255 0.172549
0.211765 0.352941 0.0862745
0.211765 0.364706 0.101961
0.227451 0.368627 0.101961
0.247059 0.368627 0.0980392
0.282353 0.372549 0.0862745
0.313725 0.368627 0.0862745
0.352941 0.372549 0.0862745
0.388235 0.368627 0.0941176
0.411765 0.34902 0.113725
0.45098 0.352941 0.113725
0.482353 0.352941 0.105882
0.521569 0.368627 0.0980392
0.564706 0.380392 0.0862745
0.615686 0.384314 0.0862745
0.662745 0.380392 0.101961
0.729412 0.384314 0.133333
0.776471 0.4 0.156863
0.243137 0.403922 0.0666667
0.243137 0.415686 0.0745098
0.25098 0.415686 0.0745098
0.270588 0.419608 0.0705882
0.301961 0.419608 0.0509804
0.337255 0.423529 0.0352941
0.376471 0.427451 0.0392157
0.411765 0.427451 0.0352941
0.447059 0.419608 0.0588235
0.470588 0.4 0.0823529
0.517647 0.403922 0.0862745
0.54902 0.407843 0.0745098
0.592157 0.419608 0.0509804
0.627451 0.431373 0.0313725
0.678431 0.443137 0.0509804
0.737255 0.447059 0.105882
0.784314 0.462745 0.133333
0.27451 0.454902 0.0196078
0.27451 0.466667 0.0196078
0.278431 0.466667 0.0156863
0.301961 0.470588 0.0156863
0.32549 0.470588 0.00392157
0.360784 0.47451 0
0.396078 0.478431 0
0.435294 0.486275 0
0.478431 0.490196 0
0.513725 0.482353 0.00392157
0.533333 0.454902 0.0156863
0.584314 0.454902 0.0352941
0.619608 0.462745 0.0117647
0.654902 0.470588 0.00392157
0.698039 0.482353 0.0117647
0.745098 0.501961 0.0627451
0.796078 0.517647 0.105882
0.305882 0.509804 0
0.301961 0.517647 0
0.313725 0.521569 0
0.321569 0.52549 0
0.356863 0.529412 0
0.392157 0.533333 0
0.415686 0.533333 0
0.454902 0.537255 0
0.501961 0.545098 0
0.54902 0.552941 0
0.576471 0.541176 0
0.592157 0.509804 0
0.643137 0.509804 0
0.686275 0.517647 0
0.729412 0.529412 0
0.768627 0.541176 0.0392157
0.815686 0.568627 0.0862745
0.337255 0.564706 0
0.333333 0.576471 0
0.345098 0.580392 0
0.352941 0.576471 0
0.380392 0.584314 0
0.415686 0.588235 0
0.45098 0.592157 0
0.486275 0.596078 0
0.521569 0.6 0
0.564706 0.603922 0
0.615686 0.611765 0
0.643137 0.6 0
0.658824 0.572549 0
0.713725 0.564706 0
0.756863 0.576471 0
0.8 0.592157 0.0235294
0.843137 0.615686 0.0784314
0.372549 0.627451 0
0.372549 0.639216 0
0.376471 0.643137 0
0.388235 0.643137 0
0.411765 0.647059 0
0.439216 0.647059 0
0.478431 0.65098 0
0.513725 0.654902 0
0.54902 0.662745 0
0.588235 0.666667 0
0.631373 0.670588 0
0.678431 0.678431 0
0.709804 0.670588 0
0.733333 0.643137 0
0.780392 0.631373 0
0.823529 0.643137 0.00392157
0.866667 0.666667 0.0745098
0.407843 0.701961 0
0.403922 0.709804 0
0.403922 0.709804 0
0.415686 0.713725 0
0.435294 0.713725 0
0.466667 0.717647 0
0.505882 0.72549 0
0.537255 0.721569 0
0.572549 0.729412 0
0.611765 0.733333 0
0.662745 0.741176 0
0.694118 0.745098 0
0.745098 0.74902 0
0.784314 0.741176 0
0.803922 0.713725 0
0.85098 0.701961 0
0.894118 0.72549 0.0784314
0.427451 0.776471 0
0.423529 0.784314 0
0.431373 0.788235 0
0.443137 0.788235 0
0.45098 0.788235 0
0.490196 0.792157 0
0.529412 0.796078 0
0.568627 0.8 0
0.6 0.8 0.00392157
0.639216 0.803922 0
0.686275 0.815686 0
0.729412 0.819608 0
0.776471 0.823529 0
0.815686 0.823529 0
0.858824 0.819608 0
0.87451 0.784314 0
0.905882 0.788235 0.0156863
0.45098 0.866667 0
0.447059 0.87451 0
0.454902 0.87451 0.00392157
0.462745 0.87451 0
0.486275 0.87451 0
0.513725 0.878431 0
0.54902 0.882353 0
0.584314 0.886275 0.00392157
0.631373 0.890196 0.00392157
0.678431 0.894118 0
0.709804 0.894118 0
0.764706 0.901961 0
0.811765 0.909804 0
0.858824 0.913725 0
0.913725 0.921569 0
0.941176 0.901961 0
0.952941 0.890196 0
0.494118 0.960784 0.027451
0.498039 0.972549 0.0235294
0.501961 0.972549 0.0235294
0.517647 0.972549 0.0235294
0.541176 0.972549 0.0235294
0.552941 0.972549 0.0196078
0.603922 0.976471 0.0117647
0.643137 0.980392 0.00784314
0.694118 0.984314 0.00784314
0.729412 0.980392 0.00392157
0.776471 0.984314 0.00392157
0.835294 0.988235 0
0.878431 0.988235 0
0.929412 0.984314 0.00392157
0.968627 0.984314 0.0156863
0.992157 0.980392 0.0941176
0.992157 0.968627 0.184314
0.0313725 0.0745098 0.160784
0.0509804 0.0745098 0.172549
0.0862745 0.0784314 0.176471
0.129412 0.0784314 0.176471
0.137255 0.105882 0.164706
0.164706 0.129412 0.172549
0.219608 0.12549 0.188235
0.270588 0.129412 0.196078
0.317647 0.12549 0.207843
0.372549 0.117647 0.211765
0.415686 0.0901961 0.2
0.454902 0.0784314 0.2
0.505882 0.0705882 0.203922
0.556863 0.0470588 0.203922
0.615686 0.0235294 0.207843
0.682353 0.0156863 0.211765
0.733333 0.0431373 0.231373
0.0588235 0.101961 0.168627
0.0705882 0.105882 0.180392
0.0941176 0.101961 0.180392
0.133333 0.0980392 0.184314
0.14902 0.121569 0.176471
0.184314 0.145098 0.188235
0.235294 0.141176 0.196078
0.286275 0.133333 0.207843
0.333333 0.129412 0.215686
0.384314 0.117647 0.207843
0.427451 0.0980392 0.203922
0.470588 0.0941176 0.203922
0.517647 0.0823529 0.2
0.568627 0.0666667 0.203922
0.627451 0.0431373 0.207843
0.694118 0.0117647 0.207843
